static char *benchwork_x16[] = {
	"16 16 9 1",
	" 	c	None",
	"0	c	#000000",
	"1	c	#330000",
	"2	c	#663300",
	"3	c	#993300",
	"4	c	#996600",
	"5	c	#CC6600",
	"6	c	#FF6600",
	"7	c	#FF9900",
	"                ",
	"                ",
	"         1562   ",
	"        36755   ",
	"      1576367   ",
	"     15655777   ",
	"     07067777   ",
	"     07077777   ",
	"     07077777   ",
	"     07077764   ",
	"     07077622   ",
	"     070752     ",
	"     07052      ",
	"     0001       ",
	"                ",
	"                "};

static char *benchwork_x24[] = {
	"24 24 8 1",
	" 	c	None",
	"0	c	#000000",
	"1	c	#663300",
	"2	c	#993300",
	"3	c	#996600",
	"4	c	#CC6600",
	"5	c	#FF6600",
	"6	c	#FF9900",
	"                        ",
	"                        ",
	"                        ",
	"                        ",
	"             146641     ",
	"            2666446     ",
	"          146652566     ",
	"         2566436666     ",
	"       035552566666     ",
	"       066606666666     ",
	"       066606666666     ",
	"       066606666666     ",
	"       066606666666     ",
	"       066606666666     ",
	"       066606666652     ",
	"       066606666511     ",
	"       0666066641       ",
	"       066606631        ",
	"       06660511         ",
	"       000001           ",
	"                        ",
	"                        ",
	"                        ",
	"                        "};

static char *benchwork_x32[] = {
	"32 32 10 1",
	" 	c	None",
	"0	c	#000000",
	"1	c	#330000",
	"2	c	#333300",
	"3	c	#663300",
	"4	c	#993300",
	"5	c	#996600",
	"6	c	#CC6600",
	"7	c	#FF6600",
	"8	c	#FF9900",
	"                                ",
	"                                ",
	"                                ",
	"                                ",
	"                                ",
	"                  0588873       ",
	"                 37888846       ",
	"               0588886578       ",
	"              37888856888       ",
	"            0588887478888       ",
	"           37888866888888       ",
	"          166666478888888       ",
	"          088880888888888       ",
	"          088880888888888       ",
	"          088880888888888       ",
	"          088880888888888       ",
	"          088880888888888       ",
	"          088880888888888       ",
	"          088880888888888       ",
	"          088880888888874       ",
	"          088880888888733       ",
	"          0888808888863         ",
	"          088880888853          ",
	"          08888088733           ",
	"          0888808732            ",
	"          08888063              ",
	"          0000003               ",
	"                                ",
	"                                ",
	"                                ",
	"                                ",
	"                                "};

static char **benchwork_xpm[3] = { benchwork_x16, benchwork_x24, benchwork_x32 };

