static char *bezier_track_x16[] = {
	"16 16 41 1",
	" 	c	None",
	"0	c	#383530",
	"1	c	#585858",
	"2	c	#b00804",
	"3	c	#c85850",
	"4	c	#9c9074",
	"5	c	#bcac90",
	"6	c	#90785c",
	"7	c	#c01818",
	"8	c	#544834",
	"9	c	#c88080",
	"A	c	#c83030",
	"B	c	#786848",
	"C	c	#807870",
	"D	c	#b8a080",
	"E	c	#6d6862",
	"F	c	#3d3838",
	"G	c	#d0b894",
	"H	c	#484848",
	"I	c	#b0a088",
	"J	c	#c82020",
	"K	c	#c86858",
	"L	c	#403828",
	"M	c	#888078",
	"N	c	#ac9474",
	"O	c	#6c6054",
	"P	c	#c8a874",
	"Q	c	#787064",
	"R	c	#bc1008",
	"S	c	#ccbca0",
	"T	c	#504840",
	"U	c	#484030",
	"V	c	#c86262",
	"W	c	#807058",
	"X	c	#c81b18",
	"Y	c	#40403c",
	"Z	c	#c83838",
	"a	c	#505050",
	"b	c	#8c8880",
	"c	c	#c82828",
	"d	c	#403830",
	"                ",
	"  9Xc        aLE",
	"  J VZJJJJ72RXX3",
	"  VZJ    NF PEUE",
	"         dPb04  ",
	"       S0 b8    ",
	"       a4NF     ",
	"      6O 05     ",
	"      FGBC      ",
	"     LI Y       ",
	"    T GL        ",
	"  DY6S1M        ",
	"OdT5 8Q    JA   ",
	"KXJR27XJJJJ V   ",
	"QdHW      VAJ   ",
	"                "};
static char *bezier_track_x24[] = {
	"24 24 41 1",
	" 	c	None",
	"0	c	#0c0606",
	"1	c	#700808",
	"2	c	#6c5c40",
	"3	c	#a09582",
	"4	c	#983030",
	"5	c	#382e1c",
	"6	c	#c85854",
	"7	c	#d0b888",
	"8	c	#59482e",
	"9	c	#8d857b",
	"A	c	#984434",
	"B	c	#c80202",
	"C	c	#806848",
	"D	c	#1b1818",
	"E	c	#c87676",
	"F	c	#c8b494",
	"G	c	#c84040",
	"H	c	#c4a470",
	"I	c	#343332",
	"J	c	#c42523",
	"K	c	#a48860",
	"L	c	#5c5850",
	"M	c	#6d6868",
	"N	c	#c81818",
	"O	c	#cc8454",
	"P	c	#c83030",
	"Q	c	#987255",
	"R	c	#50201c",
	"S	c	#a00400",
	"T	c	#d0c0a3",
	"U	c	#c84d4d",
	"V	c	#b29d7d",
	"W	c	#12100c",
	"X	c	#262120",
	"Y	c	#d09078",
	"Z	c	#c8605f",
	"a	c	#564c3a",
	"b	c	#d8b072",
	"c	c	#807868",
	"d	c	#c85034",
	"                        ",
	"     Z               VK ",
	"    BPBU         79I0D59",
	"   P6  BPPPPPPPPJSSJPJJ ",
	"   GG EBZZZZZZZ41AdZZ6d ",
	"    BBBE     TaX  FCI0WM",
	"             MXH  D59 T ",
	"             D FQW      ",
	"           H0   WK      ",
	"           I2bFW        ",
	"          MI T5a        ",
	"         V0V  DF        ",
	"         XcbHW          ",
	"        LI  a8T         ",
	"       9WH  D           ",
	"      3W 7HW            ",
	"     9W9  I8            ",
	"   HaW3b LI             ",
	" 8I08  T8X      UBJ     ",
	"9AQ OY RRO     6N GN    ",
	" BBBBBBBBBBBBBBJ6  B    ",
	" 550X2F        EBZJP    ",
	" Q3             EPU     ",
	"                        "};
static char *bezier_track_x32[] = {
	"32 32 41 1",
	" 	c	None",
	"0	c	#000000",
	"1	c	#860402",
	"2	c	#745e3e",
	"3	c	#a09880",
	"4	c	#b23030",
	"5	c	#2b2821",
	"6	c	#9a8052",
	"7	c	#ac9c90",
	"8	c	#424241",
	"9	c	#c80000",
	"A	c	#12100c",
	"B	c	#727270",
	"C	c	#c83f3e",
	"D	c	#ceaa6c",
	"E	c	#c85858",
	"F	c	#55524a",
	"G	c	#cab48e",
	"H	c	#413321",
	"I	c	#cd3e29",
	"J	c	#211c14",
	"K	c	#c81313",
	"L	c	#8a7048",
	"M	c	#c5aa7d",
	"N	c	#59462b",
	"O	c	#393635",
	"P	c	#ab9066",
	"Q	c	#d0bea0",
	"R	c	#c82222",
	"S	c	#c84848",
	"T	c	#8a807a",
	"U	c	#080805",
	"V	c	#bc9a62",
	"W	c	#6a6050",
	"X	c	#c87272",
	"Y	c	#d3b17b",
	"Z	c	#5c5c5c",
	"a	c	#d8b06b",
	"b	c	#981010",
	"c	c	#212020",
	"d	c	#c83030",
	"                                ",
	"                            Qa  ",
	"      K9K                   FNO ",
	"     9KSK9             DT500JH8 ",
	"    S9   9dCCCCCCCCCCC411b4CCIC ",
	"    C9   9R99999999999999999999 ",
	"    X9C S9X         5U  Da  T2W ",
	"     C999C        VJA   Q6500AJ ",
	"       X          5AV   O0HT Y  ",
	"                 8A YaPAc3G     ",
	"               QB0   PUH        ",
	"               P0W   UHY        ",
	"               c5DY c5          ",
	"              FU QaNU           ",
	"            Q60   70LQ          ",
	"            GAHG  cOQ           ",
	"            8AMaaWU             ",
	"            0   P02             ",
	"          VUF   c5D             ",
	"          JJDQ ZU               ",
	"         OA YaP0B               ",
	"       DHU   GJ5                ",
	"     Q 5U6   8UV                ",
	" QQ M2Uc Ya Z0                  ",
	" L280UW   YN0         dKR       ",
	"B0AO Ma   O0L        99d99      ",
	" IISSCII4114ICSSSSSSC9   9C     ",
	" 9999999999999999999R9   9C     ",
	" NHOA0UN7            9d S9X     ",
	" 5H8B  Y             E999C      ",
	" Qa                             ",
	"                                "};

static char **bezier_track_xpm[3] = { bezier_track_x16, bezier_track_x24, bezier_track_x32 };
