static char *bezier_line_x16[] = {
	"16 16 4 1",
	" 	c	None",
	"0	c	#000000",
	"1	c	#990000",
	"2	c	#CC0000",
	"                ",
	"   222          ",
	"   2 2222222222 ",
	"   222     000  ",
	"          00    ",
	"         00     ",
	"         0      ",
	"        00      ",
	"        0       ",
	"       00       ",
	"       0        ",
	"      0         ",
	"    00  222     ",
	" 12222222 2     ",
	" 12     222     ",
	"                "};

static char *bezier_line_x24[] = {
	"24 24 5 1",
	" 	c	None",
	"0	c	#000000",
	"1	c	#990000",
	"2	c	#CC0000",
	"3	c	#800000",
	"                        ",
	"                        ",
	"     2222               ",
	"     2  22222222222222  ",
	"     2 22        23333  ",
	"     222         00     ",
	"                0       ",
	"               00       ",
	"              00        ",
	"              0         ",
	"             00         ",
	"             0          ",
	"            00          ",
	"           00           ",
	"           0            ",
	"          00            ",
	"         00             ",
	"         0              ",
	"       00    22         ",
	"     000    2222        ",
	"  222222222222 22       ",
	"  1         2222        ",
	"             22         ",
	"                        "};

static char *bezier_line_x32[] = {
	"32 32 6 1",
	" 	c	None",
	"0	c	#000000",
	"1	c	#660000",
	"2	c	#990000",
	"3	c	#CC0000",
	"4	c	#800000",
	"                                ",
	"                                ",
	"       3333                     ",
	"      333333                    ",
	"      33  3333333333333333333   ",
	"      33  33333333333333333334  ",
	"      333333           0000     ",
	"       3333           000       ",
	"                     000        ",
	"                    000         ",
	"                   000          ",
	"                   00           ",
	"                  00            ",
	"                  00            ",
	"                 00             ",
	"                000             ",
	"                00              ",
	"               000              ",
	"               00               ",
	"              000               ",
	"             000                ",
	"             00                 ",
	"            00                  ",
	"           000                  ",
	"          000     333           ",
	"        0000     33333          ",
	"   244411433333333  33          ",
	"   333333333333333  33          ",
	"   222          333333          ",
	"                 33333          ",
	"                                ",
	"                                "};

static char **bezier_line_xpm[3] = { bezier_line_x16, bezier_line_x24, bezier_line_x32 };

