static char *block_x16[] = {
	"16 16 17 1",
	" 	c	None",
	"0	c	#000000",
	"1	c	#003300",
	"2	c	#003333",
	"3	c	#003366",
	"4	c	#006600",
	"5	c	#009900",
	"6	c	#009999",
	"7	c	#00CC00",
	"8	c	#00FF00",
	"9	c	#330000",
	"A	c	#990000",
	"B	c	#990033",
	"C	c	#CC0033",
	"D	c	#FF0033",
	"E	c	#800000",
	"F	c	#008080",
	"                ",
	"                ",
	"  0             ",
	"   0     101    ",
	"    266 17871   ",
	"    F6  18884   ",
	"   6666 17881   ",
	"      6624541   ",
	"    999F6 0     ",
	"   9ADB966 66   ",
	"   9DDD9 666    ",
	"   9CDD9 663    ",
	"   99E99 6  0   ",
	"     0       0  ",
	"              0 ",
	"                "};

static char *block_x24[] = {
	"24 24 19 1",
	" 	c	None",
	"0	c	#000000",
	"1	c	#003300",
	"2	c	#003333",
	"3	c	#003366",
	"4	c	#006600",
	"5	c	#009900",
	"6	c	#009999",
	"7	c	#00CC00",
	"8	c	#00FF00",
	"9	c	#330000",
	"A	c	#660000",
	"B	c	#990000",
	"C	c	#990033",
	"D	c	#CC0033",
	"E	c	#FF0033",
	"F	c	#800000",
	"G	c	#008000",
	"H	c	#008080",
	"                        ",
	"                        ",
	"   0                    ",
	"  000                   ",
	"   000         00       ",
	"    000  6   14551      ",
	"     000666 1588881     ",
	"      0H66  18888850    ",
	"      6666  08888871    ",
	"     666666 18888850    ",
	"     66  6661G88871     ",
	"          666145G4      ",
	"       990 666 00       ",
	"     9ADDC9 666         ",
	"     AEEEED9 666 66     ",
	"    0BEEEEE9  6666      ",
	"    0BEEEEE9   663      ",
	"     AEEEED9  66200     ",
	"     9FDDC9   6  000    ",
	"       999        000   ",
	"                   000  ",
	"                    00  ",
	"                        ",
	"                        "};

static char *block_x32[] = {
	"32 32 18 1",
	" 	c	None",
	"0	c	#000000",
	"1	c	#003300",
	"2	c	#003333",
	"3	c	#006600",
	"4	c	#006666",
	"5	c	#009900",
	"6	c	#009999",
	"7	c	#00CC00",
	"8	c	#00FF00",
	"9	c	#330000",
	"A	c	#660000",
	"B	c	#990000",
	"C	c	#CC0033",
	"D	c	#FF0033",
	"E	c	#800000",
	"F	c	#008000",
	"G	c	#008080",
	"                                ",
	"                                ",
	"                                ",
	"    0                           ",
	"   000                          ",
	"    000                         ",
	"     000           1111         ",
	"      000   66    157751        ",
	"       000 666   38888883       ",
	"        00G666  1788888871      ",
	"         G666   1788888871      ",
	"        66666   1888888881      ",
	"       6666666  1788888871      ",
	"       666 6666 0F888888F0      ",
	"            6666 15888851       ",
	"             6666 103301        ",
	"          00  6666              ",
	"        9ACCA9 6666             ",
	"       9CDDDDC9 6666   66       ",
	"      0BDDDDDDB0 6666 666       ",
	"      9CDDDDDDC9  666666        ",
	"      9CDDDDDDC9   6666         ",
	"      9CDDDDDDC9   66620        ",
	"       ADDDDDDA   6664000       ",
	"       AEDDDDEA   66   000      ",
	"        099990          000     ",
	"                         000    ",
	"                          000   ",
	"                           00   ",
	"                                ",
	"                                ",
	"                                "};

static char **block_xpm[3] = { block_x16, block_x24, block_x32 };

