static char *box_x16[] = {
	"16 16 16 1",
	" 	c	None",
	"0	c	#303030",
	"1	c	#c80808",
	"2	c	#c85050",
	"3	c	#383838",
	"4	c	#c06868",
	"5	c	#c81818",
	"6	c	#404040",
	"7	c	#c85858",
	"8	c	#c82020",
	"9	c	#c07070",
	"A	c	#c81010",
	"B	c	#c07878",
	"C	c	#c86060",
	"D	c	#c82828",
	"E	c	#c87070",
	"                ",
	" 00000000000000 ",
	" 3        994B3 ",
	" 6        C7156 ",
	" 6         5256 ",
	" 6        AE 16 ",
	" 6       A   76 ",
	" 6      A     6 ",
	" 6     A      6 ",
	" 6    A       6 ",
	" 6  E5        6 ",
	" 6 C8         6 ",
	" 62D          6 ",
	" 3            3 ",
	" 00000000000000 ",
	"                "};
static char *box_x24[] = {
	"24 24 20 1",
	" 	c	None",
	"0	c	#000000",
	"1	c	#c80000",
	"2	c	#303030",
	"3	c	#c83030",
	"4	c	#505050",
	"5	c	#c86060",
	"6	c	#c81818",
	"7	c	#c84040",
	"8	c	#606060",
	"9	c	#c80808",
	"A	c	#c87070",
	"B	c	#c82020",
	"C	c	#c84848",
	"D	c	#c81010",
	"E	c	#c82828",
	"F	c	#c83838",
	"G	c	#c86868",
	"H	c	#c87878",
	"I	c	#c85050",
	"                        ",
	"                        ",
	" 2000000000000000000002 ",
	" 24                  42 ",
	" 28           511111782 ",
	" 28              G91382 ",
	" 28              96E382 ",
	" 28             1B FB82 ",
	" 28            1E  CD82 ",
	" 28          A13   A682 ",
	" 28         517      82 ",
	" 28        I1I       82 ",
	" 28       715        82 ",
	" 28      F1A         82 ",
	" 28     E1H          82 ",
	" 28    B1            82 ",
	" 28   69             82 ",
	" 28  D9              82 ",
	" 28 9D               82 ",
	" 2876                82 ",
	" 24                  42 ",
	" 2000000000000000000002 ",
	"                        ",
	"                        "};
static char *box_x32[] = {
	"32 32 20 1",
	" 	c	None",
	"0	c	#000000",
	"1	c	#c80000",
	"2	c	#686868",
	"3	c	#c85050",
	"4	c	#c82020",
	"5	c	#c86868",
	"6	c	#c83838",
	"7	c	#c81010",
	"8	c	#c87878",
	"9	c	#c82828",
	"A	c	#c80808",
	"B	c	#c84040",
	"C	c	#c85858",
	"D	c	#c81818",
	"E	c	#c83030",
	"F	c	#c87070",
	"G	c	#c84848",
	"H	c	#c86060",
	"I	c	#c88080",
	"                                ",
	"                                ",
	"  2222222222222222222222222222  ",
	"  0000000000000000000000000000  ",
	"  02                        20  ",
	"  0                F99999D4  0  ",
	"  0                B1111111C 0  ",
	"  0                    F1113 0  ",
	"  0                   F1161B 0  ",
	"  0                  511F 1E 0  ",
	"  0                 311I  14 0  ",
	"  0                B11    17 0  ",
	"  0               61A     17 0  ",
	"  0              E17         0  ",
	"  0             41D          0  ",
	"  0            D14           0  ",
	"  0           719            0  ",
	"  0          A1E             0  ",
	"  0         A16              0  ",
	"  0        11G               0  ",
	"  0      I11C                0  ",
	"  0     511H                 0  ",
	"  0    C118                  0  ",
	"  0   311                    0  ",
	"  0  B1A                     0  ",
	"  0 B1A                      0  ",
	"  0  D                       0  ",
	"  02                        20  ",
	"  0000000000000000000000000000  ",
	"  2222222222222222222222222222  ",
	"                                ",
	"                                "};

static char **box_xpm[3] = { box_x16, box_x24, box_x32 };
