static char *bridge_x16[] = {
	"16 16 5 1",
	" 	c	None",
	"0	c	#000000",
	"1	c	#333300",
	"2	c	#333333",
	"3	c	#CC6600",
	"                ",
	"                ",
	"2             2 ",
	"22           22 ",
	" 2222222222222  ",
	" 3 3 3 3 3 3 3  ",
	"000000000000000 ",
	" 3 3 3 3 3 3 3  ",
	"010000000000000 ",
	" 3 3 3 3 3 3 3  ",
	" 2222222222222  ",
	"22           22 ",
	"2             2 ",
	"                ",
	"                ",
	"                "};

static char *bridge_x24[] = {
	"24 24 8 1",
	" 	c	None",
	"0	c	#000000",
	"1	c	#333300",
	"2	c	#663300",
	"3	c	#996600",
	"4	c	#996666",
	"5	c	#CC6600",
	"6	c	#CC9900",
	"                        ",
	"                        ",
	"444                   44",
	" 44                  44 ",
	"  44                44  ",
	"   444444444444444444   ",
	"   444444444444444444   ",
	"                        ",
	" 6   6  6  66  6  66  6 ",
	"032023003103300300320130",
	"032023003103300300320130",
	" 6   6  6  66  6  66  6 ",
	" 6   6  6  66  6  66  6 ",
	" 6   6  6  66  6  66  6 ",
	"000000000000000000000000",
	" 6   6  6  66  6  66  6 ",
	"                        ",
	"                        ",
	"   444444444444444444   ",
	"  44444444444444444444  ",
	" 44                  44 ",
	"444                  444",
	" 4                    44",
	"                        "};

static char *bridge_x32[] = {
	"32 32 9 1",
	" 	c	None",
	"0	c	#000000",
	"1	c	#330000",
	"2	c	#333300",
	"3	c	#663300",
	"4	c	#996600",
	"5	c	#996666",
	"6	c	#CC6600",
	"7	c	#CC9900",
	"                                ",
	"                                ",
	" 55                           55",
	" 55                          555",
	" 555                        555 ",
	"  555                      555  ",
	"   55555555555555555555555555   ",
	"    555555555555555555555555    ",
	"    55555555555555555555555     ",
	"                                ",
	"                                ",
	" 77   77  777  77   77  77   77 ",
	"03320033002320033002330033101330",
	"00000000000000000000000000000000",
	" 77   77  777  77   77  77   77 ",
	" 77   77  777  77   77  77   77 ",
	" 77   77  777  77   77  77   77 ",
	" 77   77  777  77   77  77   77 ",
	" 4430044003430044003440044202440",
	"00000000000000000000000000000000",
	" 77   77  777  77   77  77   77 ",
	"                                ",
	"                                ",
	"     5555555555555555555555     ",
	"    555555555555555555555555    ",
	"   55555555555555555555555555   ",
	"  555                      555  ",
	" 555                        555 ",
	" 55                         5555",
	"555                          555",
	"                                ",
	"                                "};

static char **bridge_xpm[3] = { bridge_x16, bridge_x24, bridge_x32 };

