static char *car_inventory_x16[] = {
	"16 16 6 1",
	" 	c	None",
	"0	c	#000000",
	"1	c	#003366",
	"2	c	#006600",
	"3	c	#663300",
	"4	c	#CCCCCC",
	"                ",
	"                ",
	" 4444444444     ",
	" 4333333334     ",
	" 4333333334     ",
	" 444444444444   ",
	"  04111111114   ",
	"   4111111114   ",
	"   44444444444  ",
	"    04222222224 ",
	"     4222222224 ",
	"     4444444444 ",
	"      00    00  ",
	"                ",
	"                ",
	"                "};

static char *car_inventory_x24[] = {
	"24 24 8 1",
	" 	c	None",
	"0	c	#000000",
	"1	c	#003366",
	"2	c	#006600",
	"3	c	#663300",
	"4	c	#999999",
	"5	c	#CCCCCC",
	"6	c	#C0C0C0",
	"                        ",
	"                        ",
	"                        ",
	"  555555555555555       ",
	"  533333333333335       ",
	"  533333333333335       ",
	"  533333333333335       ",
	"  533333333333335       ",
	"  55655555555555555     ",
	"   0051111111111115     ",
	"     51111111111115     ",
	"     51111111111115     ",
	"     5115555555555555   ",
	"     54522222222222225  ",
	"      0522222222222225  ",
	"       522222222222225  ",
	"       522222222222225  ",
	"       555555555555555  ",
	"        0000     0000   ",
	"         000      000   ",
	"                        ",
	"                        ",
	"                        ",
	"                        "};

static char *car_inventory_x32[] = {
	"32 32 7 1",
	" 	c	None",
	"0	c	#000000",
	"1	c	#003366",
	"2	c	#006600",
	"3	c	#663300",
	"4	c	#CCCCCC",
	"5	c	#808080",
	"                                ",
	"                                ",
	"                                ",
	"                                ",
	"   4444444444444444444          ",
	"   4333333333333333334          ",
	"   4333333333333333334          ",
	"   4333333333333333334          ",
	"   4333333333333333334          ",
	"   4333333333333333334          ",
	"   4333444444444444444444       ",
	"    454411111111111111114       ",
	"    000411111111111111114       ",
	"       411111111111111114       ",
	"       411111111111111114       ",
	"       411111111111111114       ",
	"       411111111111111114       ",
	"       4444444444444444444444   ",
	"        004222222222222222224   ",
	"        004222222222222222224   ",
	"          4222222222222222224   ",
	"          4222222222222222224   ",
	"          4222222222222222224   ",
	"          4444444444444444444   ",
	"           00 00       00 0     ",
	"           00000       00000    ",
	"                                ",
	"                                ",
	"                                ",
	"                                ",
	"                                ",
	"                                "};

static char **car_inventory_xpm[3] = { car_inventory_x16, car_inventory_x24, car_inventory_x32 };

