static char *change_grid_x16[] = {
	"16 16 12 1",
	" 	c	None",
	"0	c	#000000",
	"1	c	#00CC00",
	"2	c	#00CC33",
	"3	c	#339933",
	"4	c	#666666",
	"5	c	#669933",
	"6	c	#669966",
	"7	c	#996666",
	"8	c	#999966",
	"9	c	#CC9966",
	"A	c	#FFCC66",
	"1111111111111111",
	"1111111111111111",
	"1   1  11  3   1",
	"1   1  11 484  1",
	"11111111159A8311",
	"1   1  169A94  1",
	"1   1  69A962  1",
	"11111148A9411111",
	"1111168794211111",
	"1   14994  1   1",
	"1   14462  1   1",
	"1111111111111111",
	"11 11  11  11 11",
	"1   1  11  1   1",
	"11 11  11  11 11",
	"1111111111111111"};

static char *change_grid_x24[] = {
	"24 24 12 1",
	" 	c	None",
	"0	c	#000000",
	"1	c	#00CC00",
	"2	c	#33CC33",
	"3	c	#666666",
	"4	c	#669933",
	"5	c	#669966",
	"6	c	#996666",
	"7	c	#999966",
	"8	c	#CC9966",
	"9	c	#FF9966",
	"A	c	#FFCC66",
	" 1    1    11    1    1 ",
	"111111111111111111111111",
	"11    1    11    1    11",
	"11    1    11    1    11",
	"11    1    11   33    11",
	"11    1    11  3796   11",
	"1111111111111147AA932111",
	"11    11   1157AAA83  11",
	"11    1    147AAA83   11",
	"11    1    47AAA85    11",
	"11    1   37AAA831    11",
	"11111111156AAA8511111111",
	"111111114787A85111111111",
	"11    1 39A863   1    11",
	"11    1 39A83    1    11",
	"11    1 33351    1    11",
	"11    1    11    1    11",
	"111111111111111111111111",
	"11    1    11    1    11",
	"11    1    11    1    11",
	"11    1    11    1    11",
	"11    1    11    1    11",
	"111111111111111111111111",
	"111111111111111111111111"};

static char *change_grid_x32[] = {
	"32 32 11 1",
	" 	c	None",
	"0	c	#000000",
	"1	c	#00CC00",
	"2	c	#33CC33",
	"3	c	#666666",
	"4	c	#669933",
	"5	c	#669966",
	"6	c	#996666",
	"7	c	#999966",
	"8	c	#CC9966",
	"9	c	#FFCC66",
	"                                ",
	"11111111111111111111111111111111",
	"11111111111111111111111111111111",
	" 1      11     11     11      11",
	" 1      11     11     11      11",
	" 1      11     11     44      11",
	" 1      11     11    3775     11",
	" 1      11     11   379973    11",
	" 1111111111111111112799997411111",
	" 1111111111111111127999997411111",
	" 1      11     11379999973    11",
	" 1      11     1279999975     11",
	" 1      11     279999974      11",
	" 1      11    3799999751      11",
	" 1      11   37999997311      11",
	" 1111111111123899998511111111111",
	" 1111111111279789984111111111111",
	" 1      11 39997883   11      11",
	" 1      11 3999963    11      11",
	" 1      11 399985     11      11",
	" 1      11 333351     11      11",
	" 1      11     11     11      11",
	" 1111111111111111111111111111111",
	" 1111111111111111111111111111111",
	" 1      11     11     11      11",
	" 1      11     11     11      11",
	" 1      11     11     11      11",
	" 1      11     11     11      11",
	" 1      11     11     11      11",
	"111     11     11     111    111",
	"11111111111111111111111111111111",
	"                                "};

static char **change_grid_xpm[3] = { change_grid_x16, change_grid_x24, change_grid_x32 };

