static char *circle_center_x16[] = {
	"16 16 7 1",
	" 	c	None",
	"0	c	#000000",
	"1	c	#C40000",
	"2	c	#E00000",
	"3	c	#CE9B73",
	"4	c	#808080",
	"5	c	#000000",
	"     000000     ",
	"   40 3  3 04   ",
	"  0 3 0000 3 0  ",
	" 4  00    00  4 ",
	" 030        030 ",
	"0  0        0  0",
	"030          030",
	"0 0          0 0",
	"0 0     2    0 0",
	"030      2   030",
	"0         2 1  0",
	" 030       21 0 ",
	" 4  00    111 4 ",
	"  0 3 0000   0  ",
	"   40 3  3 04   ",
	"     000000     "};

static char *circle_center_x24[] = {
	"24 24 57 1",
	" 	c	None",
	"0	c	#000000",
	"1	c	#0B0200",
	"2	c	#120700",
	"3	c	#1A0E00",
	"4	c	#1B1100",
	"5	c	#231300",
	"6	c	#261801",
	"7	c	#281700",
	"8	c	#2B1A01",
	"9	c	#321E00",
	"A	c	#342101",
	"B	c	#3B2401",
	"C	c	#3E2801",
	"D	c	#501400",
	"E	c	#412902",
	"F	c	#4B2D01",
	"G	c	#4E3204",
	"H	c	#543402",
	"I	c	#583602",
	"J	c	#5D3903",
	"K	c	#650000",
	"L	c	#6C0000",
	"M	c	#770000",
	"N	c	#751300",
	"O	c	#623C02",
	"P	c	#753101",
	"Q	c	#674102",
	"R	c	#6B4303",
	"S	c	#704707",
	"T	c	#734806",
	"U	c	#7B4D05",
	"V	c	#7F5004",
	"W	c	#810000",
	"X	c	#8B0000",
	"Y	c	#980000",
	"Z	c	#9A0B00",
	"a	c	#833402",
	"b	c	#A93D02",
	"c	c	#845305",
	"d	c	#805108",
	"e	c	#885505",
	"f	c	#8B5908",
	"g	c	#964B05",
	"h	c	#965F07",
	"i	c	#945E09",
	"j	c	#996108",
	"k	c	#A06509",
	"l	c	#AB6D09",
	"m	c	#B16F0A",
	"n	c	#B6730B",
	"o	c	#BB7709",
	"p	c	#BC780A",
	"q	c	#C90300",
	"r	c	#C34600",
	"s	c	#C27B0A",
	"t	c	#000000",
	"           H            ",
	"          0OO00 d       ",
	"      EU000OO005Q       ",
	"      0c8  RR  m90 BB   ",
	"   l90 EU00FF08U  8c    ",
	"   6J  0c9 GE cF04l50   ",
	"   0 h9       E  OA 0   ",
	"  00 1c         OC0 5Hn ",
	" sFF10            4HpF0 ",
	" 2Ff5c            oB 00 ",
	" 0  1              00 0 ",
	" 0 00              EBB3 ",
	"fFjVVO      Y     FeTk5i",
	" 9CEB        Y     00 0 ",
	" 00 1S        Y   D0 00 ",
	"  7cRJ         Y PrHH50 ",
	" jOH 0          ZMXCUHk ",
	"   0 8R        KbqL 0   ",
	"   09l809j    gNWaU00   ",
	"    O3  H80OO0BB  IJ    ",
	"   T 00Al 0OO0 p 00FT   ",
	"       O90 RR 0JB       ",
	"       l 00FF00Ej       ",
	"           JJ           "};

static char *circle_center_x32[] = {
	"32 32 57 1",
	" 	c	None",
	"0	c	#000000",
	"1	c	#0C0400",
	"2	c	#110200",
	"3	c	#120A00",
	"4	c	#1C1200",
	"5	c	#221400",
	"6	c	#261801",
	"7	c	#291700",
	"8	c	#2A1A01",
	"9	c	#310000",
	"A	c	#321D00",
	"B	c	#381F00",
	"C	c	#332101",
	"D	c	#3B2401",
	"E	c	#3F2802",
	"F	c	#4C0000",
	"G	c	#412500",
	"H	c	#422901",
	"I	c	#4A2E02",
	"J	c	#4E3204",
	"K	c	#533302",
	"L	c	#583602",
	"M	c	#5C3903",
	"N	c	#6B0000",
	"O	c	#7F0000",
	"P	c	#633D02",
	"Q	c	#7C3A01",
	"R	c	#6C4404",
	"S	c	#724702",
	"T	c	#774B04",
	"U	c	#7A4D05",
	"V	c	#7F5108",
	"W	c	#870700",
	"X	c	#8D1500",
	"Y	c	#A90000",
	"Z	c	#B30000",
	"a	c	#B62401",
	"b	c	#B63601",
	"c	c	#855305",
	"d	c	#805108",
	"e	c	#895604",
	"f	c	#8D5905",
	"g	c	#8C5908",
	"h	c	#935C06",
	"i	c	#935D09",
	"j	c	#9A6005",
	"k	c	#9B6209",
	"l	c	#A06609",
	"m	c	#A76907",
	"n	c	#A66809",
	"o	c	#AC6D09",
	"p	c	#B17009",
	"q	c	#CA0000",
	"r	c	#C17A0A",
	"s	c	#C97F0A",
	"t	c	#000000",
	"               H                ",
	"               cK               ",
	"         d  00000000 o          ",
	"         h500  cJ  08G0         ",
	"        0Gf    cJ   VM00  H     ",
	"    M  0  o 00000003r   0Hk     ",
	"    Kc3   II00 cJ 0KH0   S3     ",
	"     Al  00m   I   o 00 o 00    ",
	"    0  l50            4IA  0    ",
	"   00  5h             iH0  01MM ",
	"   0  00                00 JMT  ",
	" cjSI 0                  Bnc50  ",
	"  1KgeU                 oc7  0  ",
	"  0  0IJ                  0  0  ",
	"  0  0                    0  00 ",
	" 00  0          N         DH DH ",
	"UfRlhPlD       FqZ       lSflUcg",
	" EA D8          OqZ       00 00 ",
	"  0  0           OqZ      0  0  ",
	"  0  0Dc          OqZ  Xq90  0  ",
	"  00HhPD           OqZ aqQK 00  ",
	"  KLi 00            OqZZqGcsPK  ",
	" RcA0  0tc           Wqqq   Agk ",
	"    0  CMt         WqqqqY  00   ",
	"    00 l600 o      qqqYbQ 00    ",
	"     Hc   0IM  cJ  eD0  VR0     ",
	"    Ii20   o100KG00De   0Kg     ",
	"       000RR   UK   r 000 ID    ",
	"         2I5   cJ   MG0         ",
	"         MU0000KG0005p          ",
	"         d     cK    U          ",
	"               R                "};

static char **circle_center_xpm[3] = { circle_center_x16, circle_center_x24, circle_center_x32 };

