static char *circle_line_center_x16[] = {
	"16 16 4 1",
	" 	c	None",
	"0	c	#000000",
	"1	c	#CC0000",
	"2	c	#FF0000",
	"                ",
	"     000000     ",
	"    000  000    ",
	"   00       0   ",
	"  00         0  ",
	" 00          00 ",
	" 00           0 ",
	" 0            0 ",
	" 0      2     0 ",
	" 00      2    0 ",
	" 00       2 2 0 ",
	"  0        220  ",
	"   0      2220  ",
	"   000    100   ",
	"     0000000    ",
	"                "};

static char *circle_line_center_x24[] = {
	"24 24 5 1",
	" 	c	None",
	"0	c	#000000",
	"1	c	#660000",
	"2	c	#CC0000",
	"3	c	#FF0000",
	"                        ",
	"                        ",
	"        00000000        ",
	"       000     000      ",
	"     00          00     ",
	"    00            00    ",
	"    0              00   ",
	"   0                0   ",
	"  00                 0  ",
	"  0                  0  ",
	"  0                  00 ",
	"  0                  00 ",
	"  0         3        00 ",
	"  0         33       00 ",
	"  0          33      00 ",
	"  00          33  3  0  ",
	"   0           33 3 00  ",
	"   00           333 0   ",
	"    0          33330    ",
	"     00        3 210    ",
	"      00        00      ",
	"       0000000000       ",
	"          00000         ",
	"                        "};

static char *circle_line_center_x32[] = {
	"32 32 4 1",
	" 	c	None",
	"0	c	#000000",
	"1	c	#FF0000",
	"2	c	#800000",
	"                                ",
	"                                ",
	"                                ",
	"           0000000000           ",
	"         000        000         ",
	"        00            000       ",
	"       0                00      ",
	"      0                  00     ",
	"     0                    00    ",
	"    00                     0    ",
	"    0                      00   ",
	"   00                       0   ",
	"   0                        00  ",
	"   0                        00  ",
	"   0                        00  ",
	"  00                         0  ",
	"  00            11           0  ",
	"  00            111          0  ",
	"   0             111        00  ",
	"   0              111       00  ",
	"   00              111  11  0   ",
	"   00               111 11  0   ",
	"    0                11111 00   ",
	"    00                111100    ",
	"     00             1111110     ",
	"      00            111112      ",
	"       00              00       ",
	"        000           00        ",
	"          0000     0000         ",
	"            00000000            ",
	"                                ",
	"                                "};

static char *circle_line_center_xpm[3] = { circle_line_center_x16, circle_line_center_x24, circle_line_center_x32 };

