static char *circle_filled_center_x16[] = {
	"16 16 19 1",
	" 	c	None",
	"0	c	#000000",
	"1	c	#003333",
	"2	c	#333333",
	"3	c	#333366",
	"4	c	#336666",
	"5	c	#336699",
	"6	c	#339999",
	"7	c	#669999",
	"8	c	#6699CC",
	"9	c	#66CCCC",
	"A	c	#66CCFF",
	"B	c	#9999CC",
	"C	c	#99CCCC",
	"D	c	#99CCFF",
	"E	c	#99FFFF",
	"F	c	#CC0000",
	"G	c	#CC6666",
	"H	c	#CC6699",
	"       00       ",
	"    11488413    ",
	"   28AEEEEE93   ",
	"  3AEEEEEEEEA3  ",
	" 38EEEEEEEEEE93 ",
	" 2AEEEEEEEEEEE4 ",
	"05EEEEEEEEEEEE80",
	"18EEEEEBDEEEEE92",
	"18EEEEEDHDEEEE92",
	"06EEEEEEDHDECE81",
	" 4EEEEEEEDHDFE60",
	" 29EEEEEEEDHGA2 ",
	"  3AEEEEEBGFH4  ",
	"  14AEEEEDDA43  ",
	"    268AA973    ",
	"     012210     "};

static char *circle_filled_center_x24[] = {
	"24 24 20 1",
	" 	c	None",
	"0	c	#000000",
	"1	c	#003333",
	"2	c	#333333",
	"3	c	#333366",
	"4	c	#336666",
	"5	c	#336699",
	"6	c	#339999",
	"7	c	#669999",
	"8	c	#6699CC",
	"9	c	#66CCCC",
	"A	c	#66CCFF",
	"B	c	#9999CC",
	"C	c	#99CCCC",
	"D	c	#99CCFF",
	"E	c	#99FFFF",
	"F	c	#CC0000",
	"G	c	#CC6666",
	"H	c	#CC6699",
	"I	c	#CC9999",
	"                        ",
	"        11044011        ",
	"      238AEEEEA942      ",
	"     26AEEEEEEEEE83     ",
	"    29EEEEEEEEEEEEA4    ",
	"   2AEEEEEEEEEEEEEEA3   ",
	"  27EEEEEEEEEEEEEEEE93  ",
	"  4AEEEEEEEEEEEEEEEEE50 ",
	" 19EEEEEEEEEEEEEEEEEEA2 ",
	" 1AEEEEEEEEEEEEEEEEEEE1 ",
	" 3EEEEEEEEEEEEEEEEEEEE50",
	" 4EEEEEEEEDIDEEEEEEEEE60",
	" 4EEEEEEEEECIDEEEEEEEE60",
	" 3EEEEEEEEEECIDEEEEEEE50",
	" 1AEEEEEEEEEECIDEEHCEE4 ",
	" 29EEEEEEEEEEECIDDFBEA1 ",
	" 05EEEEEEEEEEEECIDFCE71 ",
	"  39EEEEEEEEEEEECHFDA2  ",
	"   2AEEEEEEEEDIGFFFD4   ",
	"   04AEEEEEEEDHIBCC62   ",
	"    139EEEEEEEEEEA42    ",
	"      26AEEEEEEA82      ",
	"       2146886411       ",
	"          0000          "};

static char *circle_filled_center_x32[] = {
	"32 32 23 1",
	" 	c	None",
	"0	c	#000000",
	"1	c	#000033",
	"2	c	#003333",
	"3	c	#333333",
	"4	c	#333366",
	"5	c	#336666",
	"6	c	#336699",
	"7	c	#339999",
	"8	c	#669999",
	"9	c	#6699CC",
	"A	c	#66CCCC",
	"B	c	#66CCFF",
	"C	c	#9999CC",
	"D	c	#99CCCC",
	"E	c	#99CCFF",
	"F	c	#99FFFF",
	"G	c	#CC0000",
	"H	c	#CC3333",
	"I	c	#CC3366",
	"J	c	#CC6666",
	"K	c	#CC6699",
	"L	c	#CC9999",
	"                                ",
	"            00333300            ",
	"          3169ABBA97230         ",
	"        35AFFFFFFFFFFB63        ",
	"       4AFFFFFFFFFFFFFFB52      ",
	"      5BFFFFFFFFFFFFFFFFB64     ",
	"     5BFFFFFFFFFFFFFFFFFFF62    ",
	"    5BFFFFFFFFFFFFFFFFFFFFB5    ",
	"   3AFFFFFFFFFFFFFFFFFFFFFFB3   ",
	"   5FFFFFFFFFFFFFFFFFFFFFFFF82  ",
	"  3AFFFFFFFFFFFFFFFFFFFFFFFFB2  ",
	"  2FFFFFFFFFFFFFFFFFFFFFFFFFF5  ",
	" 07FFFFFFFFFFFFFFFFFFFFFFFFFF92 ",
	" 2AFFFFFFFFFFFFFFFFFFFFFFFFFFB3 ",
	" 3AFFFFFFFFFFFFEFFFFFFFFFFFFFB2 ",
	" 3BFFFFFFFFFFFDHLFFFFFFFFFFFFF0 ",
	" 2BFFFFFFFFFFFDHGLFFFFFFFFFFFF0 ",
	" 3BFFFFFFFFFFFFDHGLFFFFFFFFFFB2 ",
	" 3AFFFFFFFFFFFFFDHGLFFFFEEFFFB3 ",
	" 08FFFFFFFFFFFFFFDHGLFFFIHFFFA3 ",
	"  4FFFFFFFFFFFFFFFDHGLFEGHFFF60 ",
	"  2BFFFFFFFFFFFFFFFDHGLEGJFFB2  ",
	"  28FFFFFFFFFFFFFFFFDHGKGLFF92  ",
	"   3BFFFFFFFFFFFFFFFFDHGGCFB3   ",
	"    6BFFFFFFFFFFFFEKJGGGGDF73   ",
	"    47FFFFFFFFFFFFLGGGHKLE94    ",
	"     57FFFFFFFFFFFEEEFFFF94     ",
	"      36BFFFFFFFFFFFFFFB74      ",
	"       239BFFFFFFFFFFFA33       ",
	"         227ABFFFFBA723         ",
	"           0330000230           ",
	"                                "};

static char **circle_filled_center_xpm[3] = { circle_filled_center_x16, circle_filled_center_x24, circle_filled_center_x32 };

