static char *circle_filled_tangent_x16[] = {
	"16 16 20 1",
	" 	c	None",
	"0	c	#000000",
	"1	c	#003333",
	"2	c	#333333",
	"3	c	#333366",
	"4	c	#336666",
	"5	c	#336699",
	"6	c	#339999",
	"7	c	#666699",
	"8	c	#669999",
	"9	c	#6699CC",
	"A	c	#66CCCC",
	"B	c	#66CCFF",
	"C	c	#9999CC",
	"D	c	#99CCFF",
	"E	c	#99FFFF",
	"F	c	#CC3333",
	"G	c	#CC6699",
	"H	c	#CC9999",
	"I	c	#CC99CC",
	"      0110      ",
	"    3469A842    ",
	"   3AEEEEEEA31  ",
	"  2BEEEEEEEEB4  ",
	" 3AEEEEEEEEEEB3 ",
	" 4EEEEEEEEEEEE60",
	"08EEEEEEEEEEEEA1",
	"2AEEEEEDCIHEEEB2",
	"2AEEEEECFCDEEEB1",
	"09EEEEEHCGDEEEA2",
	"05EEEEEHDDGDEE90",
	" 3BEEEEEEEDGDB3 ",
	"  4BEEEEEEEDG71 ",
	"  34BEEEEEEB74  ",
	"    39ABBB931   ",
	"     021120     "};

static char *circle_filled_tangent_x24[] = {
	"24 24 22 1",
	" 	c	None",
	"0	c	#000000",
	"1	c	#000033",
	"2	c	#003333",
	"3	c	#333333",
	"4	c	#333366",
	"5	c	#336666",
	"6	c	#336699",
	"7	c	#339999",
	"8	c	#669999",
	"9	c	#6699CC",
	"A	c	#66CCCC",
	"B	c	#66CCFF",
	"C	c	#9999CC",
	"D	c	#99CCCC",
	"E	c	#99CCFF",
	"F	c	#99FFFF",
	"G	c	#CC0000",
	"H	c	#CC6666",
	"I	c	#CC6699",
	"J	c	#CC9999",
	"K	c	#CC99CC",
	"                        ",
	"       0315555230       ",
	"      46AFFFFFFB73      ",
	"    03AFFFFFFFFFFA42    ",
	"   05BFFFFFFFFFFFFB73   ",
	"   3BFFFFFFFFFFFFFFB5   ",
	"  4AFFFFFFFFFFFFFFFFB4  ",
	" 26FFFFFFFFFFFFFFFFFF94 ",
	" 3BFFFFFFFFFFFFFFFFFFB2 ",
	" 2FFFFFFFFFFFFFFFFFFFF5 ",
	" 5FFFFFFFFFFFFFEFFFFFF80",
	"07FFFFFFFFFDIHGGCFFFFF92",
	"08FFFFFFFFFIGJCDEFFFFFA2",
	"06FFFFFFFFFHIIEFFFFFFF90",
	" 5FFFFFFFFEGKEIEFFFFFF60",
	" 2BFFFFFFFEGDFEIEFFFFB2 ",
	" 29FFFFFFFFEEFFEIEFFFA3 ",
	"  4BFFFFFFFFFFFFEIEFB4  ",
	"   5BFFFFFFFFFFFFEIE72  ",
	"   48FFFFFFFFFFFFFEC4   ",
	"    35BFFFFFFFFFFB74    ",
	"      3AFFFFFFFFA42     ",
	"       3179AA9723       ",
	"         003300         "};

static char *circle_filled_tangent_x32[] = {
	"32 32 23 1",
	" 	c	None",
	"0	c	#000000",
	"1	c	#000033",
	"2	c	#003333",
	"3	c	#333333",
	"4	c	#333366",
	"5	c	#336666",
	"6	c	#336699",
	"7	c	#339999",
	"8	c	#669999",
	"9	c	#6699CC",
	"A	c	#66CCCC",
	"B	c	#66CCFF",
	"C	c	#9999CC",
	"D	c	#99CCCC",
	"E	c	#99CCFF",
	"F	c	#99FFFF",
	"G	c	#CC0000",
	"H	c	#CC3333",
	"I	c	#CC6666",
	"J	c	#CC6699",
	"K	c	#CC9999",
	"L	c	#CC99CC",
	"                                ",
	"            233003320           ",
	"         2259BBFFBB9622         ",
	"        28BFFFFFFFFFFB920       ",
	"      25BFFFFFFFFFFFFFFB63      ",
	"     37BFFFFFFFFFFFFFFFFF84     ",
	"    27FFFFFFFFFFFFFFFFFFFF94    ",
	"    5BFFFFFFFFFFFFFFFFFFFFF74   ",
	"   4BFFFFFFFFFFFFFFFFFFFFFFB3   ",
	"  28FFFFFFFFFFFFFFFFFFFFFFFFA3  ",
	"  2BFFFFFFFFFFFFFFFFFFFFFFFFF4  ",
	"  5FFFFFFFFFFFFFFFFFFFFFFFFFF80 ",
	" 29FFFFFFFFFFFFFFFFFFFFFFFFFFB3 ",
	" 3BFFFFFFFFFFFFFFFFFFFFFFFFFFB1 ",
	" 2BFFFFFFFFFFFFFFEEDCDFFFFFFFF2 ",
	" 0FFFFFFFFFFFFFLHGGGGGEFFFFFFF5 ",
	" 1FFFFFFFFFFFFFHGGJLCEFFFFFFFF5 ",
	" 2BFFFFFFFFFFFEGGGIEFFFFFFFFFF4 ",
	" 3BFFFFFFFFFFFEGIJGIEFFFFFFFFF0 ",
	" 3AFFFFFFFFFFFDGKEJGHEFFFFFFFB3 ",
	" 07FFFFFFFFFFFCGCFEJGHEFFFFFF92 ",
	"  2FFFFFFFFFFFEJEFFEJGHEFFFFF5  ",
	"  29FFFFFFFFFFFFFFFFEJGHEFFFB3  ",
	"   4BFFFFFFFFFFFFFFFFEJGHEFF5   ",
	"   27FFFFFFFFFFFFFFFFFEJGHEA4   ",
	"    49FFFFFFFFFFFFFFFFFEJDB4    ",
	"     4AFFFFFFFFFFFFFFFFFFB5     ",
	"      49FFFFFFFFFFFFFFFFA4      ",
	"       45AFFFFFFFFFFFFB54       ",
	"         359BFFFFFFB953         ",
	"           2305555022           ",
	"                                "};

static char **circle_filled_tangent_xpm[3] = { circle_filled_tangent_x16, circle_filled_tangent_x24, circle_filled_tangent_x32 };

