static char *circle_line_x16[] = {
	"16 16 25 1",
	" 	c	None",
	"0	c	#181818",
	"1	c	#686868",
	"2	c	#c80808",
	"3	c	#c84040",
	"4	c	#505050",
	"5	c	#c86868",
	"6	c	#282828",
	"7	c	#986868",
	"8	c	#c83030",
	"9	c	#c85050",
	"A	c	#c87878",
	"B	c	#c81818",
	"C	c	#707070",
	"D	c	#303030",
	"E	c	#908080",
	"F	c	#c87070",
	"G	c	#c84848",
	"H	c	#c85858",
	"I	c	#c81010",
	"J	c	#987878",
	"K	c	#c82020",
	"L	c	#c83838",
	"M	c	#987070",
	"N	c	#c88080",
	"      1441      ",
	"    6DC  CD6    ",
	"   0        0   ",
	"  0  33  GF  0  ",
	" 6    9 KF    6 ",
	" D    HAB B   D ",
	"1C H LL FGH H C1",
	"4J25        GIE4",
	"472H5555555592M4",
	"1CN3        8 C1",
	" D            D ",
	" 6            D ",
	"  0          0  ",
	"   0        0   ",
	"    6DC  CDD    ",
	"      1441      "};
static char *circle_line_x24[] = {
	"24 24 26 1",
	" 	c	None",
	"0	c	#000000",
	"1	c	#484848",
	"2	c	#c80000",
	"3	c	#c84848",
	"4	c	#c82020",
	"5	c	#707070",
	"6	c	#c86060",
	"7	c	#101010",
	"8	c	#585858",
	"9	c	#c87070",
	"A	c	#c81010",
	"B	c	#c83030",
	"C	c	#080808",
	"D	c	#606060",
	"E	c	#c83838",
	"F	c	#c87878",
	"G	c	#181818",
	"H	c	#c85050",
	"I	c	#c86868",
	"J	c	#c80808",
	"K	c	#c82828",
	"L	c	#c81818",
	"M	c	#c88080",
	"N	c	#c85858",
	"O	c	#c84040",
	"           55           ",
	"       8700CC0078       ",
	"     5C7D      D7C5     ",
	"    10D          D01    ",
	"   1C              C1   ",
	"  50   34EA  AOA    05  ",
	"  CD      2 K9      8C  ",
	" 87     F2H A43J     78 ",
	" 7D       J 49 LM    8G ",
	" 0  HF BKH2 FLNJ  M   0 ",
	" 0 62F            KJ  0 ",
	"5C 2KIIIIIIIIIIIII6A2 C5",
	"5C62LBBBBBBBBBBBBBBA29C5",
	" 0 E2             N2I 0 ",
	" 0  46            BI  0 ",
	" 7D                  8G ",
	" 87                  C8 ",
	"  CD                8C  ",
	"  50                05  ",
	"   1C              C1   ",
	"    108          801    ",
	"     5CC8      8CC5     ",
	"       8G00CC00G8       ",
	"           55           "};
static char *circle_line_x32[] = {
	"32 32 33 1",
	" 	c	None",
	"0	c	#000000",
	"1	c	#c80000",
	"2	c	#282828",
	"3	c	#c83030",
	"4	c	#686868",
	"5	c	#484848",
	"6	c	#181818",
	"7	c	#c85858",
	"8	c	#c81818",
	"9	c	#383838",
	"A	c	#c87070",
	"B	c	#c84040",
	"C	c	#585858",
	"D	c	#c82828",
	"E	c	#c84848",
	"F	c	#c80808",
	"G	c	#c87878",
	"H	c	#202020",
	"I	c	#080808",
	"J	c	#c86060",
	"K	c	#303030",
	"L	c	#404040",
	"M	c	#505050",
	"N	c	#c83838",
	"O	c	#606060",
	"P	c	#c82020",
	"Q	c	#c85050",
	"R	c	#c81010",
	"S	c	#c88080",
	"T	c	#c86868",
	"U	c	#707070",
	"V	c	#605858",
	"                                ",
	"           C60000006C           ",
	"         H0002LCCL2000H         ",
	"       9009          9009       ",
	"      602              206      ",
	"     I0M                M0I     ",
	"    60U    EN7    ENA    406    ",
	"   90M    1NTFD  1B71A    M09   ",
	"   02        NF BR         20   ",
	"  H0       SN8  PP31D       0H  ",
	"  09       SBF7 81  FN      90  ",
	" C0          J1 38  D8       0C ",
	" 60   E  T1Q 8F  1JA1Q       06 ",
	" 0K  81A  A3PB   S3DJ   81   K0 ",
	" 0L 31D                 G11G 50 ",
	" 0CQ11NBBBBBBBBBBBBBBBBBBD11AC0 ",
	" 0CP1111111111111111111111113V0 ",
	" 0L R17                  P1D 50 ",
	" 02  11                 31D  K0 ",
	" 60   1                 EN   06 ",
	" C0                          0C ",
	"  09                        90  ",
	"  H0                        0H  ",
	"   02                      20   ",
	"   90M                    M09   ",
	"    604                  406    ",
	"     I0M                M0I     ",
	"      602              206      ",
	"       9009          9009       ",
	"         H000K5OO5K000H         ",
	"           C60000006C           ",
	"                                "};

static char **circle_line_xpm[3] = { circle_line_x16, circle_line_x24, circle_line_x32 };
