static char *circle_x16[] = {
	"16 16 5 1",
	" 	c	None",
	"0	c	#000000",
	"1	c	#CC0000",
	"2	c	#CC9966",
	"3	c	#808080",
	"     000000     ",
	"   30 2  2 03   ",
	"  0 2 0000 2 0  ",
	" 3  00    00  3 ",
	" 020        020 ",
	"0  0        0  0",
	"0    00 303    0",
	"0 1   0 0 0  1 0",
	"311110  0 011113",
	"0 1  00 303  1 0",
	"0              0",
	" 020        020 ",
	" 3  00    00  3 ",
	"  0 2 0000 2 0  ",
	"   30 2  2 03   ",
	"     000000     "};

static char *circle_x24[] = {
	"24 24 12 1",
	" 	c	None",
	"0	c	#000000",
	"1	c	#330000",
	"2	c	#333300",
	"3	c	#663300",
	"4	c	#990000",
	"5	c	#993300",
	"6	c	#996600",
	"7	c	#CC0000",
	"8	c	#CC3300",
	"9	c	#CC6600",
	"A	c	#CC9900",
	"           A            ",
	"          0660  A       ",
	"       9000660026       ",
	"      036  99  920 A    ",
	"   A600 90022026 019    ",
	"    39 036 AA 930 A0    ",
	"   01A20      A 336 0   ",
	"  00 06A        A60 36A ",
	" A2930            36A0  ",
	"  2A58  000  000 A94 00 ",
	" 00 77    0000 00 77700 ",
	" 01777  000 00 00787782 ",
	"A667787 000 00 01788783A",
	" 33878    0000 00 77710 ",
	" 00 47 0000  000  77 00 ",
	"  0A66           A93A0  ",
	" A63 0 A          0966A ",
	"   0  39        A30 0   ",
	"    1A602A    A306A00   ",
	"    61  30036013  36    ",
	"   A  02A  66  A000AA   ",
	"       320 66 032       ",
	"       A 0033009A       ",
	"           AA           "};

static char *circle_x32[] = {
	"32 32 13 1",
	" 	c	None",
	"0	c	#000000",
	"1	c	#330000",
	"2	c	#333300",
	"3	c	#660000",
	"4	c	#663300",
	"5	c	#990000",
	"6	c	#993300",
	"7	c	#996600",
	"8	c	#CC0000",
	"9	c	#CC3300",
	"A	c	#CC6600",
	"B	c	#CC9900",
	"                                ",
	"               BB               ",
	"         B  00042000 B          ",
	"         A4000 A7 0014          ",
	"        017    BB   B700  B     ",
	"       00 BB00011004B  00AB     ",
	"     B1   7400 AB 042   74      ",
	"     1A  00AB  B   B700 B 0     ",
	"    00 B20         B  24   0    ",
	"    0  17B            B40  07B  ",
	"   00  0 B              0  A4   ",
	" BB2B 0                 A4B 0   ",
	"  02B76A   0000  0000  BA83 00  ",
	"  00 588  00000  00000  888  0  ",
	"  0 8888     00 00  00   888 0  ",
	"  0588888  0000 00  00 8888881A ",
	" B1A88888  0000 00  00 8888894BB",
	" B2A988A     00000  00   888 0  ",
	"  0  888  0  000000 00  888  0  ",
	"  00 389  00000  0000   885 00  ",
	"   0 A4A               BB4A 00  ",
	"   4AB00                04BB2A  ",
	"  B70  02B              0  17BB ",
	"    00  47            A1   0    ",
	"     0 BA00 B      B 00AB 0     ",
	"     44   027  BB  710  B40     ",
	"     B40   A40022004A   07B     ",
	"        00AB   A7   B 00  B     ",
	"         0420  BB  0420         ",
	"         BB0000220004B          ",
	"         B     AA    B          ",
	"               BB               "};

static char **circle_xpm[3] = { circle_x16, circle_x24, circle_x32 };

