static char* circle_line_tangent_x16[] = {
	"16 16 5 1",
	" 	c	None",
	"0	c	#000000",
	"1	c	#660000",
	"2	c	#990000",
	"3	c	#FF0000",
	"                ",
	"     0000000    ",
	"   0000000000   ",
	"  000      000  ",
	"  00        000 ",
	" 00          00 ",
	" 00          00 ",
	" 00     33    00",
	" 00    3333   00",
	" 00    3333  000",
	" 00    33333 00 ",
	" 000      33300 ",
	"  000      331  ",
	"   000    002   ",
	"    00000000    ",
	"       000      "};

static char* circle_line_tangent_x24[] = {
	"24 24 6 1",
	" 	c	None",
	"0	c	#000000",
	"1	c	#330000",
	"2	c	#990000",
	"3	c	#CC0000",
	"4	c	#FF0000",
	"                        ",
	"                        ",
	"        000000000       ",
	"      0000    0000      ",
	"     000        0000    ",
	"    000           000   ",
	"   000             00   ",
	"  000              000  ",
	"  00                00  ",
	"  00                 00 ",
	"  0                  00 ",
	" 00          44      00 ",
	" 00        4444      00 ",
	" 00        4444      00 ",
	"  00       44444     00 ",
	"  00       4  444   000 ",
	"  000          444  00  ",
	"   00           444000  ",
	"   000           4410   ",
	"    000          023    ",
	"     0000       000     ",
	"       00000000000      ",
	"         0000000        ",
	"                        "};

static char* circle_line_tangent_x32[] = {
	"32 32 6 1",
	" 	c	None",
	"0	c	#000000",
	"1	c	#660000",
	"2	c	#CC0000",
	"3	c	#FF0000",
	"4	c	#800000",
	"                                ",
	"                                ",
	"             000000             ",
	"          000000000000          ",
	"        00000      00000        ",
	"       0000           000       ",
	"      000              000      ",
	"     000                 00     ",
	"    000                   00    ",
	"    00                    000   ",
	"   000                     00   ",
	"   00                      000  ",
	"   00                       00  ",
	"  00                        00  ",
	"  00                        00  ",
	"  00             333        00  ",
	"  00           33333        00  ",
	"  00           3333         00  ",
	"  00           33333        00  ",
	"  000          33 333       00  ",
	"   00              333      00  ",
	"   00               333    00   ",
	"    00               333   00   ",
	"    00                333 00    ",
	"     00                33400    ",
	"      00                320     ",
	"      0000             001      ",
	"        000          0000       ",
	"         00000000000000         ",
	"           0000000000           ",
	"                                ",
	"                                "};

static char *circle_line_tangent_xpm[3] = { circle_line_tangent_x16, circle_line_tangent_x24, circle_line_tangent_x32 };

