static char *circle_tangent_x16[] = {
	"16 16 13 1",
	" 	c	None",
	"0	c	#000000",
	"1	c	#330000",
	"2	c	#333300",
	"3	c	#663300",
	"4	c	#993300",
	"5	c	#996600",
	"6	c	#CC3300",
	"7	c	#CC6600",
	"8	c	#CC9900",
	"9	c	#FF0000",
	"A	c	#FF3300",
	"B	c	#FF6600",
	"                ",
	"     503305     ",
	"    230553505   ",
	"  730833338533  ",
	"  0571555507707 ",
	" 53 15    72553 ",
	" 3555      73 0 ",
	" 0 0        081 ",
	" 3827  999  2835",
	" 0025  999 70 0 ",
	" 3572     94572 ",
	" 81 537   49 15 ",
	"  337312303B60  ",
	"   30587587038  ",
	"     3023033    ",
	"       55       "};

static char *circle_tangent_x24[] = {
	"24 24 12 1",
	" 	c	None",
	"0	c	#000000",
	"1	c	#330000",
	"2	c	#333300",
	"3	c	#663300",
	"4	c	#990000",
	"5	c	#996600",
	"6	c	#CC6600",
	"7	c	#CC9900",
	"8	c	#FF0000",
	"9	c	#FF3300",
	"A	c	#FF6600",
	"                        ",
	"           77           ",
	"       7100000036       ",
	"       330 77  510      ",
	"     0037  77  7 027    ",
	"    53  73000036  60    ",
	"    077005    5027 00   ",
	"   0  53        33  26  ",
	"  53  0          05761  ",
	"  26733          63  0  ",
	"  0  15           0  00 ",
	"  0  0            25 33 ",
	" 63763     8888   35755 ",
	"  0  0     888    0  00 ",
	"  0  26    8888  70  00 ",
	"  15751       88 35770  ",
	"  63  05       891  557 ",
	"   00 7207     049  0   ",
	"    06  12133022 AA0    ",
	"    610 77055067  25    ",
	"      007  77  710      ",
	"       5100550013       ",
	"       7  03500         ",
	"                        "};

static char *circle_tangent_x32[] = {
	"32 32 16 1",
	" 	c	None",
	"0	c	#000000",
	"1	c	#330000",
	"2	c	#333300",
	"3	c	#660000",
	"4	c	#663300",
	"5	c	#993300",
	"6	c	#996600",
	"7	c	#CC0000",
	"8	c	#CC3300",
	"9	c	#CC6600",
	"A	c	#CC9900",
	"B	c	#FF0000",
	"C	c	#FF3300",
	"D	c	#FF6600",
	"E	c	#800000",
	"                                ",
	"                                ",
	"               66               ",
	"         AA00004400049          ",
	"         220   AA   620         ",
	"        00AA   AA   A 000A      ",
	"     A60   A   66  AA   46      ",
	"      49   A400440049   A10     ",
	"     0 AA 006      600 A  00    ",
	"    00  A40          04    0A   ",
	"    0   04           A40   66   ",
	"  A66   0              06AA 0   ",
	"   19AA44              94   00  ",
	"   0   1A               0   00  ",
	"   0  00                00  00  ",
	"  00  00                42  62  ",
	"  65AA66        BBBB    94AA92A ",
	"  62  44       BBB      00   0  ",
	"   0  00       BBBB     00  00  ",
	"   0   1A      BB BB   A1   00  ",
	"   04AA61          BB  66AA 0   ",
	"   64A  01          BB 0  A94A  ",
	"   A0    26          D73   06A  ",
	"    00  A600        008C  00    ",
	"     02A   044 99 240  DD 0     ",
	"      44   A90011006A   94      ",
	"       00  A   AA   A  006A     ",
	"        004A   AA   A600        ",
	"          6000 9A  0220         ",
	"          A 00020000 A          ",
	"                                ",
	"                                "};

static char *circle_tangent_xpm[3] = { circle_tangent_x16, circle_tangent_x24, circle_tangent_x32 };

