static char *clone_x16[] = {
	"16 16 35 1",
	" 	c	None",
	"0	c	#0898e0",
	"1	c	#b8b8b8",
	"2	c	#989898",
	"3	c	#88b0c8",
	"4	c	#e8f0f0",
	"5	c	#90c0e0",
	"6	c	#b0d8f8",
	"7	c	#d0e8f0",
	"8	c	#60b8e8",
	"9	c	#78c0e0",
	"A	c	#98d0f0",
	"B	c	#98a8b8",
	"C	c	#b8d0d8",
	"D	c	#1090d8",
	"E	c	#80c0e8",
	"F	c	#b8e0f0",
	"G	c	#a0a0a0",
	"H	c	#80c8f8",
	"I	c	#d0d0d0",
	"J	c	#a0d8f8",
	"K	c	#1890d8",
	"L	c	#70c0e8",
	"M	c	#a0c8e0",
	"N	c	#88c0e0",
	"O	c	#1898d0",
	"P	c	#88b8d0",
	"Q	c	#f0f0f0",
	"R	c	#1098d8",
	"S	c	#88c8e8",
	"T	c	#78c0e8",
	"U	c	#0898e8",
	"V	c	#a0d0f0",
	"W	c	#1898d8",
	"X	c	#90c8e0",
	"G22222222222    ",
	"GQQQQQQQQQQI    ",
	"GQQ47777777CB   ",
	"GQQ6HJETJJJVAVV8",
	"GQQ6FQWDQQQQQQQL",
	"GQQ6SW00KXQQQQQL",
	"GQQ6ED0URNQQQQQL",
	"GQQ6FQORQQQQQQQL",
	"GQQ6FQM5QQQQQQQL",
	"GQQ6FQQQQQQQQQQL",
	"GQQ6FQQQQQQQQQQL",
	"GQQ6FQQQQQQQQQQL",
	"2113FQQQQQQQQQQL",
	"   PFQQQQQQQQQQL",
	"    FQQQQQQQQQQL",
	"    LTTTTTTTTTT9"};
static char *clone_x24[] = {
	"24 24 41 1",
	" 	c	None",
	"0	c	#888888",
	"1	c	#b4b4b4",
	"2	c	#008cde",
	"3	c	#60b0d8",
	"4	c	#e8e8e8",
	"5	c	#98c8e4",
	"6	c	#359dd0",
	"7	c	#a8d8f8",
	"8	c	#d8d8d8",
	"9	c	#30a8e8",
	"A	c	#0098e9",
	"B	c	#a0cae2",
	"C	c	#cde0e8",
	"D	c	#989898",
	"E	c	#78b8e0",
	"F	c	#f0f0f0",
	"G	c	#b8e0f0",
	"H	c	#c0c0c0",
	"I	c	#a0d0f0",
	"J	c	#84c8f4",
	"K	c	#1190d6",
	"L	c	#5090b8",
	"M	c	#40b8f8",
	"N	c	#00a0f8",
	"O	c	#68b8e8",
	"P	c	#c0d8e8",
	"Q	c	#909090",
	"R	c	#e1f0f0",
	"S	c	#90d0f8",
	"T	c	#a0a0a0",
	"U	c	#b0d0e8",
	"V	c	#60b8e8",
	"W	c	#0898e0",
	"X	c	#d8e0f0",
	"Y	c	#c8c8c8",
	"Z	c	#38b0f0",
	"a	c	#0898e8",
	"b	c	#80bce0",
	"c	c	#a0d8f8",
	"d	c	#c0e0f0",
	" QQQQQQQQQQQQQQQQQ      ",
	"D18888888888888881T     ",
	"DYFFFFFFFFFFFFFFFYT     ",
	"DYFFFFFFFFFFFFFFFYT     ",
	"DYFFF7MMMMMMMMMMMZ9ZZZZb",
	"DYFFFSSRRU5BRRRRRRRRRR7O",
	"DYFFFScFF6NKFFFFFFFFFFGO",
	"DYFFFScCC6NKCPRFFFFFFFGO",
	"DYFFFSI2aaNAW2XFFFFFFFGO",
	"DYFFFSc2AANAA2XFFFFFFFGO",
	"DYFFFScBBKNKUURFFFFFFFGO",
	"DYFFFScFF6NKFFFFFFFFFFGO",
	"DYFFFScFF53bFFFFFFFFFFGO",
	"DYFFFScFFFFFFFFFFFFFFFGO",
	"DYFFFScFFFFFFFFFFFFFFFGO",
	"DYFFFScFFFFFFFFFFFFFFFGO",
	"DYFFFScFFFFFFFFFFFFFFFGO",
	"DYFFFScFFFFFFFFFFFFFFFGO",
	"DH444JcFFFFFFFFFFFFFFFGO",
	" 0000LcFFFFFFFFFFFFFFFGO",
	"     EcFFFFFFFFFFFFFFFGO",
	"     EcFFFFFFFFFFFFFFFGO",
	"     EJdddddddddddddddSO",
	"      VVVVVVVVVVVVVVVVV "};
static char *clone_x32[] = {
	"32 32 41 1",
	" 	c	None",
	"0	c	#686868",
	"1	c	#b0d0e8",
	"2	c	#0a88d0",
	"3	c	#40b0f8",
	"4	c	#6cb1d8",
	"5	c	#d0e8f0",
	"6	c	#989898",
	"7	c	#0098f0",
	"8	c	#70c8f8",
	"9	c	#58a8d8",
	"A	c	#20a8f8",
	"B	c	#b8b8b8",
	"C	c	#6890b0",
	"D	c	#60c0f8",
	"E	c	#90c0e0",
	"F	c	#50a8d8",
	"G	c	#3890c0",
	"H	c	#888888",
	"I	c	#80c8f8",
	"J	c	#78b8e0",
	"K	c	#a0a0a0",
	"L	c	#48a0d8",
	"M	c	#787878",
	"N	c	#50b8f8",
	"O	c	#60b6e8",
	"P	c	#f0f0f0",
	"Q	c	#88b0c8",
	"R	c	#00a0f8",
	"S	c	#34b0f4",
	"T	c	#2894d0",
	"U	c	#909090",
	"V	c	#1a90d2",
	"W	c	#3898d0",
	"X	c	#b0d8f8",
	"Y	c	#40b8f8",
	"Z	c	#80c0e0",
	"a	c	#9cc8e0",
	"b	c	#808080",
	"c	c	#60b0d8",
	"d	c	#3098d0",
	" 66666666666666666666666        ",
	" MKKKKKKKKKKKKKKKKKKKKKHU       ",
	" HPPPPPPPPPPPPPPPPPPPPPBU       ",
	" HPPPPPPPPPPPPPPPPPPPPPBU       ",
	" HPPPPPPPPPPPPPPPPPPPPPBU       ",
	" HPPPPP5XXXXXXXXXXXXXXXQC       ",
	" HPPPPP8AYYYYYYYYYYYYYY3S33333A ",
	" HPPPPP8IPPP1ZZaPPPPPPPPPPPPPPN ",
	" HPPPPP8IPPP47RdPPPPPPPPPPPPPPN ",
	" HPPPPP8IPPP47RTPPPPPPPPPPPPPPN ",
	" HPPPPP8IaJ4W7R24cJPPPPPPPPPPPN ",
	" HPPPPP8IL777RR777VPPPPPPPPPPPN ",
	" HPPPPP8IFRRRRRRRRVPPPPPPPPPPPN ",
	" HPPPPP8IJTV27R2WW9PPPPPPPPPPPN ",
	" HPPPPP8IPPP97RdPPPPPPPPPPPPPPN ",
	" HPPPPP8IPPPc7RdPPPPPPPPPPPPPPN ",
	" HPPPPP8IPPPEdd4PPPPPPPPPPPPPPN ",
	" HPPPPP8IPPPPPPPPPPPPPPPPPPPPPN ",
	" HPPPPP8IPPPPPPPPPPPPPPPPPPPPPN ",
	" HPPPPP8IPPPPPPPPPPPPPPPPPPPPPN ",
	" HPPPPP8IPPPPPPPPPPPPPPPPPPPPPN ",
	" HPPPPP8IPPPPPPPPPPPPPPPPPPPPPN ",
	" HPPPPP8IPPPPPPPPPPPPPPPPPPPPPN ",
	" HPPPPP8IPPPPPPPPPPPPPPPPPPPPPN ",
	" HPPPPP8IPPPPPPPPPPPPPPPPPPPPPN ",
	" 0bbbbbGIPPPPPPPPPPPPPPPPPPPPPN ",
	"       9IPPPPPPPPPPPPPPPPPPPPPN ",
	"       OIPPPPPPPPPPPPPPPPPPPPPN ",
	"       OIPPPPPPPPPPPPPPPPPPPPPN ",
	"       OIPPPPPPPPPPPPPPPPPPPPPN ",
	"       OSDDDDDDDDDDDDDDDDDDDDDA ",
	"        JJJJJJJJJJJJJJJJJJJJJJJ "};

static char **clone_xpm[3] = { clone_x16, clone_x24, clone_x32 };
