static char *connect_x16[] = {
	"16 16 11 1",
	" 	c	None",
	"0	c	#000000",
	"1	c	#003399",
	"2	c	#006699",
	"3	c	#3366CC",
	"4	c	#3399FF",
	"5	c	#6699FF",
	"6	c	#9966CC",
	"7	c	#FF0000",
	"8	c	#FF3333",
	"9	c	#FF3366",
	"                ",
	"                ",
	"                ",
	"                ",
	"  323331133333  ",
	"  333331133333  ",
	"  55555  5555   ",
	"  111111111111  ",
	"  5 568  9  5   ",
	"  777777777777  ",
	"      7777      ",
	"         7      ",
	"                ",
	"                ",
	"                ",
	"                "};

static char *connect_x24[] = {
	"24 24 11 1",
	" 	c	None",
	"0	c	#000000",
	"1	c	#003399",
	"2	c	#3366CC",
	"3	c	#3366FF",
	"4	c	#3399FF",
	"5	c	#6699FF",
	"6	c	#9966CC",
	"7	c	#CC66CC",
	"8	c	#FF0000",
	"9	c	#FF3366",
	"                        ",
	"                        ",
	"                        ",
	"                        ",
	"                        ",
	"                        ",
	"   22 3 22   22 3 22    ",
	"   11121111111112111    ",
	"   55 5 55   55 5 55    ",
	"   55 5 55   55 5 55    ",
	"   22 4 22   22 4 22    ",
	"   11121111111112111    ",
	"      5 69   79 5       ",
	"         88  8          ",
	"   88888888888888888    ",
	"          8 88          ",
	"         8   88         ",
	"                        ",
	"                        ",
	"                        ",
	"                        ",
	"                        ",
	"                        ",
	"                        "};

static char *connect_x32[] = {
	"32 32 11 1",
	" 	c	None",
	"0	c	#000000",
	"1	c	#003399",
	"2	c	#336699",
	"3	c	#3366CC",
	"4	c	#3399FF",
	"5	c	#6699FF",
	"6	c	#9999FF",
	"7	c	#CC66CC",
	"8	c	#FF0000",
	"9	c	#FF3366",
	"                                ",
	"                                ",
	"                                ",
	"                                ",
	"                                ",
	"                                ",
	"                                ",
	"                                ",
	"     5  5         5      5      ",
	"    13113111111 11311111131     ",
	"    34  43 33     43 33 34      ",
	"     5  5  55     5  55  5      ",
	"     5  5  55     5  55  5      ",
	"     5  5  55     5  55  5      ",
	"    13113213311 11321331131     ",
	"    13113213311 11321331131     ",
	"     5  5   9     79     5      ",
	"            88   88             ",
	"             88 88              ",
	"    88888888888888888888888     ",
	"             88 88              ",
	"            88   88             ",
	"            8     8             ",
	"                                ",
	"                                ",
	"                                ",
	"                                ",
	"                                ",
	"                                ",
	"                                ",
	"                                ",
	"                                "};

static char *connect_xpm[3] = { connect_x16, connect_x24, connect_x32 };

