static char *control_x16[] = {
	"16 16 16 1",
	" 	c	None",
	"0	c	#000000",
	"1	c	#006600",
	"2	c	#009900",
	"3	c	#00FF00",
	"4	c	#330000",
	"5	c	#33CC00",
	"6	c	#33FF00",
	"7	c	#660000",
	"8	c	#669900",
	"9	c	#990000",
	"A	c	#CC0000",
	"B	c	#FF0000",
	"C	c	#FF3300",
	"D	c	#FF6600",
	"E	c	#008000",
	"                ",
	"                ",
	"                ",
	"            0   ",
	"   00      000  ",
	"   000    000   ",
	"    00099400    ",
	"     08CBB7     ",
	"     135CBA0    ",
	"     1336DA0    ",
	"     0233570    ",
	"    0001E0000   ",
	"   000     000  ",
	"   00       0   ",
	"                ",
	"                "};

static char *control_x24[] = {
	"24 24 17 1",
	" 	c	None",
	"0	c	#000000",
	"1	c	#006600",
	"2	c	#009900",
	"3	c	#00CC00",
	"4	c	#00FF00",
	"5	c	#33CC00",
	"6	c	#33FF00",
	"7	c	#660000",
	"8	c	#66CC00",
	"9	c	#990000",
	"A	c	#999900",
	"B	c	#CC0000",
	"C	c	#FF0000",
	"D	c	#FF3300",
	"E	c	#800000",
	"F	c	#008000",
	"                        ",
	"                        ",
	"                        ",
	"                        ",
	"                        ",
	"                        ",
	"                  00    ",
	"     00          00     ",
	"      000       00      ",
	"       0000EE7000       ",
	"        07CCCC90        ",
	"        06ACCCC90       ",
	"        F44ACCCB0       ",
	"        F4448CCC0       ",
	"        144448DB0       ",
	"        0244445E        ",
	"       0002343100       ",
	"      000 0000  000     ",
	"     000         000    ",
	"     00           00    ",
	"                        ",
	"                        ",
	"                        ",
	"                        "};

static char *control_x32[] = {
	"32 32 21 1",
	" 	c	None",
	"0	c	#000000",
	"1	c	#003300",
	"2	c	#009900",
	"3	c	#00CC00",
	"4	c	#00FF00",
	"5	c	#330000",
	"6	c	#336600",
	"7	c	#33FF00",
	"8	c	#66CC00",
	"9	c	#990000",
	"A	c	#999900",
	"B	c	#99CC00",
	"C	c	#CC0000",
	"D	c	#CC6600",
	"E	c	#CC9900",
	"F	c	#FF0000",
	"G	c	#FF3300",
	"H	c	#FF6600",
	"I	c	#800000",
	"J	c	#008000",
	"                                ",
	"                                ",
	"                                ",
	"                                ",
	"                                ",
	"                                ",
	"                                ",
	"                                ",
	"                        00      ",
	"       00              000      ",
	"       000            000       ",
	"        000          000        ",
	"         000  00950 000         ",
	"          000ICFFFC500          ",
	"           06GFFFFFC5           ",
	"           047HFFFFFC0          ",
	"           J447DFFFFF0          ",
	"          024444EFFFF0          ",
	"           244444AFFF0          ",
	"           1444444BFF0          ",
	"           02444444890          ",
	"           00244444200          ",
	"          00 0123J00 00         ",
	"         00     0     00        ",
	"        00             000      ",
	"       00               00      ",
	"       0                        ",
	"                                ",
	"                                ",
	"                                ",
	"                                ",
	"                                "};

static char *control_xpm[3] = { control_x16, control_x24, control_x32 };

