static char *convert_from_x16[] = {
	"16 16 12 1",
	" 	c	None",
	"0	c	#000000",
	"1	c	#000101",
	"2	c	#000202",
	"3	c	#C40000",
	"4	c	#FF0000",
	"5	c	#808080",
	"6	c	#909090",
	"7	c	#A0A0A0",
	"8	c	#C0C0C0",
	"9	c	#FCFCFC",
	"A	c	#000000",
	" 858       858  ",
	"9050      70507 ",
	"85 6   5005   08",
	"80   707    6 58",
	" 70507      050 ",
	"  858   3   858 ",
	"        3       ",
	"        3       ",
	"      43334     ",
	"       434      ",
	"        4       ",
	"      12220     ",
	"      20        ",
	"      1220      ",
	"      20        ",
	"      20        "};

static char *convert_from_x24[] = {
	"24 24 21 1",
	" 	c	None",
	"0	c	#000000",
	"1	c	#000101",
	"2	c	#000202",
	"3	c	#36020D",
	"4	c	#3C020E",
	"5	c	#490211",
	"6	c	#6D0419",
	"7	c	#7C041B",
	"8	c	#80041D",
	"9	c	#8C061F",
	"A	c	#8A0420",
	"B	c	#920522",
	"C	c	#980522",
	"D	c	#9E0624",
	"E	c	#AB0726",
	"F	c	#BD082B",
	"G	c	#C2062D",
	"H	c	#C4082C",
	"I	c	#C4082D",
	"J	c	#000000",
	"                        ",
	"  212           102221  ",
	" 2   2        0200    2 ",
	"00   2      021    00 00",
	"00  02    020     01  00",
	"10 00   121       2   00",
	" 1    020         2   1 ",
	"  11120    3B      1120 ",
	"           5I           ",
	"           5I           ",
	"        6  5I  4        ",
	"        EF55I 9I        ",
	"         CIAIDI5        ",
	"          8IHF3         ",
	"           7G           ",
	"         100000         ",
	"         222222         ",
	"         20             ",
	"         20             ",
	"         22222          ",
	"         21000          ",
	"         20             ",
	"         20             ",
	"         11             "};

static char *convert_from_x32[] = {
	"32 32 28 1",
	" 	c	None",
	"0	c	#000000",
	"1	c	#000101",
	"2	c	#000202",
	"3	c	#36020D",
	"4	c	#3C020E",
	"5	c	#42020F",
	"6	c	#490211",
	"7	c	#4F0212",
	"8	c	#550314",
	"9	c	#5C0315",
	"A	c	#610316",
	"B	c	#73041A",
	"C	c	#7A051B",
	"D	c	#7A041C",
	"E	c	#7E051D",
	"F	c	#8C051F",
	"G	c	#8C061F",
	"H	c	#980522",
	"I	c	#9E0624",
	"J	c	#AB0726",
	"K	c	#B10529",
	"L	c	#B70729",
	"M	c	#C0062C",
	"N	c	#C3062D",
	"O	c	#C2082C",
	"P	c	#C4082D",
	"Q	c	#000000",
	"                                ",
	"  12220                112221   ",
	" 1210020            0222200022  ",
	" 20   12          02220      22 ",
	"12     2        02200    011  20",
	"02    12      0220      0220  20",
	"02  1021    0220        20    20",
	" 21 222   1221          21    20",
	" 12      2221           20   021",
	"  220002221    4A       020 021 ",
	"   122211      CP6       02220  ",
	"               CP6              ",
	"               CP6              ",
	"               CP6              ",
	"          5PH  CP6 3K5          ",
	"           JPJ CP66PP8          ",
	"            IPLFPEPPB           ",
	"             GPONPPA            ",
	"              COPP7             ",
	"               DM9              ",
	"            10000000            ",
	"            12222222            ",
	"            22000000            ",
	"            22                  ",
	"            22                  ",
	"            2211111             ",
	"            2122220             ",
	"            220                 ",
	"            22                  ",
	"            22                  ",
	"            22                  ",
	"            10                  "};

static char **convert_from_xpm[3] = { convert_from_x16, convert_from_x24, convert_from_x32 };

