static char* convert_to_x16[] = {
	"16 16 3 1",
	" 	c	None",
	"0	c	#000000",
	"1	c	#FF0033",
	"  00       000  ",
	" 0000    000000 ",
	"00 00  000000000",
	"000000000  00000",
	"000000011  00000",
	" 0000  11   000 ",
	"       11       ",
	"     111111     ",
	"      1111      ",
	"       11       ",
	"     000000     ",
	"      0         ",
	"      0000      ",
	"      0         ",
	"      0         ",
	"      0         "};

static char* convert_to_x24[] = {
	"24 24 3 1",
	" 	c	None",
	"0	c	#000000",
	"1	c	#FF0033",
	"                        ",
	"  0000          000000  ",
	" 000000       000000000 ",
	" 00  00     00000 00000 ",
	" 00  00   0000   000000 ",
	" 00000  0000     00   0 ",
	" 000  0000  1    00  00 ",
	"  000000   11     00000 ",
	"   000     11      000  ",
	"           11           ",
	"        11 11           ",
	"        11111111        ",
	"         111111         ",
	"          1111          ",
	"           11           ",
	"        00000000        ",
	"         000000         ",
	"         00             ",
	"         00000          ",
	"         00000          ",
	"         00             ",
	"         00             ",
	"         00             ",
	"                        "};

static char* convert_to_x32[] = {
	"32 32 3 1",
	" 	c	None",
	"0	c	#000000",
	"1	c	#FF0033",
	"                                ",
	"    000                  00     ",
	"  000000             00000000   ",
	"  00  000          00000   000  ",
	" 000   00       00000    00 000 ",
	" 00    00     00000     0000 00 ",
	" 00  0000    0000      000   00 ",
	" 00 0000   0000        00    00 ",
	"  00     0000          00    00 ",
	"  000000000    11       000000  ",
	"    000000     11       00000   ",
	"               11               ",
	"               11               ",
	"               11               ",
	"           11  11  11           ",
	"           111 11 111           ",
	"             1111111            ",
	"              11111             ",
	"               111              ",
	"               11               ",
	"           0000000000           ",
	"            00000000            ",
	"            00                  ",
	"            00                  ",
	"            0000000             ",
	"            0000000             ",
	"            00                  ",
	"            00                  ",
	"            00                  ",
	"            00                  ",
	"            00                  ",
	"                                "};

static char *convert_to_xpm[3] = { convert_to_x16, convert_to_x24, convert_to_x32 };

