static char *copy_x16[] = {
	"16 16 11 1",
	" 	c	None",
	"0	c	#989898",
	"1	c	#d0d0d0",
	"2	c	#b8b8b8",
	"3	c	#f0f0f0",
	"4	c	#a8a8a8",
	"5	c	#e0e0e0",
	"6	c	#c8c8c8",
	"7	c	#a0a0a0",
	"8	c	#c0c0c0",
	"9	c	#b0b0b0",
	"700000000000    ",
	"733333333331    ",
	"7333555555567   ",
	"7336988888882880",
	"7336133333333337",
	"7336133333333337",
	"7336133333333337",
	"7336133333333337",
	"7336133333333337",
	"7336133333333337",
	"7336133333333337",
	"7336133333333337",
	"0227133333333337",
	"   4133333333337",
	"    133333333337",
	"    744444444447"};
static char *copy_x24[] = {
	"24 24 15 1",
	" 	c	None",
	"0	c	#787878",
	"1	c	#c8c8c8",
	"2	c	#e8e8e8",
	"3	c	#b0b0b0",
	"4	c	#909090",
	"5	c	#d8d8d8",
	"6	c	#989898",
	"7	c	#f0f0f0",
	"8	c	#c0c0c0",
	"9	c	#888888",
	"A	c	#d0d0d0",
	"B	c	#a0a0a0",
	"C	c	#b8b8b8",
	"D	c	#808080",
	" 44444444444444444      ",
	"6C5555555555555553B     ",
	"617777777777777771B     ",
	"617777777777777771B     ",
	"61777199999999999D0DDDDB",
	"61777CC22222222222222216",
	"61777C8777777777777777A6",
	"61777C8777777777777777A6",
	"61777C8777777777777777A6",
	"61777C8777777777777777A6",
	"61777C8777777777777777A6",
	"61777C8777777777777777A6",
	"61777C8777777777777777A6",
	"61777C8777777777777777A6",
	"61777C8777777777777777A6",
	"61777C8777777777777777A6",
	"61777C8777777777777777A6",
	"61777C8777777777777777A6",
	"6822238777777777777777A6",
	" 999908777777777777777A6",
	"     B8777777777777777A6",
	"     B8777777777777777A6",
	"     B3555555555555555C6",
	"      66666666666666666 "};
static char *copy_x32[] = {
	"32 32 15 1",
	" 	c	None",
	"0	c	#686868",
	"1	c	#c8c8c8",
	"2	c	#989898",
	"3	c	#e0e0e0",
	"4	c	#a8a8a8",
	"5	c	#888888",
	"6	c	#a0a0a0",
	"7	c	#909090",
	"8	c	#b0b0b0",
	"9	c	#787878",
	"A	c	#f0f0f0",
	"B	c	#b8b8b8",
	"C	c	#808080",
	"D	c	#707070",
	" 22222222222222222222222        ",
	" 966666666666666666666657       ",
	" 5AAAAAAAAAAAAAAAAAAAAAB7       ",
	" 5AAAAAAAAAAAAAAAAAAAAAB7       ",
	" 5AAAAAAAAAAAAAAAAAAAAAB7       ",
	" 5AAAAA31111111111111116C       ",
	" 5AAAAA49555555555555555C55555D ",
	" 5AAAAA48AAAAAAAAAAAAAAAAAAAAA7 ",
	" 5AAAAA48AAAAAAAAAAAAAAAAAAAAA7 ",
	" 5AAAAA48AAAAAAAAAAAAAAAAAAAAA7 ",
	" 5AAAAA48AAAAAAAAAAAAAAAAAAAAA7 ",
	" 5AAAAA48AAAAAAAAAAAAAAAAAAAAA7 ",
	" 5AAAAA48AAAAAAAAAAAAAAAAAAAAA7 ",
	" 5AAAAA48AAAAAAAAAAAAAAAAAAAAA7 ",
	" 5AAAAA48AAAAAAAAAAAAAAAAAAAAA7 ",
	" 5AAAAA48AAAAAAAAAAAAAAAAAAAAA7 ",
	" 5AAAAA48AAAAAAAAAAAAAAAAAAAAA7 ",
	" 5AAAAA48AAAAAAAAAAAAAAAAAAAAA7 ",
	" 5AAAAA48AAAAAAAAAAAAAAAAAAAAA7 ",
	" 5AAAAA48AAAAAAAAAAAAAAAAAAAAA7 ",
	" 5AAAAA48AAAAAAAAAAAAAAAAAAAAA7 ",
	" 5AAAAA48AAAAAAAAAAAAAAAAAAAAA7 ",
	" 5AAAAA48AAAAAAAAAAAAAAAAAAAAA7 ",
	" 5AAAAA48AAAAAAAAAAAAAAAAAAAAA7 ",
	" 5AAAAA48AAAAAAAAAAAAAAAAAAAAA7 ",
	" 0CCCCCD8AAAAAAAAAAAAAAAAAAAAA7 ",
	"       58AAAAAAAAAAAAAAAAAAAAA7 ",
	"       28AAAAAAAAAAAAAAAAAAAAA7 ",
	"       28AAAAAAAAAAAAAAAAAAAAA7 ",
	"       28AAAAAAAAAAAAAAAAAAAAA7 ",
	"       7C2222222222222222222229 ",
	"        66666666666666666666666 "};

static char **copy_xpm[3] = { copy_x16, copy_x24, copy_x32 };
