static char *cornu_x16[] = {
	"16 16 12 1",
	" 	c	None",
	"0	c	#000000",
	"1	c	#330000",
	"2	c	#333300",
	"3	c	#663300",
	"4	c	#666600",
	"5	c	#993300",
	"6	c	#996600",
	"7	c	#CC0000",
	"8	c	#CC6600",
	"9	c	#CC9900",
	"A	c	#800000",
	"       6 9      ",
	"    6203020     ",
	"  9328366833    ",
	"  063336616777  ",
	" 8326    9A777  ",
	" 062       777  ",
	"9163            ",
	" 163            ",
	"8166            ",
	"91619           ",
	" 36639          ",
	" 913339      77 ",
	"  83361666865777",
	"    336633336777",
	"    92302230337 ",
	"      9 868     "};

static char *cornu_x24[] = {
	"24 24 12 1",
	" 	c	None",
	"0	c	#000000",
	"1	c	#330000",
	"2	c	#333300",
	"3	c	#663300",
	"4	c	#666600",
	"5	c	#993300",
	"6	c	#996600",
	"7	c	#CC0000",
	"8	c	#CC6600",
	"9	c	#CC9900",
	"A	c	#800000",
	"                        ",
	"       9 063039         ",
	"      1200630320        ",
	"   990099 99 9 039      ",
	"    36 66000030981      ",
	"   00960669 96257777    ",
	" 991 138      9277777   ",
	"  3681          77777   ",
	"  0 26           777    ",
	" 8181                   ",
	"963829                  ",
	" 00 0                   ",
	" 33929                  ",
	"983933                  ",
	"  0 239                 ",
	"  08933                 ",
	"  83  18                ",
	"   00 9139          777 ",
	"    36  3139 9 9 937777 ",
	"    91089 32030320377777",
	"      520 9648 86 97777 ",
	"      9 003038 66022A7  ",
	"         98033036069    ",
	"             9  9       "};

static char *cornu_x32[] = {
	"32 32 11 1",
	" 	c	None",
	"0	c	#000000",
	"1	c	#330000",
	"2	c	#333300",
	"3	c	#663300",
	"4	c	#990000",
	"5	c	#996600",
	"6	c	#CC0000",
	"7	c	#CC6600",
	"8	c	#CC9900",
	"9	c	#800000",
	"                                ",
	"              8    8            ",
	"         85001000057            ",
	"        01300 8  1500           ",
	"     8 00 8   8   8 0078        ",
	"     830  870130058  830        ",
	"     058  210070050078 466      ",
	"    00 85008  8  8 33 66666     ",
	"  870  038         8 96 6 6     ",
	"   35810 8           46 6 6     ",
	"   0 837              6  66     ",
	"  00 018               666      ",
	"  00 00                         ",
	"8838837                         ",
	"  0  25                         ",
	"  0  0                          ",
	"  0  358                        ",
	" 837873                         ",
	"  10  0                         ",
	"  00  258                       ",
	"   0 882                        ",
	"   558 00 8                     ",
	"  880   25                      ",
	"     0 8830 8             6666  ",
	"      28  033 88       8 96   6 ",
	"     870  880033 88 8703146 6 6 ",
	"        038   70010003038 6   6 ",
	"         510 88  8  88  8 4666  ",
	"        88 00330 8   8 03109    ",
	"             7200000020038      ",
	"             8   8   8   8      ",
	"                                "};

static char **cornu_xpm[3] = { cornu_x16, cornu_x24, cornu_x32 };

