static char *curved_tangent_x16[] = {
	"16 16 6 1",
	" 	c	None",
	"0	c	#000000",
	"1	c	#C40000",
	"2	c	#FF7F7F",
	"3	c	#CE9B73",
	"4	c	#000000",
	"            3 3 ",
	"         3 0000 ",
	"       3 00 3 3 ",
	"     3 00 3 000 ",
	"      0 3 003 3 ",
	"   3 0  003     ",
	"    0 12        ",
	"  30  212       ",
	"   030 212      ",
	" 30  0  212     ",
	"  0303   212    ",
	" 0  0     212 1 ",
	"30303      2121 ",
	" 0 0        211 ",
	"30303      1111 ",
	"                "};

static char *curved_tangent_x24[] = {
	"24 24 57 1",
	" 	c	None",
	"0	c	#000000",
	"1	c	#050100",
	"2	c	#0D0400",
	"3	c	#110300",
	"4	c	#1C1000",
	"5	c	#211400",
	"6	c	#291900",
	"7	c	#2C1C01",
	"8	c	#380000",
	"9	c	#321F01",
	"A	c	#352101",
	"B	c	#3A2401",
	"C	c	#422701",
	"D	c	#432901",
	"E	c	#4B2E02",
	"F	c	#4D3103",
	"G	c	#543402",
	"H	c	#5B3903",
	"I	c	#640100",
	"J	c	#6B0000",
	"K	c	#7E0000",
	"L	c	#623E03",
	"M	c	#654003",
	"N	c	#6B4303",
	"O	c	#724805",
	"P	c	#784C04",
	"Q	c	#7F5004",
	"R	c	#810000",
	"S	c	#8B0000",
	"T	c	#910000",
	"U	c	#980000",
	"V	c	#991200",
	"W	c	#A60000",
	"X	c	#AB0000",
	"Y	c	#B60000",
	"Z	c	#855505",
	"a	c	#895605",
	"b	c	#8C5904",
	"c	c	#965F07",
	"d	c	#935E09",
	"e	c	#9B6308",
	"f	c	#A2670A",
	"g	c	#AD6D06",
	"h	c	#A86B09",
	"i	c	#AE700A",
	"j	c	#C50000",
	"k	c	#CC0000",
	"l	c	#C07B0B",
	"m	c	#D26E6E",
	"n	c	#CA810B",
	"o	c	#DFBABA",
	"p	c	#E0BFBF",
	"q	c	#E5D6D6",
	"r	c	#E9E4E4",
	"s	c	#EBEBEB",
	"t	c	#000000",
	"                        ",
	"                 E  HN0 ",
	"                4Q00CP0 ",
	"             eA00bA  i  ",
	"            06P  MO  n  ",
	"         GF00 dD  g00L1 ",
	"          HB   i00E6 H  ",
	"        00 h   GC       ",
	"       bD   e307L       ",
	"       2Zsq GM          ",
	"     N2  okp0           ",
	"     De  rmkI           ",
	"    00 hO2rVkI          ",
	"   D0   LO  TkI         ",
	"   ObD  0    TkJ        ",
	"   0 diD0     KkK       ",
	"  00  9GF      KkK      ",
	"  40  00        KkK   8 ",
	" ZDleN5          IkT Kj ",
	"  0 BNNO          IkTRk ",
	" 00  00            IkYk ",
	" DB  BA           SUXkk ",
	" OaffHc           SUUWU ",
	" 0   0                  "};

static char *curved_tangent_x32[] = {
	"32 32 54 1",
	" 	c	None",
	"0	c	#000000",
	"1	c	#190D00",
	"2	c	#1C1100",
	"3	c	#211401",
	"4	c	#2C1B01",
	"5	c	#330000",
	"6	c	#321D00",
	"7	c	#342202",
	"8	c	#3B2401",
	"9	c	#5F0000",
	"A	c	#432A02",
	"B	c	#492D01",
	"C	c	#4F3304",
	"D	c	#553403",
	"E	c	#5C3A03",
	"F	c	#650000",
	"G	c	#7C0000",
	"H	c	#613D01",
	"I	c	#644005",
	"J	c	#6C4506",
	"K	c	#734704",
	"L	c	#724805",
	"M	c	#794C04",
	"N	c	#7F5208",
	"O	c	#840000",
	"P	c	#950000",
	"Q	c	#A50000",
	"R	c	#B70000",
	"S	c	#865505",
	"T	c	#8B5807",
	"U	c	#8D5A08",
	"V	c	#945E05",
	"W	c	#935E09",
	"X	c	#976008",
	"Y	c	#A16609",
	"Z	c	#A26808",
	"a	c	#A86C09",
	"b	c	#AE700A",
	"c	c	#B5730B",
	"d	c	#C50000",
	"e	c	#CC0000",
	"f	c	#CD2D2D",
	"g	c	#C27B0A",
	"h	c	#D26E6E",
	"i	c	#CC830C",
	"j	c	#D0860D",
	"k	c	#D98B0D",
	"l	c	#D58585",
	"m	c	#E3CDCD",
	"n	c	#E5D6D6",
	"o	c	#E9E4E4",
	"p	c	#EAE9E9",
	"q	c	#000000",
	"                                ",
	"                           JE   ",
	"                      ID 00A800 ",
	"                      88000AV   ",
	"                  U0000g    c   ",
	"                  H6   SC   j   ",
	"                00BW   CS   g2  ",
	"             a 00  WA   g000040 ",
	"             BE     b 0088  B   ",
	"            00ME    T6008       ",
	"         W 00  Y   04Z          ",
	"          L8    b300 A          ",
	"         02YAop 8E              ",
	"        00  ohlp0A              ",
	"      8V4  pmfelp               ",
	"       3aI  pmfeP               ",
	"      00 Lc  0nReQ              ",
	"      0    ZB   ReQ             ",
	"    W4     0HD   ReQ            ",
	"    AKY   00      ReR           ",
	"    0  YY70        ReR          ",
	"    0    SM         ReR         ",
	"   00    0           ReR        ",
	"   0    00            QeR    G  ",
	"  ZDaND 00             QeR  9eG ",
	"  00 DNZBY              QeR5FeG ",
	"  00   00                PedOeG ",
	"  00   00                 PedeG ",
	"  0    00               OPPReeO ",
	" gDikaYDX               eeeeeeG ",
	"  0    18                       ",
	"                                "};

static char **curved_tangent_xpm[3] = { curved_tangent_x16, curved_tangent_x24, curved_tangent_x32 };

