static char *curved_line_tangent_x16[] = {
	"16 16 19 1",
	" 	c	None",
	"0	c	#000000",
	"1	c	#370000",
	"2	c	#380000",
	"3	c	#440000",
	"4	c	#4C0000",
	"5	c	#5F0000",
	"6	c	#650000",
	"7	c	#6B0000",
	"8	c	#7F0000",
	"9	c	#850000",
	"A	c	#8B0000",
	"B	c	#920000",
	"C	c	#980000",
	"D	c	#A10000",
	"E	c	#B20000",
	"F	c	#BC0000",
	"G	c	#CC0000",
	"H	c	#000000",
	"                ",
	"           00000",
	"         0000   ",
	"       000      ",
	"      00        ",
	"     10         ",
	"    0D2         ",
	"   00 A3        ",
	"  00   94       ",
	"  0     86      ",
	" 00      67     ",
	" 00       58  7 ",
	" 0         49 E ",
	" 0          3BE ",
	"00         CGGF ",
	" 0              "};

static char *curved_line_tangent_x24[] = {
	"24 24 20 1",
	" 	c	None",
	"0	c	#000000",
	"1	c	#2D0000",
	"2	c	#340000",
	"3	c	#380000",
	"4	c	#450000",
	"5	c	#4B0000",
	"6	c	#4C0000",
	"7	c	#510000",
	"8	c	#5F0000",
	"9	c	#6B0000",
	"A	c	#7E0000",
	"B	c	#840000",
	"C	c	#8B0000",
	"D	c	#920000",
	"E	c	#980000",
	"F	c	#9E0000",
	"G	c	#AA0000",
	"H	c	#CC0000",
	"I	c	#000000",
	"                        ",
	"                        ",
	"                 000000 ",
	"               0000     ",
	"             000        ",
	"           000          ",
	"          00            ",
	"        00              ",
	"       01               ",
	"       7E               ",
	"      0  E              ",
	"     0    E             ",
	"    00     F            ",
	"    0       E           ",
	"   0         E3         ",
	"   0          C4        ",
	"  00           B6       ",
	"  0             A8   E  ",
	" 00              99  H  ",
	" 00               8A H  ",
	" 00                5BH  ",
	" 00              DEEGH  ",
	" 0                   2  ",
	"                        "};

static char *curved_line_tangent_x32[] = {
	"32 32 27 1",
	" 	c	None",
	"0	c	#000000",
	"1	c	#320000",
	"2	c	#340000",
	"3	c	#380000",
	"4	c	#3F0000",
	"5	c	#4A0000",
	"6	c	#4C0000",
	"7	c	#580000",
	"8	c	#650000",
	"9	c	#6F0000",
	"A	c	#720000",
	"B	c	#780000",
	"C	c	#7E0000",
	"D	c	#8B0000",
	"E	c	#920000",
	"F	c	#980000",
	"G	c	#9E0000",
	"H	c	#A20000",
	"I	c	#A50000",
	"J	c	#AA0000",
	"K	c	#B20000",
	"L	c	#B80000",
	"M	c	#BD0000",
	"N	c	#C40000",
	"O	c	#CC0000",
	"P	c	#000000",
	"                                ",
	"                                ",
	"                         00000  ",
	"                      00000000  ",
	"                   0000000      ",
	"                 00000          ",
	"               00000            ",
	"              0000              ",
	"             000                ",
	"            000                 ",
	"          0000                  ",
	"         002                    ",
	"        00CM                    ",
	"        001MN3                  ",
	"       00   LN6                 ",
	"      000    KO6                ",
	"     000      IO8               ",
	"     00        IOA              ",
	"    000         EOC             ",
	"    00           EOD            ",
	"   000            COE           ",
	"   00              BOI          ",
	"   00               8OI     6   ",
	"  00                 7OK    O8  ",
	"  00                  6OL   O8  ",
	"  00                   4NM  O8  ",
	"  00                    3NN5O8  ",
	" 000                      MNO8  ",
	" 000                  7FFFHNO9  ",
	" 00                   AFFFFGJ6  ",
	"                                ",
	"                                "};

static char **curved_line_tangent_xpm[3] = { curved_line_tangent_x16, curved_line_tangent_x24, curved_line_tangent_x32 };

