static char *curved_end_x16[] = {
	"16 16 6 1",
	" 	c	None",
	"0	c	#000000",
	"1	c	#C40000",
	"2	c	#FF7F7F",
	"3	c	#CE9B73",
	"4	c	#000000",
	"           111  ",
	"           11   ",
	"         3 122  ",
	"       3 0   1  ",
	"     3 00 3  221",
	"      0 3 00  11",
	"   3 0 3003  111",
	"    0  03       ",
	"  30 30         ",
	"   0303         ",
	" 30  0          ",
	"  0303          ",
	" 0  0           ",
	"30303           ",
	" 0 0            ",
	"30303           "};

static char *curved_end_x24[] = {
	"24 24 52 1",
	" 	c	None",
	"0	c	#000000",
	"1	c	#130900",
	"2	c	#1A0E00",
	"3	c	#1B1000",
	"4	c	#221400",
	"5	c	#271800",
	"6	c	#2B1A01",
	"7	c	#3F0000",
	"8	c	#321E01",
	"9	c	#342101",
	"A	c	#3A2503",
	"B	c	#3F2802",
	"C	c	#450000",
	"D	c	#4C0000",
	"E	c	#432A03",
	"F	c	#492D01",
	"G	c	#4E3203",
	"H	c	#543403",
	"I	c	#5C3A03",
	"J	c	#720000",
	"K	c	#770000",
	"L	c	#7F0000",
	"M	c	#623C02",
	"N	c	#654004",
	"O	c	#6B4303",
	"P	c	#704703",
	"Q	c	#744904",
	"R	c	#7D4E04",
	"S	c	#850000",
	"T	c	#8A0000",
	"U	c	#980000",
	"V	c	#A40000",
	"W	c	#A90000",
	"X	c	#AE0000",
	"Y	c	#B20000",
	"Z	c	#BE0000",
	"a	c	#805004",
	"b	c	#805208",
	"c	c	#8F5B07",
	"d	c	#925D05",
	"e	c	#935E09",
	"f	c	#976008",
	"g	c	#986106",
	"h	c	#9B6308",
	"i	c	#A1660A",
	"j	c	#AA6C09",
	"k	c	#B5730B",
	"l	c	#BC780A",
	"m	c	#C10000",
	"n	c	#C9800A",
	"o	c	#000000",
	"                        ",
	"                  ZW    ",
	"                 JTSUJ  ",
	"                 U W    ",
	"              E    Y    ",
	"              NM0  LD   ",
	"           hE01d   CS   ",
	"        H 04O0 j    Z   ",
	"        EO0 eE NM0  V U ",
	"        0PI  h04g UTKTL ",
	"      g1  i80MF G  7Xm  ",
	"      6j  4I3           ",
	"   EB0  i50GA           ",
	"    OR  6M              ",
	"   00GkB0               ",
	" Ej6   HN               ",
	"  9OlG0                 ",
	"  0  RQ                 ",
	" I2  04                 ",
	" Qanc8                  ",
	" 00 FMH                 ",
	" 0  00                  ",
	"bHfiGO                  ",
	" 3A FN                  "};

static char *curved_end_x32[] = {
	"32 32 54 1",
	" 	c	None",
	"0	c	#000000",
	"1	c	#0B0200",
	"2	c	#130200",
	"3	c	#130B00",
	"4	c	#281901",
	"5	c	#330000",
	"6	c	#3B0000",
	"7	c	#311C01",
	"8	c	#352101",
	"9	c	#3A2402",
	"A	c	#3E2802",
	"B	c	#450000",
	"C	c	#490000",
	"D	c	#520000",
	"E	c	#580000",
	"F	c	#432A01",
	"G	c	#4B2E01",
	"H	c	#4D3203",
	"I	c	#543504",
	"J	c	#5C3A04",
	"K	c	#650000",
	"L	c	#720000",
	"M	c	#7B0000",
	"N	c	#643E03",
	"O	c	#6B4303",
	"P	c	#714600",
	"Q	c	#724905",
	"R	c	#794D05",
	"S	c	#7F5004",
	"T	c	#850000",
	"U	c	#8B0000",
	"V	c	#940000",
	"W	c	#980000",
	"X	c	#A90000",
	"Y	c	#B30000",
	"Z	c	#BA0000",
	"a	c	#845305",
	"b	c	#805208",
	"c	c	#8D5805",
	"d	c	#935D06",
	"e	c	#935E09",
	"f	c	#996104",
	"g	c	#A76A08",
	"h	c	#AE700A",
	"i	c	#B37209",
	"j	c	#BC780A",
	"k	c	#C40000",
	"l	c	#CC0000",
	"m	c	#C17C0B",
	"n	c	#C9800A",
	"o	c	#D0860C",
	"p	c	#D98B0D",
	"q	c	#000000",
	"                                ",
	"                        ZZE     ",
	"                       TlllYB   ",
	"                      BlZlVkl6  ",
	"                      ZkClM K   ",
	"                      kD ZZ     ",
	"                   bQ    Ul     ",
	"                   da00  DlE    ",
	"               jJ00Fi9    lW    ",
	"               RF2  pa    Yk    ",
	"           Ra008oR  gn    Ll  kD",
	"           acF  eo  Jg72E 5lLXl ",
	"           1fn   pQ03da llUkYlM ",
	"        gF0  og  NP4 O9  WlllZ  ",
	"        gPA  HpO08m       6XlB  ",
	"        4go9  JdF               ",
	"     I 0  hoH01e                ",
	"     pOI   gNI                  ",
	"     9cpe  1dg                  ",
	"     0 Qpm8                     ",
	"  FjF0   SgN                    ",
	"   gNmJ 01Q                     ",
	"   0Ggpm9                       ",
	"   0   Rdi                      ",
	" IF1   0q9                      ",
	" odggQG3                        ",
	"  4QhpfgI                       ",
	"  0   4Q                        ",
	"  0   0                         ",
	" OGH 94                         ",
	"IiappmOj                        ",
	" 00  A9                         "};

static char **curved_end_xpm[3] = { curved_end_x16, curved_end_x24, curved_end_x32 };

