static char *curved_line_chord_x16[] = {
	"16 16 3 1",
	" 	c	None",
	"0	c	#000000",
	"1	c	#CC0000",
	"                ",
	"          0000  ",
	"        0000    ",
	"       00       ",
	"      0         ",
	"    00          ",
	"    01111       ",
	"   0 111        ",
	"  00 1111       ",
	"  0  1  11      ",
	" 00      11   11",
	" 0        11 11 ",
	" 0         111  ",
	" 0         11   ",
	" 0        11    ",
	"                "};

static char *curved_line_chord_x24[] = {
	"24 24 3 1",
	" 	c	None",
	"0	c	#000000",
	"1	c	#CC0000",
	"                        ",
	"                        ",
	"                00000   ",
	"             0000       ",
	"           000          ",
	"          00            ",
	"         00             ",
	"        0               ",
	"       0                ",
	"      0 11111           ",
	"     00 111             ",
	"    00  111             ",
	"    0   1  11           ",
	"   00   1   11          ",
	"   0    1    11         ",
	"  00          11      1 ",
	"  0            11    1  ",
	"  0             11  1   ",
	" 00              111    ",
	" 00               11    ",
	" 00              11     ",
	" 00             11      ",
	"               11       ",
	"                        "};

static char *curved_line_chord_x32[] = {
	"32 32 3 1",
	" 	c	None",
	"0	c	#000000",
	"1	c	#CC0000",
	"                                ",
	"                                ",
	"                       00000    ",
	"                    00000000    ",
	"                  000000        ",
	"                00000           ",
	"              0000              ",
	"             000                ",
	"            000                 ",
	"          0000                  ",
	"         000                    ",
	"        000                     ",
	"        0011111111              ",
	"       00011111111              ",
	"      000  1111                 ",
	"     000   11111                ",
	"     00    11 111               ",
	"    000    11  111              ",
	"    00     11   111             ",
	"   000     11    111            ",
	"   00             111        1  ",
	"   00              111      111 ",
	"  000                11    111  ",
	"  00                  111 111   ",
	"  00                   11111    ",
	"  00                    111     ",
	"  00                   111      ",
	"  00                  111       ",
	"  00                 111        ",
	"                     11         ",
	"                                ",
	"                                "};

static char **curved_line_chord_xpm[3] = { curved_line_chord_x16, curved_line_chord_x24, curved_line_chord_x32 };

