static char *curved_middle_x16[] = {
	"16 16 12 1",
	" 	c	None",
	"0	c	#000000",
	"1	c	#330000",
	"2	c	#333300",
	"3	c	#663300",
	"4	c	#990000",
	"5	c	#993300",
	"6	c	#996600",
	"7	c	#CC0000",
	"8	c	#CC3300",
	"9	c	#CC6600",
	"A	c	#CC9900",
	"              A ",
	"           92100",
	"        A6036 A ",
	"      A 03  6001",
	"      63 96066A ",
	"    A30A906A    ",
	"    039459      ",
	"   92 8777      ",
	"   1A9477       ",
	" A63 197 7      ",
	"  1A63    7     ",
	" 30 09     7    ",
	"A3993       77  ",
	" 0 26        77 ",
	"A0A36         77",
	" 2 3A           "};

static char *curved_middle_x24[] = {
	"24 24 12 1",
	" 	c	None",
	"0	c	#000000",
	"1	c	#330000",
	"2	c	#333300",
	"3	c	#663300",
	"4	c	#990000",
	"5	c	#993300",
	"6	c	#996600",
	"7	c	#CC0000",
	"8	c	#CC3300",
	"9	c	#CC6600",
	"A	c	#CC9900",
	"                        ",
	"                     90 ",
	"                 900031 ",
	"             A 0036  A  ",
	"             610  A  96 ",
	"         A  01A   61033 ",
	"          60  AA0039    ",
	"         03A  026       ",
	"       A20 AA00 A       ",
	"       169  36          ",
	"    A 00 977777         ",
	"    A63  777777         ",
	"     0AAA4777           ",
	"    00  657  7          ",
	"  A93   087   7         ",
	"   19AA2       77       ",
	"   0  63A       77      ",
	"  10  0          77     ",
	" A39A91           77    ",
	"  0  66A           77   ",
	"  0  00             77  ",
	" 62  16              77 ",
	"A66AA1A               7 ",
	"     0                  "};

static char *curved_middle_x32[] = {
	"32 32 11 1",
	" 	c	None",
	"0	c	#000000",
	"1	c	#330000",
	"2	c	#333300",
	"3	c	#663300",
	"4	c	#996600",
	"5	c	#CC0000",
	"6	c	#CC3300",
	"7	c	#CC6600",
	"8	c	#CC9900",
	"9	c	#800000",
	"                                ",
	"                            8   ",
	"                      88    420 ",
	"                       7000043  ",
	"                 8   0033   88  ",
	"                 87000 88   88  ",
	"                 024    8  0330 ",
	"            8  000 8    420034  ",
	"             830   88 0017   8  ",
	"             04     420  8      ",
	"          8 0  8   028          ",
	"         883    830  8          ",
	"          388   34              ",
	"         0 88555567             ",
	"      8 00  75555555            ",
	"      844    555555             ",
	"       0888 955555              ",
	"      0   87355 555             ",
	"     00    0755  555            ",
	"   8837   00 55   555           ",
	"    1388840        555          ",
	"    0   8378        5555        ",
	"    0   00           5555       ",
	"   00   00            5555      ",
	" 883788 0              5555     ",
	"   0 88448              5555    ",
	"  00   00                5555   ",
	"  00   0                   555  ",
	"  00   0                    555 ",
	"884788738                    55 ",
	"  0   42                        ",
	"                                "};

static char **curved_middle_xpm[3] = { curved_middle_x16, curved_middle_x24, curved_middle_x32 };

