static char *curved_chord_x16[] = {
	"16 16 5 1",
	" 	c	None",
	"0	c	#000000",
	"1	c	#c00000",
	"2	c	#c89870",
	"3	c	#f87878",
	"            2 2 ",
	"         2 0000 ",
	"       2 00 2 2 ",
	"     2 00 2 000 ",
	"      0 2 002 2 ",
	"   2 0 2002     ",
	"    0           ",
	"  20 2 1111     ",
	"   020 113      ",
	" 20  0 1313     ",
	"  0202 1 313  1 ",
	" 0  0     31311 ",
	"20202      311  ",
	" 0 0       11   ",
	"20202     11    ",
	"                "};
static char *curved_chord_x24[] = {
	"24 24 41 1",
	" 	c	None",
	"0	c	#000000",
	"1	c	#c80000",
	"2	c	#654815",
	"3	c	#a87010",
	"4	c	#3d2802",
	"5	c	#b88020",
	"6	c	#5c5a58",
	"7	c	#ba9050",
	"8	c	#957845",
	"9	c	#c81b1b",
	"A	c	#3c3a38",
	"B	c	#c86464",
	"C	c	#241600",
	"D	c	#c88080",
	"E	c	#ac8038",
	"F	c	#85540a",
	"G	c	#757575",
	"H	c	#c84646",
	"I	c	#242424",
	"J	c	#d0a864",
	"K	c	#c83030",
	"L	c	#d0902c",
	"M	c	#12100e",
	"N	c	#4a4845",
	"O	c	#746048",
	"P	c	#946418",
	"Q	c	#6c5830",
	"R	c	#0b0802",
	"S	c	#c80d0d",
	"T	c	#8a827a",
	"U	c	#ce9c4e",
	"V	c	#d58914",
	"W	c	#c85454",
	"X	c	#312b23",
	"Y	c	#4a4030",
	"Z	c	#c87575",
	"a	c	#191814",
	"b	c	#d0983c",
	"c	c	#626262",
	"d	c	#ceae74",
	"                     PT ",
	"                 FAM00R ",
	"               N0RY  b  ",
	"             40A  V  88 ",
	"           GRX3   FX00R ",
	"         7XRT UUcRM2  d ",
	"         aC7  TRa       ",
	"       EMA VdN0Qb       ",
	"       R4   4M          ",
	"      IXVL IM5          ",
	"    dYa  VCI            ",
	"    80E  NC7            ",
	"    M6JVQ0 K1S99K       ",
	"   cM   0F 91SHHW       ",
	"  LRO  IA  K919         ",
	"  GRbVP0   K9 SS        ",
	"  I6  a2   H9  SS     D ",
	"  0   0    W9   91   W1D",
	" FRbJYA          K1ZB1W ",
	" 6A URF           K11W  ",
	" Xc  0            B1H   ",
	" aG  M           Z1H    ",
	"URFV2Cd          1H     ",
	" 6  TO           Z      "};
static char *curved_chord_x32[] = {
	"32 32 41 1",
	" 	c	None",
	"0	c	#000000",
	"1	c	#5c3b04",
	"2	c	#624a20",
	"3	c	#a07028",
	"4	c	#c84848",
	"5	c	#352505",
	"6	c	#c80000",
	"7	c	#a08a6a",
	"8	c	#585451",
	"9	c	#3c3c3c",
	"A	c	#c81818",
	"B	c	#cfa868",
	"C	c	#c87d08",
	"D	c	#130c04",
	"E	c	#6a6a68",
	"F	c	#20201e",
	"G	c	#ba9255",
	"H	c	#7e5008",
	"I	c	#c87272",
	"J	c	#d58e1c",
	"K	c	#8a652a",
	"L	c	#bd852d",
	"M	c	#7c7671",
	"N	c	#221603",
	"O	c	#d09943",
	"P	c	#c82d2d",
	"Q	c	#d0b07c",
	"R	c	#2d2b29",
	"S	c	#4c4c4c",
	"T	c	#4a3208",
	"U	c	#c80a0a",
	"V	c	#080807",
	"W	c	#c85b5b",
	"X	c	#62605e",
	"Y	c	#5c5038",
	"Z	c	#d89029",
	"a	c	#121212",
	"b	c	#b07210",
	"c	c	#d78809",
	"d	c	#cea053",
	"                            JB  ",
	"                      QO ESF000 ",
	"                      YD000a5TS ",
	"                    R00N2   dZ  ",
	"                 KN0VS Bc   Bc  ",
	"                9002    c7X9V00 ",
	"               V09Gc   ED00VRT8 ",
	"            d10a   ZJEa0D17  B  ",
	"            R05    7N0aM B      ",
	"         Q F08ZJ  X001          ",
	"         CN0E  JJR0R O          ",
	"         50H    D08             ",
	"        902cJ  a0Hd             ",
	"       E0S dcba0                ",
	"     Qb0F   GN0M                ",
	"      N0bB  R0HB                ",
	"     E0XOcJY08 UUAAAPP          ",
	"     VF   30N  66666664         ",
	"   B80    F0L  666U             ",
	"   C0NQ  E0E   66P6U            ",
	"   E0KccLVF    U6 P6U           ",
	"   FV  B10H    U6  466          ",
	"   08   VFB    A6   W66I     WP ",
	"  E0   M0M     P6    I66W   W66 ",
	" Z50OB RV              664 W66  ",
	"  05ZcC0T               U6A66   ",
	"  0X  M0K                U66    ",
	"  0   S0                I66     ",
	" E0   RV               I66      ",
	"Q20GdBDF              I66I      ",
	"Q10LJc05O             46I       ",
	"  M   E                         "};

static char **curved_chord_xpm[3] = { curved_chord_x16, curved_chord_x24, curved_chord_x32 };
