static char *cut_x16[] = {
	"16 16 13 1",
	" 	c	None",
	"0	c	#383838",
	"1	c	#686868",
	"2	c	#808080",
	"3	c	#505050",
	"4	c	#585858",
	"5	c	#888888",
	"6	c	#787878",
	"7	c	#484848",
	"8	c	#606060",
	"9	c	#909090",
	"A	c	#707070",
	"B	c	#404040",
	"                ",
	"                ",
	"   5A           ",
	"  32 3          ",
	" 2B5 A5         ",
	"  6071          ",
	"    78          ",
	"     47    959  ",
	" 4377BBBB744816 ",
	" 7167  98       ",
	" 3  4   579     ",
	"  445     36    ",
	"           38   ",
	"            22  ",
	"                ",
	"                "};
static char *cut_x24[] = {
	"24 24 13 1",
	" 	c	None",
	"0	c	#383838",
	"1	c	#606060",
	"2	c	#787878",
	"3	c	#505050",
	"4	c	#888888",
	"5	c	#484848",
	"6	c	#686868",
	"7	c	#585858",
	"8	c	#404040",
	"9	c	#707070",
	"A	c	#808080",
	"B	c	#909090",
	"                        ",
	"                        ",
	"                        ",
	"      4                 ",
	"    7850A               ",
	"   81  B8B              ",
	"  786   71              ",
	"   885 28               ",
	"    3808                ",
	"     988A               ",
	"       886              ",
	"        383    4A296A   ",
	"  26733388888888805553  ",
	" 888888853163624        ",
	" 86   16   151          ",
	" 93   27    A53         ",
	"  532182     B354       ",
	"   616         789      ",
	"                101     ",
	"                 653    ",
	"                    4   ",
	"                        ",
	"                        ",
	"                        "};
static char *cut_x32[] = {
	"32 32 13 1",
	" 	c	None",
	"0	c	#383838",
	"1	c	#686868",
	"2	c	#505050",
	"3	c	#808080",
	"4	c	#585858",
	"5	c	#909090",
	"6	c	#484848",
	"7	c	#787878",
	"8	c	#606060",
	"9	c	#404040",
	"A	c	#707070",
	"B	c	#888888",
	"                                ",
	"                                ",
	"                                ",
	"                                ",
	"                                ",
	"      8099A                     ",
	"    59943292                    ",
	"   B96    A9A                   ",
	"   996     66                   ",
	"   8999   794                   ",
	"    A9991A96                    ",
	"      99992                     ",
	"       2996                     ",
	"        A9995                   ",
	"         5999A                  ",
	"           6994    53188442A    ",
	"    5718442999906609999999999A  ",
	" B9999999999999996224488A35     ",
	" 499999699A3B553A3              ",
	" A95    39     4998             ",
	"  94    595     7604            ",
	"  897   49B      5696           ",
	"   299999A         2967         ",
	"    71A3            4998        ",
	"                     1902       ",
	"                      3692      ",
	"                        429B    ",
	"                                ",
	"                                ",
	"                                ",
	"                                ",
	"                                "};

static char **cut_xpm[3] = { cut_x16, cut_x24, cut_x32 };
