static char *delete_x16[] = {
	"16 16 9 1",
	" 	c	None",
	"0	c	#000000",
	"1	c	#330000",
	"2	c	#990000",
	"3	c	#CC0000",
	"4	c	#CC3300",
	"5	c	#CC6600",
	"6	c	#CC9900",
	"7	c	#800000",
	"                ",
	"                ",
	"   33      33   ",
	"    33    333   ",
	"     33  333    ",
	" 6 6 533534 6 6 ",
	"0000007333100000",
	" 6 6 663346 6 6 ",
	" 6 6 663356 6 6 ",
	"0000007332000000",
	" 6 6 633435 6 6 ",
	"     333 33     ",
	"    333   33    ",
	"    33    333   ",
	"           3    ",
	"                "};

static char *delete_x24[] = {
	"24 24 11 1",
	" 	c	None",
	"0	c	#000000",
	"1	c	#333300",
	"2	c	#663300",
	"3	c	#993300",
	"4	c	#996600",
	"5	c	#CC0000",
	"6	c	#CC3300",
	"7	c	#CC6600",
	"8	c	#CC9900",
	"9	c	#800000",
	"                        ",
	"                        ",
	"                        ",
	"     555        555     ",
	"     5555       555     ",
	"      5555     555      ",
	"       5555   5555      ",
	"        555  5555       ",
	"  8  8  75557556  8  8  ",
	"01200200295555520020021 ",
	" 47  7  74555567  7  74 ",
	"  8  8  8 555578  8  8  ",
	"  8  8  8 5555 8  8  8  ",
	" 47  7  74555537  7  74 ",
	"012002002255555200200210",
	"  8  8  85556557  8  8  ",
	"        5555 555        ",
	"        555   555       ",
	"       555    5555      ",
	"      555      5555     ",
	"      555       555     ",
	"       5         5      ",
	"                        ",
	"                        "};

static char *delete_x32[] = {
	"32 32 11 1",
	" 	c	None",
	"0	c	#000000",
	"1	c	#333300",
	"2	c	#663300",
	"3	c	#990000",
	"4	c	#993300",
	"5	c	#996600",
	"6	c	#CC0000",
	"7	c	#CC3300",
	"8	c	#CC6600",
	"9	c	#CC9900",
	"                                ",
	"                                ",
	"                                ",
	"        6              6        ",
	"       666            666       ",
	"      66666          66666      ",
	"       66666        66666       ",
	"        66666       6666        ",
	"         66666     6666         ",
	"          66666   66666         ",
	"           66666 66666          ",
	"  99  99   9766686667   99  99  ",
	" 055005510254666666651025500550 ",
	" 055005510255366666751025500550 ",
	"  99  99   99 6666699   99  99  ",
	"  99  99   99 6666699   99  99  ",
	"  99  99   99 6666699   99  99  ",
	"  99  99   99 6666699   99  99  ",
	" 055005510255666666551025500550 ",
	" 055005510254666666751025500550 ",
	"  99  99   9766686668   99  99  ",
	"           66666 6666           ",
	"           6666   6666          ",
	"          6666    66666         ",
	"         66666     66666        ",
	"        66666       66666       ",
	"        6666         66666      ",
	"       6666           666       ",
	"         66            6        ",
	"                                ",
	"                                ",
	"                                "};

static char **delete_xpm[3] = { delete_x16, delete_x24, delete_x32 };

