static char *description_x16[] = {
	"16 16 5 1",
	" 	c	None",
	"0	c	#000000",
	"1	c	#0066CC",
	"2	c	#0099FF",
	"3	c	#FF0000",
	"                ",
	"00  000  00  00 ",
	"0 0 0   0   0   ",
	"0 0 00   0  0   ",
	"0 0 0     0 0   ",
	"00  000 00   00 ",
	"       3        ",
	"      333       ",
	"     33333      ",
	"       3        ",
	" 2 2 2 3 2 2 2  ",
	" 11111 3 11111  ",
	" 2 2 2   2 2 2  ",
	" 1111111111111  ",
	" 2 2 2 2 2 2 2  ",
	"                "};

static char *description_x24[] = {
	"24 24 5 1",
	" 	c	None",
	"0	c	#000000",
	"1	c	#0066CC",
	"2	c	#0099FF",
	"3	c	#FF0000",
	"                        ",
	"                        ",
	"                        ",
	"  000  0000  000  00    ",
	"  0  0 0    0    0  0   ",
	"  0  0 000   00  0      ",
	"  0  0 0       0 0  0   ",
	"  000  0000 000   00    ",
	"                        ",
	"           33           ",
	"          3333          ",
	"         333333         ",
	"           33           ",
	"           33           ",
	"  2  2  2  33 2  2  2   ",
	" 111111111 33 11111111  ",
	"  2  2  2  33 2  2  2   ",
	"  2  2  2  33 2  2  2   ",
	"  2  2  2     2  2  2   ",
	" 111111111111111111111  ",
	"  2  2  2  2  2  2  2   ",
	"                        ",
	"                        ",
	"                        "};

static char *description_x32[] = {
	"32 32 12 1",
	" 	c	None",
	"0	c	#000000",
	"1	c	#0000CC",
	"2	c	#0033CC",
	"3	c	#0066CC",
	"4	c	#0099FF",
	"5	c	#6699CC",
	"6	c	#9999CC",
	"7	c	#CC0000",
	"8	c	#CC0033",
	"9	c	#CC3333",
	"A	c	#CC3366",
	"                                ",
	"                                ",
	"                                ",
	"                                ",
	"                                ",
	"    00000  00000 0000   000     ",
	"    00 000 00    0000  00000    ",
	"    00  00 00    000  00        ",
	"    00  00 0000  0000 00        ",
	"    00  00 0     0  0000  00    ",
	"    00000  00000 00000 00000    ",
	"    0000   00000  000   000     ",
	"                7               ",
	"              7777              ",
	"             777777             ",
	"            77777777            ",
	"             7 77 7             ",
	"               77               ",
	"               77               ",
	"     44 34  43 A9 34  43 44     ",
	"    12212311321A812311321221    ",
	"     44  4  4  A9  4  4  44     ",
	"     44  4  4  A9  4  4  44     ",
	"     44  4  4  56  4  4  44     ",
	"     44  4  4  44  4  4  44     ",
	"    122123113212212311321221    ",
	"     44 34  43 44 34  43 44     ",
	"                                ",
	"                                ",
	"                                ",
	"                                ",
	"                                "};

static char **description_xpm[3] = { description_x16, description_x24, description_x32 };

