static char *describe_x16[] = {
	"16 16 5 1",
	" 	c	None",
	"0	c	#000000",
	"1	c	#CC0000",
	"2	c	#CC9966",
	"3	c	#FF6666",
	"                ",
	"     331133     ",
	"    31111113    ",
	"    113  311    ",
	"          11    ",
	" 2 2 2  3113  2 ",
	"000000 3113 0000",
	" 2 2 2 113  2 2 ",
	" 2 2 2 11 2 2 2 ",
	"000000 11 000000",
	" 2 2 2 11 2 2 2 ",
	"                ",
	"       11       ",
	"       11       ",
	"                ",
	"                "};

static char *describe_x24[] = {
	"24 24 10 1",
	" 	c	None",
	"0	c	#000000",
	"1	c	#333300",
	"2	c	#660000",
	"3	c	#663300",
	"4	c	#990000",
	"5	c	#996600",
	"6	c	#CC0000",
	"7	c	#CC6600",
	"8	c	#CC9900",
	"                        ",
	"                        ",
	"                        ",
	"        66666666        ",
	"       6666666666       ",
	"       66666666666      ",
	"      6666    6666      ",
	"       66     6666      ",
	"              6666      ",
	"  8  8  88  66666 8  88 ",
	" 00000000046666620000000",
	"  8  8  88666667  8  88 ",
	"  8  8  886666 8  8  88 ",
	"  8  8  886666 8  8  88 ",
	" 1500510536664150051053 ",
	" 1500510536664150051053 ",
	"  8  8  8 6666 8  8  8  ",
	"          666           ",
	"           6            ",
	"           66           ",
	"          666           ",
	"                        ",
	"                        ",
	"                        "};

static char *describe_x32[] = {
	"32 32 13 1",
	" 	c	None",
	"0	c	#000000",
	"1	c	#330000",
	"2	c	#333300",
	"3	c	#663300",
	"4	c	#990000",
	"5	c	#993300",
	"6	c	#996600",
	"7	c	#CC0000",
	"8	c	#CC3300",
	"9	c	#CC6600",
	"A	c	#CC9900",
	"B	c	#800000",
	"                                ",
	"                                ",
	"                                ",
	"              7777              ",
	"           7777777777           ",
	"          777777777777          ",
	"         77777777777777         ",
	"         77777    77777         ",
	"         7777      77777        ",
	"         7777      77777        ",
	"          77       7777         ",
	"                  77777         ",
	"  AA  AA   AA    777777 AA  AA  ",
	" 066006630266B77777777106600660 ",
	" 066006630266B77777785006600660 ",
	"  AA  AA   AA 777778AA  AA  AA  ",
	"  AA  AA   AA 7777 AAA  AA  AA  ",
	"  AA  AA   AA 7777 AAA  AA  AA  ",
	"  AA  AA   AA 7777 AAA  AA  AA  ",
	" 033003320133B77770232003300330 ",
	"  99  696 39947777 696  99  99  ",
	"  AA  AA   AA 7777 AAA  AA  AA  ",
	"              7777              ",
	"              7777              ",
	"               7                ",
	"               77               ",
	"              7777              ",
	"              7777              ",
	"               77               ",
	"                                ",
	"                                ",
	"                                "};

static char **describe_xpm[3] = { describe_x16, describe_x24, describe_x32 };

