static char *dimension_x16[] = {
	"16 16 5 1",
	" 	c	None",
	"0	c	#000000",
	"1	c	#CC0000",
	"2	c	#FF0000",
	"3	c	#800000",
	"                ",
	"            22  ",
	"            222 ",
	"            222 ",
	"           22 2 ",
	"          22    ",
	"       0 31     ",
	"       000      ",
	"        0 0     ",
	"      23        ",
	"     22         ",
	"  2 22          ",
	"  222           ",
	"  222           ",
	"   2            ",
	"                "};

static char *dimension_x24[] = {
	"24 24 5 1",
	" 	c	None",
	"0	c	#000000",
	"1	c	#CC0000",
	"2	c	#FF0000",
	"3	c	#800000",
	"                        ",
	"                        ",
	"                  222   ",
	"                  2222  ",
	"                   222  ",
	"                  22 2  ",
	"                 22  2  ",
	"                22      ",
	"               22       ",
	"          00  31        ",
	"           0 0 0        ",
	"           0 000        ",
	"            00 0        ",
	"          00  0         ",
	"         22             ",
	"        22              ",
	"        2               ",
	"   22  2                ",
	"   22 2                 ",
	"    22                  ",
	"    2222                ",
	"                        ",
	"                        ",
	"                        "};

static char *dimension_x32[] = {
	"32 32 5 1",
	" 	c	None",
	"0	c	#000000",
	"1	c	#CC0000",
	"2	c	#FF0000",
	"3	c	#800000",
	"                                ",
	"                                ",
	"                                ",
	"                        22222   ",
	"                        22222   ",
	"                          222   ",
	"                         22 2   ",
	"                        22  2   ",
	"                       22   2   ",
	"                      22        ",
	"                     22         ",
	"                    22          ",
	"              0    31           ",
	"             0 0 00 0           ",
	"               0 0              ",
	"              00 0000           ",
	"               000  0           ",
	"             0 0  000           ",
	"              0    0            ",
	"             2                  ",
	"            2                   ",
	"           2                    ",
	"     2    2                     ",
	"     2   2                      ",
	"     2  2                       ",
	"     2 2                        ",
	"     22                         ",
	"     222222                     ",
	"                                ",
	"                                ",
	"                                ",
	"                                "};

static char *dimension_xpm[3] = { dimension_x16, dimension_x24, dimension_x32 };

