static char* doc_note_x16[] = {
	"16 16 15 1",
	" 	c	None",
	"0	c	#000000",
	"1	c	#3366CC",
	"2	c	#669999",
	"3	c	#6699CC",
	"4	c	#999999",
	"5	c	#CC9933",
	"6	c	#CC9966",
	"7	c	#CC9999",
	"8	c	#CCCC00",
	"9	c	#CCCC66",
	"A	c	#FF9933",
	"B	c	#FFCC00",
	"C	c	#FFCC33",
	"D	c	#FFCC66",
	"                ",
	"                ",
	"                ",
	" 6AAAAAAAAAA6   ",
	" 6BBBBBBDDBB856 ",
	" 6BBBBB943DBBBA ",
	" 6BBBBD4C77BBBA ",
	" 6BBBC49D3CBBBA ",
	" 6BBC4923DBBBBA ",
	" 6BB77447BBBBBA ",
	" 6BB1744CBBBBBA ",
	" 6BBD7BCBBBBBBA ",
	" 6AAAAAAACCCCC6 ",
	"                ",
	"                ",
	"                "};

static char* doc_note_x24[] = {
	"24 24 14 1",
	" 	c	None",
	"0	c	#000000",
	"1	c	#669999",
	"2	c	#6699CC",
	"3	c	#999999",
	"4	c	#CC9900",
	"5	c	#CC9933",
	"6	c	#CC9966",
	"7	c	#CC9999",
	"8	c	#CCCC66",
	"9	c	#FF9966",
	"A	c	#FFCC00",
	"B	c	#FFCC33",
	"C	c	#FFCC66",
	"                        ",
	"                        ",
	"                        ",
	"                        ",
	"                        ",
	"  6BBBBBBBBBBBBBBB56    ",
	"  6AAAAAAAAAAAAAAAA56   ",
	"  6AAAAAAAAA727AAAA445  ",
	"  6AAAAAAAA77B3CAAAAAB  ",
	"  6AAAAAAA77AA38AAAAAB  ",
	"  6AAAAAA83AAB2BAAAAAB  ",
	"  6AAAAAB1B8B38AAAAAAB  ",
	"  6AAAAB1CC183AAAAAAAB  ",
	"  6AAAA38B381BAAAAAAAB  ",
	"  6AAA77A7738AAAAAAAAB  ",
	"  6AAA3C8383AAAAAAAAAB  ",
	"  6AAAC21B8BAAAAAAAAAB  ",
	"  6AAAABAAAAAAAAAAAAAB  ",
	"  6BBBBBBBBBBBBBBBBBB9  ",
	"                        ",
	"                        ",
	"                        ",
	"                        ",
	"                        "};

static char* doc_note_x32[] = {
	"32 32 15 1",
	" 	c	None",
	"0	c	#000000",
	"1	c	#669999",
	"2	c	#999999",
	"3	c	#CC6666",
	"4	c	#CC9900",
	"5	c	#CC9933",
	"6	c	#CC9966",
	"7	c	#CC9999",
	"8	c	#CCCC00",
	"9	c	#CCCC66",
	"A	c	#FF9933",
	"B	c	#FFCC00",
	"C	c	#FFCC33",
	"D	c	#FFCC66",
	"                                ",
	"                                ",
	"                                ",
	"                                ",
	"                                ",
	"                                ",
	"   666666666666666              ",
	"   6CCCCCCCCCCCCCCCCCCCCA6      ",
	"   6BBBBBBBBBBBBBBBBBBBBB453    ",
	"   6BBBBBBBBBBBBC79BBBBBB4456   ",
	"   6BBBBBBBBBBBC2722BBBBB48BA6  ",
	"   6BBBBBBBBBBC2DBB29BBBBBBBC6  ",
	"   6BBBBBBBBBB29BBB77BBBBBBBC6  ",
	"   6BBBBBBBBB77BBBB1DBBBBBBBC6  ",
	"   6BBBBBBBB92BBBB77BBBBBBBBC6  ",
	"   6BBBBBBBD2CB9CD1CBBBBBBBBC6  ",
	"   6BBBBBBC1CBD2C2DBBBBBBBBBC6  ",
	"   6BBBBBB2DBC1C77BBBBBBBBBBC6  ",
	"   6BBBBB77BB2D92BBBBBBBBBBBC6  ",
	"   6BBBBD2BB77C1CBBBBBBBBBBBC6  ",
	"   6BBBB77BD2C29BBBBBBBBBBBBC6  ",
	"   6BBBBD191CD7BBBBBBBBBBBBBC6  ",
	"   6BBBBB92DBBBBBBBBBBBBBBBBC6  ",
	"   6BBBBBBBBBBBBBBBBBBBBBBBBC6  ",
	"   6CCCCCCCCCCCCCCCCCCCCCCCCC6  ",
	"                  66666666666   ",
	"                                ",
	"                                ",
	"                                ",
	"                                ",
	"                                ",
	"                                "};

static char *doc_note_xpm[3] = { doc_note_x16, doc_note_x24, doc_note_x32 };

