static char *doc_setup_x16[] = {
	"16 16 30 1",
	" 	c	None",
	"0	c	#383838",
	"1	c	#3B3B3B",
	"2	c	#404040",
	"3	c	#474747",
	"4	c	#4B4B4B",
	"5	c	#4D4D4D",
	"6	c	#565656",
	"7	c	#5C5C5C",
	"8	c	#5D5D5D",
	"9	c	#606060",
	"A	c	#616161",
	"B	c	#636363",
	"C	c	#656565",
	"D	c	#666666",
	"E	c	#686868",
	"F	c	#6A6A6A",
	"G	c	#707070",
	"H	c	#7A7A7A",
	"I	c	#8B8B8B",
	"J	c	#939393",
	"K	c	#999999",
	"L	c	#9B9B9B",
	"M	c	#A6A6A6",
	"N	c	#B1B1B1",
	"O	c	#C4C4C4",
	"P	c	#D9D9D9",
	"Q	c	#EAEAEA",
	"R	c	#F5F5F5",
	"S	c	#000000",
	"DDDDDDDDDDD     ",
	"DRRRRRRRRRD     ",
	"DRRRRRRRRRD     ",
	"DRRRRRRRRRD     ",
	"DRRRRRRRRRD     ",
	"DRRRRRRRRRD     ",
	"DRRRRRRRDDDDDDD ",
	"DRRRRRRRDRRRRRD ",
	"DRRRRRRRDRRRRRD ",
	"DRRRRRQOGGGGGGG0",
	"DRRRRROKNNNNNNNI",
	"DRRRRRONPPPPPPPL",
	"DRRRRRON97777CDL",
	"DDDDDDGM25555HBJ",
	"       F13333A8E",
	"        422226C "};

static char *doc_setup_x24[] = {
	"24 24 34 1",
	" 	c	None",
	"0	c	#333333",
	"1	c	#383838",
	"2	c	#3C3C3C",
	"3	c	#4D4D4D",
	"4	c	#4F4F4F",
	"5	c	#525252",
	"6	c	#575757",
	"7	c	#5C5C5C",
	"8	c	#5F5F5F",
	"9	c	#606060",
	"A	c	#616161",
	"B	c	#646464",
	"C	c	#666666",
	"D	c	#686868",
	"E	c	#6A6A6A",
	"F	c	#707070",
	"G	c	#818181",
	"H	c	#838383",
	"I	c	#858585",
	"J	c	#898989",
	"K	c	#8A8A8A",
	"L	c	#8D8D8D",
	"M	c	#A7A7A7",
	"N	c	#ADADAD",
	"O	c	#B1B1B1",
	"P	c	#B7B7B7",
	"Q	c	#C4C4C4",
	"R	c	#C6C6C6",
	"S	c	#CBCBCB",
	"T	c	#D9D9D9",
	"U	c	#EAEAEA",
	"V	c	#F5F5F5",
	"W	c	#000000",
	"CCCCCCCCCCCCCCCC        ",
	"CVVVVVVVVVVVVVVC        ",
	"CVVVVVVVVVVVVVVC        ",
	"CVVVVVVVVVVVVVVC        ",
	"CVVVVVVVVVVVVVVC        ",
	"CVVVVVVVVVVVVVVC        ",
	"CVVVVVVVVVVVVVVC        ",
	"CVVVVVVVVVVVVVVC        ",
	"CVVVVVVVVVVVVVVC        ",
	"CVVVVVVVVVVVCCCCCCCCCC  ",
	"CVVVVVVVVVVVCVVVVVVVVC  ",
	"CVVVVVVVVVVVCVVVVVVVVC  ",
	"CVVVVVVVVVVVCVVVVVVVVC  ",
	"CVVVVVVVVVVVCVVVVVVVVC  ",
	"CVVVVVVVVVSQFFFFFFFFFF21",
	"CVVVVVVVVUHOOOOOOOOOOOOG",
	"CVVVVVVVVULTTTTTTTTTTTTJ",
	"CVVVVVVVVULTTTTTTTTTTTTJ",
	"CVVVVVVVVULTCCCCCCCCCCTJ",
	"CVVVVVVVVULT6KKKKKKNVCTJ",
	"CCCCCCCCCDGR30000000ECRI",
	"          8E5EEEEEEEMAEB",
	"            4EEEEEELP8  ",
	"            A7777779CC  "};

static char *doc_setup_x32[] = {
	"32 32 35 1",
	" 	c	None",
	"0	c	#333333",
	"1	c	#343434",
	"2	c	#353535",
	"3	c	#3C3C3C",
	"4	c	#5C5C5C",
	"5	c	#5D5D5D",
	"6	c	#5F5F5F",
	"7	c	#626262",
	"8	c	#656565",
	"9	c	#666666",
	"A	c	#6A6A6A",
	"B	c	#707070",
	"C	c	#7A7A7A",
	"D	c	#7B7B7B",
	"E	c	#7D7D7D",
	"F	c	#7E7E7E",
	"G	c	#818181",
	"H	c	#8A8A8A",
	"I	c	#8C8C8C",
	"J	c	#9F9F9F",
	"K	c	#A8A8A8",
	"L	c	#AEAEAE",
	"M	c	#B1B1B1",
	"N	c	#B3B3B3",
	"O	c	#BCBCBC",
	"P	c	#C4C4C4",
	"Q	c	#C6C6C6",
	"R	c	#CACACA",
	"S	c	#D9D9D9",
	"T	c	#DEDEDE",
	"U	c	#E4E4E4",
	"V	c	#F2F2F2",
	"W	c	#F5F5F5",
	"X	c	#000000",
	" 99999999999999999999           ",
	"9WWWWWWWWWWWWWWWWWWWW9          ",
	"9WWWWWWWWWWWWWWWWWWWW9          ",
	"9WWWWWWWWWWWWWWWWWWWW9          ",
	"9WWWWWWWWWWWWWWWWWWWW9          ",
	"9WWWWWWWWWWWWWWWWWWWW9          ",
	"9WWWWWWWWWWWWWWWWWWWW9          ",
	"9WWWWWWWWWWWWWWWWWWWW9          ",
	"9WWWWWWWWWWWWWWWWWWWW9          ",
	"9WWWWWWWWWWWWWWWWWWWW9          ",
	"9WWWWWWWWWWWWWWWWWWWW9          ",
	"9WWWWWWWWWWWWWWWWWWWW9          ",
	"9WWWWWWWWWWWWWWWWWWWW9          ",
	"9WWWWWWWWWWWWWWW99999999999999  ",
	"9WWWWWWWWWWWWWWW9WWWWWWWWWWWW9  ",
	"9WWWWWWWWWWWWWWW9WWWWWWWWWWWW9  ",
	"9WWWWWWWWWWWWWWW9WWWWWWWWWWWW9  ",
	"9WWWWWWWWWWWWWWW9WWWWWWWWWWWW9  ",
	"9WWWWWWWWWWWWWWW9WWWWWWWWWWWW9  ",
	"9WWWWWWWWWWWWTPPBBBBBBBBBBBBBB31",
	"9WWWWWWWWWWWWNJMMMMMMMMMMMMMMMMD",
	"9WWWWWWWWWWWWNOSSSSSSSSSSSSSSSSF",
	"9WWWWWWWWWWWWNOSSSSSSSSSSSSSSSSF",
	"9WWWWWWWWWWWWNOSSSSSSSSSSSSSSSSF",
	"9WWWWWWWWWWWWNOS9999999999999SSF",
	"9WWWWWWWWWWWWNOS8SSSSSSSSSVWW9SF",
	"9WWWWWWWWWWWWNOS6DDDDDDDDDRUW9SF",
	" 999999999999CLQ5DDDDDDDDDGKW9QE",
	"             2AA6DDDDDDDDDISW9A7",
	"                4HHHHHHHHHHHS9  ",
	"                6000000006VWW9  ",
	"                99999999999999  "};

static char **doc_setup_xpm[3] = { doc_setup_x16, doc_setup_x24, doc_setup_x32 };

