static char *doc_import_xtc_x16[] = {
	"16 16 10 1",
	" 	c	None",
	"0	c	#000000",
	"1	c	#009933",
	"2	c	#669966",
	"3	c	#999999",
	"4	c	#99CC99",
	"5	c	#CCCCCC",
	"6	c	#CCFFFF",
	"7	c	#FFFFFF",
	"8	c	#C0C0C0",
	"                ",
	"    33333333333 ",
	"    37777777773 ",
	"    37777777773 ",
	"    37777777773 ",
	"    35777777773 ",
	"    35277777773 ",
	" 11128424777773 ",
	" 11128424777773 ",
	"    35267777773 ",
	"    38777777773 ",
	"    37777777773 ",
	"    37777777773 ",
	"    37777777773 ",
	"    33333333333 ",
	"                "};

static char *doc_import_xtc_x24[] = {
	"24 24 12 1",
	" 	c	None",
	"0	c	#000000",
	"1	c	#009933",
	"2	c	#339933",
	"3	c	#339966",
	"4	c	#669966",
	"5	c	#669999",
	"6	c	#999999",
	"7	c	#99CC99",
	"8	c	#CCCCCC",
	"9	c	#FFFFFF",
	"A	c	#C0C0C0",
	"                        ",
	"                        ",
	"       666666666666666  ",
	"      6999999999999996  ",
	"      6999999999999996  ",
	"      6999999999999996  ",
	"      6999999999999996  ",
	"      6999999999999996  ",
	"      69A8999999999996  ",
	"      6931799999999996  ",
	"      6994149999999996  ",
	"  11111111112999999996  ",
	"  11114666412999999996  ",
	"      6994159999999996  ",
	"      6921799999999996  ",
	"      69A8999999999996  ",
	"      6999999999999996  ",
	"      6999999999999996  ",
	"      6999999999999996  ",
	"      6999999999999996  ",
	"      6999999999999996  ",
	"       666666666666666  ",
	"                        ",
	"                        "};

static char *doc_import_xtc_x32[] = {
	"32 32 14 1",
	" 	c	None",
	"0	c	#000000",
	"1	c	#009933",
	"2	c	#339933",
	"3	c	#339966",
	"4	c	#669966",
	"5	c	#999999",
	"6	c	#99CC99",
	"7	c	#99CCCC",
	"8	c	#CCCCCC",
	"9	c	#CCFFCC",
	"A	c	#CCFFFF",
	"B	c	#FFFFFF",
	"C	c	#C0C0C0",
	"                                ",
	"                                ",
	"                                ",
	"         55555555555555555555   ",
	"         5BBBBBBBBBBBBBBBBBB5   ",
	"         5BBBBBBBBBBBBBBBBBB5   ",
	"         5BBBBBBBBBBBBBBBBBB5   ",
	"         5BBBBBBBBBBBBBBBBBB5   ",
	"         5BBBBBBBBBBBBBBBBBB5   ",
	"         5BBBBBBBBBBBBBBBBBB5   ",
	"         5BBBBBBBBBBBBBBBBBB5   ",
	"         5B46BBBBBBBBBBBBBBB5   ",
	"         5C114ABBBBBBBBBBBBB5   ",
	"         5B61128BBBBBBBBBBBB5   ",
	"         588C3115BBBBBBBBBBB5   ",
	"   111111111111116BBBBBBBBBB5   ",
	"   111111111111117BBBBBBBBBB5   ",
	"         5BBC111CBBBBBBBBBBB5   ",
	"         5B51149BBBBBBBBBBBB5   ",
	"         56115BBBBBBBBBBBBBB5   ",
	"         5B4CBBBBBBBBBBBBBBB5   ",
	"         5BBBBBBBBBBBBBBBBBB5   ",
	"         5BBBBBBBBBBBBBBBBBB5   ",
	"         5BBBBBBBBBBBBBBBBBB5   ",
	"         5BBBBBBBBBBBBBBBBBB5   ",
	"         5BBBBBBBBBBBBBBBBBB5   ",
	"         5BBBBBBBBBBBBBBBBBB5   ",
	"         5BBBBBBBBBBBBBBBBBB5   ",
	"         55555555555555555555   ",
	"                                ",
	"                                ",
	"                                "};

static char **doc_import_xtc_xpm[3] = { doc_import_xtc_x16, doc_import_xtc_x24, doc_import_xtc_x32 };

