static char *doc_open_x16[] = {
	"16 16 16 1",
	" 	c	None",
	"0	c	#000000",
	"1	c	#663300",
	"2	c	#666600",
	"3	c	#666633",
	"4	c	#996633",
	"5	c	#996666",
	"6	c	#999933",
	"7	c	#999966",
	"8	c	#999999",
	"9	c	#CC9966",
	"A	c	#CCCC66",
	"B	c	#CCCC99",
	"C	c	#CCCCCC",
	"D	c	#FFCC99",
	"E	c	#FFFFFF",
	"                ",
	"                ",
	" 111111         ",
	" 3788888888111  ",
	" 3B8EEEEEEC893  ",
	" 3B8EEEEEEECB3  ",
	" 3B577777777533 ",
	" 394BBBBBBBBBB2 ",
	" 379DDDDDDDDDD3 ",
	" 34BDDDDDDDDDA3 ",
	" 33DDDDDDDDDD91 ",
	" 36DDDDDDDDDD4  ",
	" 37BBBBBBBBBB2  ",
	" 3333333333333  ",
	"                ",
	"                "};

static char *doc_open_x24[] = {
	"24 24 19 1",
	" 	c	None",
	"0	c	#000000",
	"1	c	#663300",
	"2	c	#666600",
	"3	c	#666633",
	"4	c	#996633",
	"5	c	#996666",
	"6	c	#999933",
	"7	c	#999966",
	"8	c	#999999",
	"9	c	#CC9966",
	"A	c	#CC9999",
	"B	c	#CCCC66",
	"C	c	#CCCC99",
	"D	c	#CCCCCC",
	"E	c	#FFCC99",
	"F	c	#FFFFFF",
	"G	c	#C0C0C0",
	"H	c	#808080",
	"                        ",
	"                        ",
	"                        ",
	"                        ",
	"  244777775H            ",
	"  1EC8GGGGGGGGG83333    ",
	"  1ECDFFFFFFFFFF8CC71   ",
	"  1ECDFFFFFFFFFFFAE91   ",
	"  1ECDFFFFFFFFFFFDC91   ",
	"  1ECGDDDDDDDDDDDDA71   ",
	"  1E7477777777777764431 ",
	"  1E5BEEEEEEEEEEEEEEE61 ",
	"  1E3EEEEEEEEEEEEEEEE2  ",
	"  1C6EEEEEEEEEEEEEEEE3  ",
	"  199EEEEEEEEEEEEEEEB3  ",
	"  16CEEEEEEEEEEEEEEE91  ",
	"  13EEEEEEEEEEEEEEEE4   ",
	"  17EEEEEEEEEEEEEEEE2   ",
	"  29EEEEEEEEEEEEEEEC3   ",
	"  3799999999999999972   ",
	"  111111111111111111    ",
	"                        ",
	"                        ",
	"                        "};

static char *doc_open_x32[] = {
	"32 32 17 1",
	" 	c	None",
	"0	c	#000000",
	"1	c	#663300",
	"2	c	#666600",
	"3	c	#666633",
	"4	c	#996633",
	"5	c	#996666",
	"6	c	#999933",
	"7	c	#999966",
	"8	c	#999999",
	"9	c	#CC9966",
	"A	c	#CCCC66",
	"B	c	#CCCC99",
	"C	c	#CCCCCC",
	"D	c	#FFCC99",
	"E	c	#FFFFFF",
	"F	c	#C0C0C0",
	"                                ",
	"                                ",
	"                                ",
	"                                ",
	"                                ",
	"   333333333331                 ",
	"   3BBBBBBBBBB788888            ",
	"   3DD8CCCCCCCCCCCCCF733333     ",
	"   3DD8EEEEEEEEEEEEEEFBBBB3     ",
	"   3DD8EEEEEEEEEEEEEEECBDD3     ",
	"   3DD8EEEEEEEEEEEEEEEECBD3     ",
	"   3DD8EEEEEEEEEEEEEEEECBD3     ",
	"   3DD8EEEEEEEEEEEEEEEECBD3     ",
	"   3DD511111111111111111111113  ",
	"   3DD3DDDDDDDDDDDDDDDDDDDDDA3  ",
	"   3DD4DDDDDDDDDDDDDDDDDDDDD91  ",
	"   3D99DDDDDDDDDDDDDDDDDDDDD4   ",
	"   3D6BDDDDDDDDDDDDDDDDDDDDD2   ",
	"   3D3DDDDDDDDDDDDDDDDDDDDDD3   ",
	"   3B6DDDDDDDDDDDDDDDDDDDDD93   ",
	"   399DDDDDDDDDDDDDDDDDDDDD71   ",
	"   34DDDDDDDDDDDDDDDDDDDDDD4    ",
	"   33DDDDDDDDDDDDDDDDDDDDDD2    ",
	"   37DDDDDDDDDDDDDDDDDDDDDA3    ",
	"   39DDDDDDDDDDDDDDDDDDDDD92    ",
	"   3DDDDDDDDDDDDDDDDDDDDDD61    ",
	"   211111111111111111111112     ",
	"                                ",
	"                                ",
	"                                ",
	"                                ",
	"                                "};

static char **doc_open_xpm[3] = { doc_open_x16, doc_open_x24, doc_open_x32 };

