static char *doc_save_as_x16[] = {
	"16 16 16 1",
	" 	c	None",
	"0	c	#000000",
	"1	c	#0066FF",
	"2	c	#333333",
	"3	c	#333366",
	"4	c	#336666",
	"5	c	#3366CC",
	"6	c	#666666",
	"7	c	#666699",
	"8	c	#669999",
	"9	c	#6699CC",
	"A	c	#999999",
	"B	c	#CCCCCC",
	"C	c	#FFFFFF",
	"D	c	#C0C0C0",
	"E	c	#808080",
	"6666666666666666",
	"6EDBBBBBBBBBBBB6",
	"6ABCCCCCCCCCCCC6",
	"6ABCCCCCCCCCCCC6",
	"66EEEEEEEEEEEEE6",
	"       55       ",
	"       11       ",
	"      1111      ",
	"       111      ",
	"       11       ",
	"2222222222222222",
	"2388478478468462",
	"2378378378448442",
	"2378378378448442",
	"2489489488779772",
	"2222222222222222"};

static char *doc_save_as_x24[] = {
	"24 24 17 1",
	" 	c	None",
	"0	c	#000000",
	"1	c	#0066FF",
	"2	c	#333333",
	"3	c	#333366",
	"4	c	#336666",
	"5	c	#336699",
	"6	c	#666666",
	"7	c	#666699",
	"8	c	#669999",
	"9	c	#6699CC",
	"A	c	#999999",
	"B	c	#9999CC",
	"C	c	#99CCCC",
	"D	c	#CCCCCC",
	"E	c	#FFFFFF",
	"F	c	#C0C0C0",
	" 6666666666666666666666 ",
	"6AAFFFFFFFFFFFFFFFFFFFA6",
	"6DADEEEEEEEEEEEEEEEEEED6",
	"6DADEEEEEEEEEEEEEEEEEED6",
	"6DADEEEEEEEEEEEEEEEEEED6",
	"6DADEEEEEEEEEEEEEEEEEED6",
	"6AAAFFFFFFFFFFFFFFFFFFA6",
	" 66666666665566666666666",
	"           111          ",
	"           111          ",
	"        11111111        ",
	"        11111111        ",
	"         111111         ",
	"          1111          ",
	"           11           ",
	"222222222222222222222222",
	"2BBC8C8C8CBBC8C8C8C9CC92",
	"288B4C0C4B88B4C3C3C79972",
	"288B4C0C4B88B4C3C3C79972",
	"288B4C0C4B88B4C3C3C79972",
	"288B4C0C4B88B4C3C3C79972",
	"288B4C0C4B88B4C3C3C79972",
	"2CCCCCCCCCCCCCCCCCCCCCC2",
	"222222222222222222222222"};

static char *doc_save_as_x32[] = {
	"32 32 15 1",
	" 	c	None",
	"0	c	#000000",
	"1	c	#0066FF",
	"2	c	#333333",
	"3	c	#333366",
	"4	c	#336666",
	"5	c	#666666",
	"6	c	#6699CC",
	"7	c	#999999",
	"8	c	#9999CC",
	"9	c	#99CCCC",
	"A	c	#CCCCCC",
	"B	c	#FFFFFF",
	"C	c	#C0C0C0",
	"D	c	#808080",
	"                                ",
	"55DDDDDDDDDDDDDDDDDDDDDDDDDDDDD5",
	"57B7BBBBBBBBBBBBBBBBBBBBBBBBBBC5",
	"57BDABBBBBBBBBBBBBBBBBBBBBBBBBC5",
	"57BDABBBBBBBBBBBBBBBBBBBBBBBBBC5",
	"57BDABBBBBBBBBBBBBBBBBBBBBBBBBC5",
	"57BDABBBBBBBBBBBBBBBBBBBBBBBBBC5",
	"57BDABBBBBBBBBBBBBBBBBBBBBBBBBC5",
	"57A7AAAAAAAAAAAAAAAAAAAAAAAAAA75",
	" 5555555555555555555555555555555",
	"              1111              ",
	"              1111              ",
	"              1111              ",
	"           1111111 11           ",
	"           1111111111           ",
	"           1111111111           ",
	"            11111111            ",
	"             111111             ",
	"              1111              ",
	"               11               ",
	"22222222222222222222222222222222",
	"29999999999999999999999999999992",
	"29599599499499499499299299299292",
	"29489489399399399399099099099092",
	"29489489399399399399099099099092",
	"29489489399399399399099099099092",
	"29489489399399399399099099099092",
	"29489489399399399399099099099092",
	"29489489399399399399099099099092",
	"29899899899899699699699699699692",
	"22222222222222222222222222222222",
	"                                "};

static char **doc_save_as_xpm[3] = { doc_save_as_x16, doc_save_as_x24, doc_save_as_x32 };

