static char *doc_export_bmap_x16[] = {
	"16 16 41 1",
	" 	c	None",
	"0	c	#303028",
	"1	c	#88a868",
	"2	c	#607888",
	"3	c	#84786c",
	"4	c	#c80202",
	"5	c	#cc885c",
	"6	c	#d8b8a0",
	"7	c	#d03030",
	"8	c	#788088",
	"9	c	#d0a888",
	"A	c	#50a0cf",
	"B	c	#5d544d",
	"C	c	#da9595",
	"D	c	#968c80",
	"E	c	#d85e5d",
	"F	c	#7a7066",
	"G	c	#d8c8b0",
	"H	c	#7da058",
	"I	c	#92aab2",
	"J	c	#a09888",
	"K	c	#deaaa8",
	"L	c	#6791ab",
	"M	c	#685d50",
	"N	c	#78a0b8",
	"O	c	#d04646",
	"P	c	#e0d0b8",
	"Q	c	#bca898",
	"R	c	#969090",
	"S	c	#b0a090",
	"T	c	#d0bdb1",
	"U	c	#e2c8ba",
	"V	c	#908276",
	"W	c	#ccb09c",
	"X	c	#60889d",
	"Y	c	#e0b8b8",
	"Z	c	#696058",
	"a	c	#c49068",
	"b	c	#60a0c0",
	"c	c	#a09086",
	"d	c	#dca0a0",
	"FJJJJJJJJJDDR   ",
	"cUFBZZZZZBJPR   ",
	"cZQPPDPPPPFSR   ",
	"VFHHS3PPPPUZR   ",
	"3VH1MGPPPPPZT   ",
	"DBUPMPPPPPPK7K  ",
	"cSBQMPPPPPPUE4C ",
	"cPUMBPPPdOOOO44C",
	"XITU0PPPKEEEE44d",
	"LAbTZPPPPPPUE4C ",
	"LAAIZPTWW6PK7Y  ",
	"LAAIZP955aPZT   ",
	"LAANZG955aPMR   ",
	"LAALWBGPPPVcR   ",
	"LAAATWZMZMVPR   ",
	"2LXX8JJJJJJJ    "};
static char *doc_export_bmap_x24[] = {
	"24 24 41 1",
	" 	c	None",
	"0	c	#080808",
	"1	c	#5895b8",
	"2	c	#2c2823",
	"3	c	#ac9e8c",
	"4	c	#5d534b",
	"5	c	#d02020",
	"6	c	#c6b6a8",
	"7	c	#769c50",
	"8	c	#5c7074",
	"9	c	#c80000",
	"A	c	#787872",
	"B	c	#e3bcbc",
	"C	c	#cc8658",
	"D	c	#49423a",
	"E	c	#9c9088",
	"F	c	#b4a89a",
	"G	c	#e6cbc8",
	"H	c	#488820",
	"I	c	#7a9aaa",
	"J	c	#c0916d",
	"K	c	#948476",
	"L	c	#6e645b",
	"M	c	#e4b3ae",
	"N	c	#e09c9c",
	"O	c	#e0cfb8",
	"P	c	#dc7070",
	"Q	c	#f0e4e4",
	"R	c	#3b342e",
	"S	c	#c9a083",
	"T	c	#50a0cf",
	"U	c	#d5c2ac",
	"V	c	#505860",
	"W	c	#ca1212",
	"X	c	#c4b2a0",
	"Y	c	#80776f",
	"Z	c	#d23e3e",
	"a	c	#95a5a8",
	"b	c	#5d788a",
	"c	c	#a0b078",
	"d	c	#887970",
	"LYYYYYYYYYYYYYYYYYY     ",
	"YOOOXKKKKdddd3UOOOA     ",
	"YOU4RLLLYdddY424UOA     ",
	"YORdOOOO3OOOOOOKDOA     ",
	"YKLXcUOKDOOOOOOODFY     ",
	"YR67H7U2UOOOOOOOdYA     ",
	"Y2O7H7KLOOOOOOOOKLE     ",
	"YDXU3U43OOOOOOOO3EBG    ",
	"YK4OOODFOOOOOOOOOB95B   ",
	"YOL23ODXOOOOOOOOOGZ99M  ",
	"YOOXRLDXOOOOGBGGGGQZ99PG",
	"YOOOO426OOOOM9999999999B",
	"8I6OOO0UOOOOM9999WWW999B",
	"bTTIOO26OOOOGGGGGGQP99N ",
	"bTTTIODXOOOOOOOOOGZ9WB  ",
	"bTTT1UDXOOOOOOOOON9ZG   ",
	"bTTTTFDXOUCJJJJO3EMG    ",
	"bTTTTaDFOUCCCCJO34F     ",
	"bTTTTaYKOUCCCCJOKLA     ",
	"bTTTTIX2OMSSSSSO4EA     ",
	"bTTTT1OYDUOOOOOF2OA     ",
	"bTTTT1UOE2RLLLRRXOA     ",
	"bTTTTTaOOO633EUOOOA     ",
	"Vbbbbb8YYYYYYYYYYYY     "};
static char *doc_export_bmap_x32[] = {
	"32 32 41 1",
	" 	c	None",
	"0	c	#070605",
	"1	c	#548cac",
	"2	c	#c80000",
	"3	c	#aa9a8c",
	"4	c	#4b443d",
	"5	c	#d65252",
	"6	c	#d2bfab",
	"7	c	#74695f",
	"8	c	#6d92a2",
	"9	c	#488820",
	"A	c	#e5d4cb",
	"B	c	#292522",
	"C	c	#465861",
	"D	c	#e0908c",
	"E	c	#d01e1e",
	"F	c	#85786d",
	"G	c	#e0cfb8",
	"H	c	#b9825b",
	"I	c	#b2aa92",
	"J	c	#605855",
	"K	c	#799a52",
	"L	c	#988c80",
	"M	c	#d08858",
	"N	c	#554f49",
	"O	c	#c19981",
	"P	c	#181714",
	"Q	c	#e9dbda",
	"R	c	#3b352e",
	"S	c	#e8b0b0",
	"T	c	#4f9fcf",
	"U	c	#e8c0c0",
	"V	c	#c5b19d",
	"W	c	#d03636",
	"X	c	#a0a09e",
	"Y	c	#649040",
	"Z	c	#626058",
	"a	c	#909a9d",
	"b	c	#c09070",
	"c	c	#d87070",
	"d	c	#928375",
	"NZZZZJNNNNNJZZZZZZZZZZZZZ       ",
	"JGGGGGGGGGGGGGGGGGGGGGGGJ       ",
	"JGGGG34BBBBBBPPPPB4d6GGGJ       ",
	"JGG64P7333333333337BP3GGJ       ",
	"JG6PN6GGGGG6GGGGGGGGd0IGJ       ",
	"JG44GGGGGG7RGGGGGGGGG7RGJ       ",
	"J606IKY6GV03GGGGGGGGG606J       ",
	"JF4GK99KGRZGGGGGGGGGGGB3J       ",
	"J74GY99K606GGGGGGGGGGGRLZ       ",
	"JdRG6KKVdRGGGGGGGGGGGGRLAQ      ",
	"JV06GGGG7NGGGGGGGGGGGGdAc5Q     ",
	"JGRJGGGGZJGGGGGGGGGGGGAD22WQ    ",
	"JGVRP3GGJZGGGGGGGGGGGGAAE222UA  ",
	"JGGGd0N6J7GGGGGGAAAAAAAQQW222DQ ",
	"JGGGG64B47GGGGGGQDDDDDDDDDE222cQ",
	"JGGGGGGNP7GGGGGGQ22222222222222Q",
	"N8XGGGG60ZGGGGGGQ22222222222222Q",
	"CTT8aGGGPNGGGGGGQSSSUUUUUSW222DA",
	"CTTTTaGGN7GGGGGGGGGGGGGAQ5222SQ ",
	"CTTTTTXGN7GGGGGGGGGGGGAAE22EAA  ",
	"CTTTTT8GJ7GGGGGGGGGGGGQ5225Q    ",
	"CTTTTT1GJ7GGGOOOOOOVGG7QWDQ     ",
	"CTTTTTT6JZGGGHMMMMMbGG4LQQ      ",
	"CTTTTTTIZJGGGHMMMMMbGG4F7       ",
	"CTTTTTTXdRGGGHMMMMMbGGRLJ       ",
	"CTTTTTTa60VGGHHHHHHbGGPIJ       ",
	"CTTTTTT8GJRGGGGGGGGGG3PGJ       ",
	"CTTTTTT8G6BRVGGGGGGGVPFGJ       ",
	"CTTTTTT1GG6J0R7FddF407GGJ       ",
	"CTTTTTTTXGGG6FN4RR47VGGGJ       ",
	"CTTTTTTT8GGGGGGGGGGGGGGGJ       ",
	"4CCCCCCCNNNNNNNNNNNNNNNNJ       "};

static char **doc_export_bmap_xpm[3] = { doc_export_bmap_x16, doc_export_bmap_x24, doc_export_bmap_x32 };
