static char *doc_export_xtc_x16[] = {
	"16 16 9 1",
	" 	c	None",
	"0	c	#000000",
	"1	c	#666666",
	"2	c	#996666",
	"3	c	#CC0000",
	"4	c	#CC3333",
	"5	c	#CC9999",
	"6	c	#FFCCCC",
	"7	c	#FFFFFF",
	"111111111111    ",
	"177777777771    ",
	"177777777771    ",
	"177777777771    ",
	"177777777771    ",
	"1777777777713   ",
	"17777777777133  ",
	"1777777755543333",
	"177777776662 33 ",
	"17777777777133  ",
	"1777777777713   ",
	"177777777771    ",
	"177777777771    ",
	"177777777771    ",
	"177777777771    ",
	"111111111111    "};

static char *doc_export_xtc_x24[] = {
	"24 24 7 1",
	" 	c	None",
	"0	c	#000000",
	"1	c	#666666",
	"2	c	#993333",
	"3	c	#CC0000",
	"4	c	#FFCCCC",
	"5	c	#FFFFFF",
	" 1111111111111111       ",
	"15555555555555551       ",
	"15555555555555551       ",
	"15555555555555551       ",
	"15555555555555551       ",
	"15555555555555551       ",
	"15555555555555551       ",
	"15555555555555551       ",
	"15555555555555551 33    ",
	"15555555555555551 3333  ",
	"15555555555555551  3333 ",
	"155555555555433333333333",
	"15555555555544442333333 ",
	"15555555555555551  333  ",
	"15555555555555551 333   ",
	"15555555555555551  3    ",
	"15555555555555551       ",
	"15555555555555551       ",
	"15555555555555551       ",
	"15555555555555551       ",
	"15555555555555551       ",
	"15555555555555551       ",
	"15555555555555551       ",
	" 1111111111111111       "};

static char *doc_export_xtc_x32[] = {
	"32 32 9 1",
	" 	c	None",
	"0	c	#000000",
	"1	c	#666666",
	"2	c	#993333",
	"3	c	#CC0000",
	"4	c	#CC3333",
	"5	c	#CC9999",
	"6	c	#FFCCCC",
	"7	c	#FFFFFF",
	"                                ",
	" 1111111111111111111111         ",
	" 1777777777777777777771         ",
	" 1777777777777777777771         ",
	" 1777777777777777777771         ",
	" 1777777777777777777771         ",
	" 1777777777777777777771         ",
	" 1777777777777777777771         ",
	" 1777777777777777777771         ",
	" 1777777777777777777771         ",
	" 1777777777777777777771         ",
	" 1777777777777777777771 333     ",
	" 1777777777777777777771 3333    ",
	" 1777777777777777777771  33333  ",
	" 177777777777777766666233333333 ",
	" 1777777777777776333333333333333",
	" 177777777777777655555433333333 ",
	" 1777777777777777777771   3333  ",
	" 1777777777777777777771 33333   ",
	" 1777777777777777777771 333     ",
	" 1777777777777777777771  3      ",
	" 1777777777777777777771         ",
	" 1777777777777777777771         ",
	" 1777777777777777777771         ",
	" 1777777777777777777771         ",
	" 1777777777777777777771         ",
	" 1777777777777777777771         ",
	" 1777777777777777777771         ",
	" 1777777777777777777771         ",
	" 1777777777777777777771         ",
	" 1111111111111111111111         ",
	"                                "};

static char **doc_export_xtc_xpm[3] = { doc_export_xtc_x16, doc_export_xtc_x24, doc_export_xtc_x32 };

