static char *doc_new_x16[] = {
	"16 16 29 1",
	" 	c	None",
	"0	c	#666666",
	"1	c	#008BDA",
	"2	c	#1E8FDE",
	"3	c	#028FE1",
	"4	c	#0397EB",
	"5	c	#039BF3",
	"6	c	#1597E9",
	"7	c	#1A96E7",
	"8	c	#1B9AED",
	"9	c	#129DF3",
	"A	c	#109FF7",
	"B	c	#2399E9",
	"C	c	#2399EB",
	"D	c	#219CF0",
	"E	c	#399AE8",
	"F	c	#5D99D7",
	"G	c	#64A0DC",
	"H	c	#7DACE2",
	"I	c	#94B4DE",
	"J	c	#94B4E0",
	"K	c	#CBD6E7",
	"L	c	#D8DFEB",
	"M	c	#DFE5EE",
	"N	c	#E3E8EF",
	"O	c	#EBEDF1",
	"P	c	#F2F2F4",
	"Q	c	#F5F5F5",
	"R	c	#000000",
	"  000000000000  ",
	"  0QQJHPQQQQQ0  ",
	"  0QQ3BLQQQQQ0  ",
	"  0IG781FQQQQ0  ",
	"  0E59AD4QQQQ0  ",
	"  0NL3CKMQQQQ0  ",
	"  0QQ26OQQQQQ0  ",
	"  0QQNMQQQQQQ0  ",
	"  0QQQQQQQQQQ0  ",
	"  0QQQQQQQQQQ0  ",
	"  0QQQQQQQQQQ0  ",
	"  0QQQQQQQQQQ0  ",
	"  0QQQQQQQQQQ0  ",
	"  0QQQQQQQQQQ0  ",
	"  0QQQQQQQQQQ0  ",
	"  000000000000  "};

static char *doc_new_x24[] = {
	"24 24 33 1",
	" 	c	None",
	"0	c	#666666",
	"1	c	#1F90DE",
	"2	c	#0294E7",
	"3	c	#0399EE",
	"4	c	#1996E5",
	"5	c	#1D99EC",
	"6	c	#1D9AED",
	"7	c	#139FF6",
	"8	c	#159CF1",
	"9	c	#1D9CF1",
	"A	c	#04A3FF",
	"B	c	#2291DF",
	"C	c	#219CF0",
	"D	c	#3096E2",
	"E	c	#4896DC",
	"F	c	#5099DB",
	"G	c	#64A0DC",
	"H	c	#6CA2DB",
	"I	c	#72A4DB",
	"J	c	#7DA7DB",
	"K	c	#9EB8DD",
	"L	c	#B4C6E1",
	"M	c	#B9C9E3",
	"N	c	#C7D3E7",
	"O	c	#D8DFEB",
	"P	c	#DFE5EE",
	"Q	c	#E7EAF1",
	"R	c	#EBEDF1",
	"S	c	#EEF0F3",
	"T	c	#F2F2F4",
	"U	c	#F5F5F5",
	"V	c	#000000",
	"   000000000000000000   ",
	"   0UUUUUUUUUUUUUUUU0   ",
	"   0UUUQHGOUUUUUUUUU0   ",
	"   0UUUO9ALUUUUUUUUU0   ",
	"   0UUUOCAKOPUUUUUUU0   ",
	"   0R1227ADDBPUUUUUU0   ",
	"   0Q5AAAAAA9OUUUUUU0   ",
	"   0TJGF8AEGIRUUUUUU0   ",
	"   0UUUN6ALUUUUUUUUU0   ",
	"   0UUUN43LUUUUUUUUU0   ",
	"   0UUUTMLSUUUUUUUUU0   ",
	"   0UUUUUUUUUUUUUUUU0   ",
	"   0UUUUUUUUUUUUUUUU0   ",
	"   0UUUUUUUUUUUUUUUU0   ",
	"   0UUUUUUUUUUUUUUUU0   ",
	"   0UUUUUUUUUUUUUUUU0   ",
	"   0UUUUUUUUUUUUUUUU0   ",
	"   0UUUUUUUUUUUUUUUU0   ",
	"   0UUUUUUUUUUUUUUUU0   ",
	"   0UUUUUUUUUUUUUUUU0   ",
	"   0UUUUUUUUUUUUUUUU0   ",
	"   0UUUUUUUUUUUUUUUU0   ",
	"   0UUUUUUUUUUUUUUUU0   ",
	"   000000000000000000   "};

static char *doc_new_x32[] = {
	"32 32 36 1",
	" 	c	None",
	"0	c	#666666",
	"1	c	#0082CC",
	"2	c	#0186D3",
	"3	c	#008BDA",
	"4	c	#0291E4",
	"5	c	#0294E7",
	"6	c	#0395EA",
	"7	c	#0298EE",
	"8	c	#039BF3",
	"9	c	#039DF6",
	"A	c	#049CF4",
	"B	c	#039FF8",
	"C	c	#04A2FE",
	"D	c	#05A3FF",
	"E	c	#298AD4",
	"F	c	#408FD5",
	"G	c	#5395D7",
	"H	c	#5997D4",
	"I	c	#5897D7",
	"J	c	#5E96D1",
	"K	c	#7CA5D5",
	"L	c	#84A9D7",
	"M	c	#9EB8DD",
	"N	c	#AAC0E0",
	"O	c	#B4C6E1",
	"P	c	#CBD6E7",
	"Q	c	#CFD9E9",
	"R	c	#D8DFEB",
	"S	c	#DCE2ED",
	"T	c	#DFE5EE",
	"U	c	#E3E8EF",
	"V	c	#E7EAF1",
	"W	c	#F2F2F4",
	"X	c	#F5F5F5",
	"Y	c	#000000",
	"    000000000000000000000000    ",
	"    0XXXXXXXXXXXXXXXXXXXXXX0    ",
	"    0XXXXXSRRRWXXXXXXXXXXXX0    ",
	"    0XXXXXH552VXXXXXXXXXXXX0    ",
	"    0XXXXXGDD3VXXXXXXXXXXXX0    ",
	"    0XXXXXIDD3VXXXXXXXXXXXX0    ",
	"    0XQOOOFDD3KLLNXXXXXXXXX0    ",
	"    0XM788ACC9888LXXXXXXXXX0    ",
	"    0XMBDDDDDDDDDLXXXXXXXXX0    ",
	"    0XM4556DD7555LXXXXXXXXX0    ",
	"    0XURRR2DD3PRRTXXXXXXXXX0    ",
	"    0XXXXXEDD3VXXXXXXXXXXXX0    ",
	"    0XXXXXGDD3VXXXXXXXXXXXX0    ",
	"    0XXXXXJ111VXXXXXXXXXXXX0    ",
	"    0XXXXXXXXXXXXXXXXXXXXXX0    ",
	"    0XXXXXXXXXXXXXXXXXXXXXX0    ",
	"    0XXXXXXXXXXXXXXXXXXXXXX0    ",
	"    0XXXXXXXXXXXXXXXXXXXXXX0    ",
	"    0XXXXXXXXXXXXXXXXXXXXXX0    ",
	"    0XXXXXXXXXXXXXXXXXXXXXX0    ",
	"    0XXXXXXXXXXXXXXXXXXXXXX0    ",
	"    0XXXXXXXXXXXXXXXXXXXXXX0    ",
	"    0XXXXXXXXXXXXXXXXXXXXXX0    ",
	"    0XXXXXXXXXXXXXXXXXXXXXX0    ",
	"    0XXXXXXXXXXXXXXXXXXXXXX0    ",
	"    0XXXXXXXXXXXXXXXXXXXXXX0    ",
	"    0XXXXXXXXXXXXXXXXXXXXXX0    ",
	"    0XXXXXXXXXXXXXXXXXXXXXX0    ",
	"    0XXXXXXXXXXXXXXXXXXXXXX0    ",
	"    0XXXXXXXXXXXXXXXXXXXXXX0    ",
	"    0XXXXXXXXXXXXXXXXXXXXXX0    ",
	"    000000000000000000000000    "};

static char **doc_new_xpm[3] = { doc_new_x16, doc_new_x24, doc_new_x32 };

