static char *doc_save_x16[] = {
	"16 16 9 1",
	" 	c	None",
	"0	c	#000000",
	"1	c	#0066FF",
	"2	c	#333333",
	"3	c	#333366",
	"4	c	#336666",
	"5	c	#666666",
	"6	c	#666699",
	"7	c	#669999",
	"                ",
	" 111            ",
	" 1111111        ",
	" 11111111       ",
	"      111 1     ",
	"     111111     ",
	"      11111     ",
	"       111      ",
	"       11       ",
	" 22222222222222 ",
	" 27457745764572 ",
	" 27346734763472 ",
	" 27346734763472 ",
	" 22222222222222 ",
	"                ",
	"                "};

static char *doc_save_x24[] = {
	"24 24 9 1",
	" 	c	None",
	"0	c	#000000",
	"1	c	#0066FF",
	"2	c	#333333",
	"3	c	#333366",
	"4	c	#666699",
	"5	c	#669999",
	"6	c	#6699CC",
	"7	c	#99CCCC",
	"                        ",
	"                        ",
	"  11111111              ",
	"  1111111111            ",
	"  11111111111           ",
	"        111111          ",
	"          1111          ",
	"        111111111       ",
	"        111111111       ",
	"         1111111        ",
	"          11111         ",
	"          1111          ",
	"           111          ",
	"  22222222223222222222  ",
	" 2777777777777777777772 ",
	" 2555555556565656565652 ",
	" 2555555556464646464642 ",
	" 2555555556464646464642 ",
	" 2555555556464646464642 ",
	" 2555555556464646464642 ",
	" 2222222222222222222222 ",
	"                        ",
	"                        ",
	"                        "};

static char *doc_save_x32[] = {
	"32 32 12 1",
	" 	c	None",
	"0	c	#000000",
	"1	c	#0066FF",
	"2	c	#333333",
	"3	c	#333366",
	"4	c	#336666",
	"5	c	#666666",
	"6	c	#666699",
	"7	c	#669999",
	"8	c	#6699CC",
	"9	c	#9999CC",
	"A	c	#99CCCC",
	"                                ",
	"                                ",
	"                                ",
	"  111111111111                  ",
	"  11111111111111                ",
	"  111111111111111               ",
	"  1111111111111111              ",
	"            111111              ",
	"              1111              ",
	"           11111111111          ",
	"           11111111111          ",
	"           11111111111          ",
	"            111111111           ",
	"            111111111           ",
	"             1111111            ",
	"              11111             ",
	"               111              ",
	"                1               ",
	"  2222222222222222222222222222  ",
	"  2AAAAAAAAAAAAAAAAAAAAAAAAAA2  ",
	"  277A5AA4A77A5AA4A87A6AA2A872  ",
	"  277A49A3A77A49A3A86A49A0A862  ",
	"  277A49A3A77A49A3A86A49A0A862  ",
	"  277A49A3A77A49A3A86A49A0A862  ",
	"  277A49A3A77A49A3A86A49A0A862  ",
	"  277A49A3A77A49A3A86A49A0A862  ",
	"  288A7AA6A88A7AA6A97A7AA4A972  ",
	"  2222222222222222222222222222  ",
	"                                ",
	"                                ",
	"                                ",
	"                                "};

static char **doc_save_xpm[3] = { doc_save_x16, doc_save_x24, doc_save_x32 };

