static char *doc_import_x16[] = {
	"16 16 22 1",
	" 	c	None",
	"0	c	#01381A",
	"1	c	#00411D",
	"2	c	#497654",
	"3	c	#646765",
	"4	c	#666666",
	"5	c	#4C905E",
	"6	c	#539263",
	"7	c	#84A98C",
	"8	c	#8BAD92",
	"9	c	#9BB6A0",
	"A	c	#9EB8A3",
	"B	c	#AFC4B4",
	"C	c	#B4C7B8",
	"D	c	#B9C9BC",
	"E	c	#BECDC1",
	"F	c	#C7D3C9",
	"G	c	#CBD7CD",
	"H	c	#EBEDEB",
	"I	c	#EEF0EE",
	"J	c	#F5F5F5",
	"K	c	#000000",
	"   4444444444444",
	"   4JJJJJJJJJJJ4",
	"   4JJJJJJJJJJJ4",
	"   4JJJJJJJJJJJ4",
	"   4JJJJJJJJJJJ4",
	"   3FJJJJJJJJJJ4",
	"   4B8IJJJJJJJJ4",
	"0112C95GJJJJJJJ4",
	"0112CA6GJJJJJJJ4",
	"   4E7HJJJJJJJJ4",
	"   3DJJJJJJJJJJ4",
	"   4JJJJJJJJJJJ4",
	"   4JJJJJJJJJJJ4",
	"   4JJJJJJJJJJJ4",
	"   4JJJJJJJJJJJ4",
	"   4444444444444"};

static char *doc_import_x24[] = {
	"24 24 28 1",
	" 	c	None",
	"0	c	#003017",
	"1	c	#00411D",
	"2	c	#01612D",
	"3	c	#337C49",
	"4	c	#666666",
	"5	c	#02823B",
	"6	c	#01823C",
	"7	c	#448E58",
	"8	c	#539363",
	"9	c	#5F976D",
	"A	c	#5F986D",
	"B	c	#73A07E",
	"C	c	#7CA585",
	"D	c	#84A98C",
	"E	c	#8BAD92",
	"F	c	#92B199",
	"G	c	#AAC0AF",
	"H	c	#B9C9BC",
	"I	c	#CBD6CD",
	"J	c	#CFD9D1",
	"K	c	#D4DCD5",
	"L	c	#D8DFD9",
	"M	c	#E7EAE8",
	"N	c	#EEF0EE",
	"O	c	#F2F2F2",
	"P	c	#F5F5F5",
	"Q	c	#000000",
	"      444444444444444444",
	"     4PPPPPPPPPPPPPPPPP4",
	"     4PPPPPPPPPPPPPPPPP4",
	"     4PPPPPPPPPPPPPPPPP4",
	"     4PPPPPPPPPPPPPPPPP4",
	"     4PPPPPPPPPPPPPPPPP4",
	"     4PPPPPPPPPPPPPPPPP4",
	"     4PPPPPPPPPPPPPPPPP4",
	"     4JGOPPPPPPPPPPPPPP4",
	"     4B6CMPPPPPPPPPPPPP4",
	"     4NF67JPPPPPPPPPPPP4",
	"16666666666JPPPPPPPPPPP4",
	"022223DD965KPPPPPPPPPPP4",
	"     4ND68LPPPPPPPPPPPP4",
	"     4A6ENPPPPPPPPPPPPP4",
	"     4IHPPPPPPPPPPPPPPP4",
	"     4PPPPPPPPPPPPPPPPP4",
	"     4PPPPPPPPPPPPPPPPP4",
	"     4PPPPPPPPPPPPPPPPP4",
	"     4PPPPPPPPPPPPPPPPP4",
	"     4PPPPPPPPPPPPPPPPP4",
	"     4PPPPPPPPPPPPPPPPP4",
	"     4PPPPPPPPPPPPPPPPP4",
	"     4444444444444444444"};

static char *doc_import_x32[] = {
	"32 32 31 1",
	" 	c	None",
	"0	c	#596E5D",
	"1	c	#646765",
	"2	c	#666666",
	"3	c	#02833C",
	"4	c	#298847",
	"5	c	#2D8849",
	"6	c	#30894B",
	"7	c	#448E58",
	"8	c	#539363",
	"9	c	#5F986D",
	"A	c	#6A9C76",
	"B	c	#73A07E",
	"C	c	#7CA585",
	"D	c	#90B197",
	"E	c	#92B199",
	"F	c	#9EB9A4",
	"G	c	#BECDC1",
	"H	c	#C4D1C6",
	"I	c	#C7D3C9",
	"J	c	#D4DCD5",
	"K	c	#D5DDD6",
	"L	c	#D8DFD9",
	"M	c	#DCE2DD",
	"N	c	#DFE5E0",
	"O	c	#E3E8E4",
	"P	c	#EBEDEB",
	"Q	c	#EEF0EE",
	"R	c	#F2F2F2",
	"S	c	#F5F5F5",
	"T	c	#000000",
	"        22222222222222222222222 ",
	"       2SSSSSSSSSSSSSSSSSSSSSSS2",
	"       2SSSSSSSSSSSSSSSSSSSSSSS2",
	"       2SSSSSSSSSSSSSSSSSSSSSSS2",
	"       2SSSSSSSSSSSSSSSSSSSSSSS2",
	"       2SSSSSSSSSSSSSSSSSSSSSSS2",
	"       2SSSSSSSSSSSSSSSSSSSSSSS2",
	"       2SSSSSSSSSSSSSSSSSSSSSSS2",
	"       2SSSSSSSSSSSSSSSSSSSSSSS2",
	"       2SSSSSSSSSSSSSSSSSSSSSSS2",
	"       2SQSSSSSSSSSSSSSSSSSSSSS2",
	"       2L6ISSSSSSSSSSSSSSSSSSSS2",
	"       1A33FRSSSSSSSSSSSSSSSSSS2",
	"       2OB33AOSSSSSSSSSSSSSSSSS2",
	"       0LKD334HSSSSSSSSSSSSSSSS2",
	" 33333333333333NSSSSSSSSSSSSSSS2",
	" 33333333333335PSSSSSSSSSSSSSSS2",
	"       2SPC339MSSSSSSSSSSSSSSSS2",
	"       2J733EQSSSSSSSSSSSSSSSSS2",
	"       1836GSSSSSSSSSSSSSSSSSSS2",
	"       2L9MSSSSSSSSSSSSSSSSSSSS2",
	"       2SSSSSSSSSSSSSSSSSSSSSSS2",
	"       2SSSSSSSSSSSSSSSSSSSSSSS2",
	"       2SSSSSSSSSSSSSSSSSSSSSSS2",
	"       2SSSSSSSSSSSSSSSSSSSSSSS2",
	"       2SSSSSSSSSSSSSSSSSSSSSSS2",
	"       2SSSSSSSSSSSSSSSSSSSSSSS2",
	"       2SSSSSSSSSSSSSSSSSSSSSSS2",
	"       2SSSSSSSSSSSSSSSSSSSSSSS2",
	"       2SSSSSSSSSSSSSSSSSSSSSSS2",
	"       2SSSSSSSSSSSSSSSSSSSSSSS2",
	"        22222222222222222222222 "};

static char **doc_import_xpm[3] = { doc_import_x16, doc_import_x24, doc_import_x32 };

