static char *doc_export_x16[] = {
	"16 16 13 1",
	" 	c	None",
	"0	c	#000000",
	"1	c	#666666",
	"2	c	#993333",
	"3	c	#996666",
	"4	c	#999999",
	"5	c	#CC0000",
	"6	c	#CC6666",
	"7	c	#CC9999",
	"8	c	#CCCCCC",
	"9	c	#FFCCCC",
	"A	c	#FFFFFF",
	"B	c	#C0C0C0",
	"1111111111111   ",
	"1AAAAAAAAAAA1   ",
	"1AAAAAAAAAAA1   ",
	"1A444444444A1   ",
	"1A488888884A1   ",
	"1A488888884A2   ",
	"1A488888884A25  ",
	"1A48888877692555",
	"1A488888B769255 ",
	"1A488888884A25  ",
	"1A488888884A3   ",
	"1A444444444A1   ",
	"1AAAAAAAAAAA1   ",
	"1AAAAAAAAAAA1   ",
	"1AAAAAAAAAAA1   ",
	"1111111111111   "};

static char *doc_export_x24[] = {
	"24 24 14 1",
	" 	c	None",
	"0	c	#000000",
	"1	c	#666666",
	"2	c	#993333",
	"3	c	#996666",
	"4	c	#999999",
	"5	c	#CC0000",
	"6	c	#CC3333",
	"7	c	#CC6666",
	"8	c	#CC9999",
	"9	c	#CCCCCC",
	"A	c	#FFCCCC",
	"B	c	#FFFFFF",
	"C	c	#C0C0C0",
	" 111111111111111111     ",
	"1BBBBBBBBBBBBBBBBB1     ",
	"1BBBBBBBBBBBBBBBBB1     ",
	"1BBBBBBBBBBBBBBBBB1     ",
	"1BBBBBBBBBBBBBBBBB1     ",
	"1BBB444444444444BB1     ",
	"1BB4999999999994BB1     ",
	"1BB4999999999994BB1     ",
	"1BB4999999999994BB25    ",
	"1BB4999999999994BB655   ",
	"1BB4999999999994BB15555 ",
	"1BB499999999C55555555555",
	"1BB4999999999887AA25555 ",
	"1BB4999999999994BB3555  ",
	"1BB4999999999994BB655   ",
	"1BB4999999999994BB35    ",
	"1BB4999999999994BB1     ",
	"1BB4444444444444BB1     ",
	"1BBBBBBBBBBBBBBBBB1     ",
	"1BBBBBBBBBBBBBBBBB1     ",
	"1BBBBBBBBBBBBBBBBB1     ",
	"1BBBBBBBBBBBBBBBBB1     ",
	"1BBBBBBBBBBBBBBBBB1     ",
	" 111111111111111111     "};

static char *doc_export_x32[] = {
	"32 32 12 1",
	" 	c	None",
	"0	c	#000000",
	"1	c	#666666",
	"2	c	#993333",
	"3	c	#999999",
	"4	c	#CC0000",
	"5	c	#CC3333",
	"6	c	#CC6666",
	"7	c	#CC9999",
	"8	c	#CCCCCC",
	"9	c	#FFCCCC",
	"A	c	#FFFFFF",
	"                                ",
	" 111111111111111111111111       ",
	" 1AAAAAAAAAAAAAAAAAAAAAA1       ",
	" 1AAAAAAAAAAAAAAAAAAAAAA1       ",
	" 1AAAAAAAAAAAAAAAAAAAAAA1       ",
	" 1AAAAAAAAAAAAAAAAAAAAAA1       ",
	" 1AAAAAAAAAAAAAAAAAAAAAA1       ",
	" 1AAA3333333333333333AAA1       ",
	" 1AA388888888888888883AA1       ",
	" 1AA388888888888888883AA1       ",
	" 1AA388888888888888883AA1       ",
	" 1AA388888888888888883AA244     ",
	" 1AA388888888888888883AA5444    ",
	" 1AA388888888888888883AA144444  ",
	" 1AA388888888888877776992444444 ",
	" 1AA3888888888888444444444444444",
	" 1AA388888888888866666775444444 ",
	" 1AA388888888888888883AA1 4444  ",
	" 1AA388888888888888883AA24444   ",
	" 1AA388888888888888883AA544     ",
	" 1AA388888888888888883AA14      ",
	" 1AA388888888888888883AA1       ",
	" 1AA388888888888888883AA1       ",
	" 1AA333333333333333333AA1       ",
	" 1AAAAAAAAAAAAAAAAAAAAAA1       ",
	" 1AAAAAAAAAAAAAAAAAAAAAA1       ",
	" 1AAAAAAAAAAAAAAAAAAAAAA1       ",
	" 1AAAAAAAAAAAAAAAAAAAAAA1       ",
	" 1AAAAAAAAAAAAAAAAAAAAAA1       ",
	" 1AAAAAAAAAAAAAAAAAAAAAA1       ",
	" 111111111111111111111111       ",
	"                                "};

static char **doc_export_xpm[3] = { doc_export_x16, doc_export_x24, doc_export_x32 };

