static char *doc_recent_x16[] = {
	"16 16 11 1",
	" 	c	None",
	"0	c	#000000",
	"1	c	#3366FF",
	"2	c	#666666",
	"3	c	#6666FF",
	"4	c	#6699FF",
	"5	c	#9999FF",
	"6	c	#99CCFF",
	"7	c	#CCCCFF",
	"8	c	#CCFFFF",
	"9	c	#FFFFFF",
	"  222222222222  ",
	"  299777999992  ",
	"  294654799992  ",
	"  257759399992  ",
	"  247915479992  ",
	"  277999499992  ",
	"  295454899992  ",
	"  299779999992  ",
	"  299999999992  ",
	"  299999999992  ",
	"  299999999992  ",
	"  299999999992  ",
	"  299999999992  ",
	"  299999999992  ",
	"  299999999992  ",
	"  222222222222  "};

static char *doc_recent_x24[] = {
	"24 24 12 1",
	" 	c	None",
	"0	c	#000000",
	"1	c	#0066FF",
	"2	c	#3366FF",
	"3	c	#666666",
	"4	c	#6666FF",
	"5	c	#6699FF",
	"6	c	#9999FF",
	"7	c	#99CCFF",
	"8	c	#CCCCFF",
	"9	c	#CCFFFF",
	"A	c	#FFFFFF",
	"   333333333333333333   ",
	"   3AAAAAAAAAAAAAAAA3   ",
	"   3AAA8768AAAAAAAAA3   ",
	"   3AA758875AAAAAAAA3   ",
	"   3A86AA5AA5AAAAAAA3   ",
	"   3A5AAA4AA68AAAAAA3   ",
	"   3A1AAA21888AAAAAA3   ",
	"   3A5AAAAAA68AAAAAA3   ",
	"   3A87AAAAA5AAAAAAA3   ",
	"   3AA7688759AAAAAAA3   ",
	"   3AAA8768AAAAAAAAA3   ",
	"   3AAAAAAAAAAAAAAAA3   ",
	"   3AAAAAAAAAAAAAAAA3   ",
	"   3AAAAAAAAAAAAAAAA3   ",
	"   3AAAAAAAAAAAAAAAA3   ",
	"   3AAAAAAAAAAAAAAAA3   ",
	"   3AAAAAAAAAAAAAAAA3   ",
	"   3AAAAAAAAAAAAAAAA3   ",
	"   3AAAAAAAAAAAAAAAA3   ",
	"   3AAAAAAAAAAAAAAAA3   ",
	"   3AAAAAAAAAAAAAAAA3   ",
	"   3AAAAAAAAAAAAAAAA3   ",
	"   3AAAAAAAAAAAAAAAA3   ",
	"   333333333333333333   "};

static char *doc_recent_x32[] = {
	"32 32 12 1",
	" 	c	None",
	"0	c	#000000",
	"1	c	#0066FF",
	"2	c	#3366FF",
	"3	c	#666666",
	"4	c	#6666FF",
	"5	c	#6699FF",
	"6	c	#9999FF",
	"7	c	#99CCFF",
	"8	c	#CCCCFF",
	"9	c	#CCFFFF",
	"A	c	#FFFFFF",
	"    333333333333333333333333    ",
	"    3AAAAAAAAAAAAAAAAAAAAAA3    ",
	"    3AAAAAAAAAAAAAAAAAAAAAA3    ",
	"    3AAAAA86668AAAAAAAAAAAA3    ",
	"    3AAA95788866AAAAAAAAAAA3    ",
	"    3AAA5AAA7AA86AAAAAAAAAA3    ",
	"    3AA68AAA4AAA68AAAAAAAAA3    ",
	"    3AA2AAAA4AAA86AAAAAAAAA3    ",
	"    3A85AAAA266AA5AAAAAAAAA3    ",
	"    3AA2AAAA988A86AAAAAAAAA3    ",
	"    3AA5AAAAAAAA78AAAAAAAAA3    ",
	"    3AA86AAAAAA95AAAAAAAAAA3    ",
	"    3AAA858AAA85AAAAAAAAAAA3    ",
	"    3AAAA861147AAAAAAAAAAAA3    ",
	"    3AAAAAAAAAAAAAAAAAAAAAA3    ",
	"    3AAAAAAAAAAAAAAAAAAAAAA3    ",
	"    3AAAAAAAAAAAAAAAAAAAAAA3    ",
	"    3AAAAAAAAAAAAAAAAAAAAAA3    ",
	"    3AAAAAAAAAAAAAAAAAAAAAA3    ",
	"    3AAAAAAAAAAAAAAAAAAAAAA3    ",
	"    3AAAAAAAAAAAAAAAAAAAAAA3    ",
	"    3AAAAAAAAAAAAAAAAAAAAAA3    ",
	"    3AAAAAAAAAAAAAAAAAAAAAA3    ",
	"    3AAAAAAAAAAAAAAAAAAAAAA3    ",
	"    3AAAAAAAAAAAAAAAAAAAAAA3    ",
	"    3AAAAAAAAAAAAAAAAAAAAAA3    ",
	"    3AAAAAAAAAAAAAAAAAAAAAA3    ",
	"    3AAAAAAAAAAAAAAAAAAAAAA3    ",
	"    3AAAAAAAAAAAAAAAAAAAAAA3    ",
	"    3AAAAAAAAAAAAAAAAAAAAAA3    ",
	"    3AAAAAAAAAAAAAAAAAAAAAA3    ",
	"    333333333333333333333333    "};

static char **doc_recent_xpm[3] = { doc_recent_x16, doc_recent_x24, doc_recent_x32 };

