static char *doc_revert_x16[] = {
	"16 16 17 1",
	" 	c	None",
	"0	c	#000000",
	"1	c	#666666",
	"2	c	#996633",
	"3	c	#CC6633",
	"4	c	#CC9900",
	"5	c	#CC9933",
	"6	c	#CC9966",
	"7	c	#CC9999",
	"8	c	#CCCC33",
	"9	c	#CCCC99",
	"A	c	#CCCCCC",
	"B	c	#FFCC00",
	"C	c	#FFCC33",
	"D	c	#FFCCCC",
	"E	c	#FFFFCC",
	"F	c	#FFFFFF",
	"  111111111111  ",
	"  1FFFFFFFFFF1  ",
	"  1FFFFFFFFFF1  ",
	"  1FFFADFFFFF1  ",
	"  1FF639FFFFF1  ",
	"  1D5BB529FFF1  ",
	"  1F65B5B86FF1  ",
	"  1FF93665C7F1  ",
	"  1FFFDAFA55E1  ",
	"  1FFFFFFF7491  ",
	"  1FFFFFFFD561  ",
	"  1FFFFFFFF251  ",
	"  1FFFFFFFF621  ",
	"  1FFFFFFFFFF1  ",
	"  1FFFFFFFFFF1  ",
	"  111111111111  "};

static char *doc_revert_x24[] = {
	"24 24 17 1",
	" 	c	None",
	"0	c	#000000",
	"1	c	#666666",
	"2	c	#996600",
	"3	c	#996633",
	"4	c	#CC6633",
	"5	c	#CC9900",
	"6	c	#CC9933",
	"7	c	#CC9966",
	"8	c	#CC9999",
	"9	c	#CCCC99",
	"A	c	#CCCCCC",
	"B	c	#FFCC00",
	"C	c	#FFCC33",
	"D	c	#FFCCCC",
	"E	c	#FFFFCC",
	"F	c	#FFFFFF",
	"   111111111111111111   ",
	"   1FFFFFFFFFFFFFFFF1   ",
	"   1FFFFFFFFFFFFFFFF1   ",
	"   1FFFFFFFFFFFFFFFF1   ",
	"   1FFFFFFFFFFFFFFFF1   ",
	"   1FFFFFD8FFFFFFFFF1   ",
	"   1FFFF863FFFFFFFFF1   ",
	"   1FFD6CB37AFFFFFFF1   ",
	"   1FA6BBBBB568FFFFF1   ",
	"   1FF76BBBBBBB7FFFF1   ",
	"   1FFFA6B2736BB7FFF1   ",
	"   1FFFFE72FF96B69FF1   ",
	"   1FFFFFF9FFF96B3FF1   ",
	"   1FFFFFFFFFFF7B6DF1   ",
	"   1FFFFFFFFFFFD6B8F1   ",
	"   1FFFFFFFFFFFF7B3F1   ",
	"   1FFFFFFFFFFFFA62F1   ",
	"   1FFFFFFFFFFFFE66F1   ",
	"   1FFFFFFFFFFFFF34E1   ",
	"   1FFFFFFFFFFFFFAAF1   ",
	"   1FFFFFFFFFFFFFFFF1   ",
	"   1FFFFFFFFFFFFFFFF1   ",
	"   1FFFFFFFFFFFFFFFF1   ",
	"   111111111111111111   "};

static char *doc_revert_x32[] = {
	"32 32 17 1",
	" 	c	None",
	"0	c	#000000",
	"1	c	#666666",
	"2	c	#996600",
	"3	c	#996633",
	"4	c	#CC6633",
	"5	c	#CC9900",
	"6	c	#CC9933",
	"7	c	#CC9966",
	"8	c	#CC9999",
	"9	c	#CCCC99",
	"A	c	#CCCCCC",
	"B	c	#FFCC00",
	"C	c	#FFCC33",
	"D	c	#FFCCCC",
	"E	c	#FFFFCC",
	"F	c	#FFFFFF",
	"    111111111111111111111111    ",
	"    1FFFFFFFFFFFFFFFFFFFFFF1    ",
	"    1FFFFFFFFFFFFFFFFFFFFFF1    ",
	"    1FFFFFFFFFFFFFFFFFFFFFF1    ",
	"    1FFFFFFFFFFFFFFFFFFFFFF1    ",
	"    1FFFFFFFFFFFFFFFFFFFFFF1    ",
	"    1FFFFFFFFFFFFFFFFFFFFFF1    ",
	"    1FFFFFFFE7DFFFFFFFFFFFF1    ",
	"    1FFFFFF965AFFFFFFFFFFFF1    ",
	"    1FFFFE76B59FFFFFFFFFFFF1    ",
	"    1FFF96BBBB6328FFFFFFFFF1    ",
	"    1FF86BBBBBBBBB68FFFFFFF1    ",
	"    1FFF76BBBBBBBBBC7FFFFFF1    ",
	"    1FFFFA6BB5266BBBB7FFFFF1    ",
	"    1FFFFFF7C5AFA66BBC8FFFF1    ",
	"    1FFFFFFF849FFF96BB6DFFF1    ",
	"    1FFFFFFFFAAFFFF96BB7FFF1    ",
	"    1FFFFFFFFFFFFFFF7BB6FFF1    ",
	"    1FFFFFFFFFFFFFFFF6B6AFF1    ",
	"    1FFFFFFFFFFFFFFFF7BB7FF1    ",
	"    1FFFFFFFFFFFFFFFFD6B3FF1    ",
	"    1FFFFFFFFFFFFFFFFF3B3FF1    ",
	"    1FFFFFFFFFFFFFFFFF8B6FF1    ",
	"    1FFFFFFFFFFFFFFFFFA66DF1    ",
	"    1FFFFFFFFFFFFFFFFFD66AF1    ",
	"    1FFFFFFFFFFFFFFFFFF87EF1    ",
	"    1FFFFFFFFFFFFFFFFFFFFFF1    ",
	"    1FFFFFFFFFFFFFFFFFFFFFF1    ",
	"    1FFFFFFFFFFFFFFFFFFFFFF1    ",
	"    1FFFFFFFFFFFFFFFFFFFFFF1    ",
	"    1FFFFFFFFFFFFFFFFFFFFFF1    ",
	"    111111111111111111111111    "};

static char **doc_revert_xpm[3] = { doc_revert_x16, doc_revert_x24, doc_revert_x32 };

