static char *doc_import_mod_x16[] = {
	"16 16 23 1",
	" 	c	None",
	"0	c	#01381A",
	"1	c	#00411D",
	"2	c	#497654",
	"3	c	#646765",
	"4	c	#666666",
	"5	c	#3F8B54",
	"6	c	#458C59",
	"7	c	#4D885C",
	"8	c	#568A63",
	"9	c	#618C6B",
	"A	c	#648D6E",
	"B	c	#9C9C9C",
	"C	c	#ADBBAF",
	"D	c	#AFC4B4",
	"E	c	#B4C7B8",
	"F	c	#B9C9BC",
	"G	c	#BECDC1",
	"H	c	#C7CAC8",
	"I	c	#C7D3C9",
	"J	c	#D0D0D0",
	"K	c	#F5F5F5",
	"L	c	#000000",
	"   4444444444444",
	"   4KKKKKKKKKKK4",
	"   4KKKKKKKKKKK4",
	"   4KKKKKKKKKKK4",
	"   4KBBBBBBBBBK4",
	"   3IBJJJJJJJBK4",
	"   4D8HJJJJJJBK4",
	"0112E96CJJJJJBK4",
	"0112EA5CJJJJJBK4",
	"   4G7HJJJJJJBK4",
	"   3FBJJJJJJJBK4",
	"   4KBJJJJJJJBK4",
	"   4KKBBBBBBBBK4",
	"   4KKKKKKKKKKK4",
	"   4KKKKKKKKKKK4",
	"   4444444444444"};

static char *doc_import_mod_x24[] = {
	"24 24 32 1",
	" 	c	None",
	"0	c	#002411",
	"1	c	#003017",
	"2	c	#01612D",
	"3	c	#337C49",
	"4	c	#666666",
	"5	c	#01823C",
	"6	c	#3C8651",
	"7	c	#388A50",
	"8	c	#478759",
	"9	c	#458D59",
	"A	c	#528960",
	"B	c	#5F986D",
	"C	c	#9A9B9A",
	"D	c	#9C9C9C",
	"E	c	#84A98C",
	"F	c	#8BAD92",
	"G	c	#98B59E",
	"H	c	#A4BDA9",
	"I	c	#B0BCB2",
	"J	c	#B3BEB6",
	"K	c	#B7C0B9",
	"L	c	#B4C7B8",
	"M	c	#C1C6C2",
	"N	c	#C7CAC8",
	"O	c	#CFD9D1",
	"P	c	#D0D0D0",
	"Q	c	#D8DFD9",
	"R	c	#EEF0EE",
	"S	c	#F2F2F2",
	"T	c	#F5F5F5",
	"U	c	#000000",
	"      444444444444444444",
	"     4TTTTTTTTTTTTTTTTT4",
	"     4TTTTTTTTTTTTTTTTT4",
	"     4TTTTTTTTTTTTTTTTT4",
	"     4TTTTTTTTTTTTTTTTT4",
	"     4TTTTTTTTTTTTTTTTT4",
	"     4TTDDDDDDDDDDDDDTT4",
	"     4TTDPPPPPPPPPPPDTT4",
	"     4QHCPPPPPPPPPPPDTT4",
	"     4E58MPPPPPPPPPPDTT4",
	"     4SG57IPPPPPPPPPDTT4",
	"15555555555IPPPPPPPPDTT4",
	"022223EE655JPPPPPPPPDTT4",
	"     4RF59KPPPPPPPPPDTT4",
	"     4B5ANPPPPPPPPPPDTT4",
	"     4OLDPPPPPPPPPPPDTT4",
	"     4TTDPPPPPPPPPPPDTT4",
	"     4TTDPPPPPPPPPPPDTT4",
	"     4TTTDDDDDDDDDDDDTT4",
	"     4TTTTTTTTTTTTTTTTT4",
	"     4TTTTTTTTTTTTTTTTT4",
	"     4TTTTTTTTTTTTTTTTT4",
	"     4TTTTTTTTTTTTTTTTT4",
	"     4444444444444444444"};

static char *doc_import_mod_x32[] = {
	"32 32 34 1",
	" 	c	None",
	"0	c	#596E5D",
	"1	c	#646765",
	"2	c	#666666",
	"3	c	#02833C",
	"4	c	#218544",
	"5	c	#458D59",
	"6	c	#448E58",
	"7	c	#5F8C6A",
	"8	c	#509061",
	"9	c	#539363",
	"A	c	#5F986D",
	"B	c	#75907B",
	"C	c	#759D7E",
	"D	c	#73A07E",
	"E	c	#7CA585",
	"F	c	#9C9C9C",
	"G	c	#95B39C",
	"H	c	#9CB0A0",
	"I	c	#B7C0B9",
	"J	c	#BAC3BC",
	"K	c	#BEC5BF",
	"L	c	#CACCCB",
	"M	c	#C2D0C5",
	"N	c	#D0D0D0",
	"O	c	#D4DCD5",
	"P	c	#D5DDD6",
	"Q	c	#D8DFD9",
	"R	c	#DCE2DD",
	"S	c	#E7EAE8",
	"T	c	#EBEDEB",
	"U	c	#EEF0EE",
	"V	c	#F5F5F5",
	"W	c	#000000",
	"        22222222222222222222222 ",
	"       2VVVVVVVVVVVVVVVVVVVVVVV2",
	"       2VVVVVVVVVVVVVVVVVVVVVVV2",
	"       2VVVVVVVVVVVVVVVVVVVVVVV2",
	"       2VVVVVVVVVVVVVVVVVVVVVVV2",
	"       2VVVVVVVVVVVVVVVVVVVVVVV2",
	"       2VVVVVVVVVVVVVVVVVVVVVVV2",
	"       2VVVVVVVVVVVVVVVVVVVVVVV2",
	"       2VVVFFFFFFFFFFFFFFFFFVVV2",
	"       2VVVFNNNNNNNNNNNNNNNFVVV2",
	"       2VUVFNNNNNNNNNNNNNNNFVVV2",
	"       2R6MFNNNNNNNNNNNNNNNFVVV2",
	"       1D337LNNNNNNNNNNNNNNFVVV2",
	"       2SE338JNNNNNNNNNNNNNFVVV2",
	"       0QPG334HNNNNNNNNNNNNFVVV2",
	" 33333333333333INNNNNNNNNNNFVVV2",
	" 33333333333333KNNNNNNNNNNNFVVV2",
	"       2VTE335INNNNNNNNNNNNFVVV2",
	"       2O633CLNNNNNNNNNNNNNFVVV2",
	"       1933BNNNNNNNNNNNNNNNFVVV2",
	"       2QARFNNNNNNNNNNNNNNNFVVV2",
	"       2VVVFNNNNNNNNNNNNNNNFVVV2",
	"       2VVVFNNNNNNNNNNNNNNNFVVV2",
	"       2VVVFNNNNNNNNNNNNNNNFVVV2",
	"       2VVVFFFFFFFFFFFFFFFFFVVV2",
	"       2VVVVVVVVVVVVVVVVVVVVVVV2",
	"       2VVVVVVVVVVVVVVVVVVVVVVV2",
	"       2VVVVVVVVVVVVVVVVVVVVVVV2",
	"       2VVVVVVVVVVVVVVVVVVVVVVV2",
	"       2VVVVVVVVVVVVVVVVVVVVVVV2",
	"       2VVVVVVVVVVVVVVVVVVVVVVV2",
	"        22222222222222222222222 "};

static char **doc_import_mod_xpm[3] = { doc_import_mod_x16, doc_import_mod_x24, doc_import_mod_x32 };

