static char *down_x16[] = {
	"8 16 8 1",
	" 	c	None",
	"0	c	#000000",
	"1	c	#484848",
	"2	c	#282828",
	"3	c	#686868",
	"4	c	#707070",
	"5	c	#505050",
	"6	c	#303030",
	"        ",
	"        ",
	"        ",
	"        ",
	"        ",
	" 333333 ",
	" 000000 ",
	" 400003 ",
	"  5001  ",
	"   62   ",
	"        ",
	"        ",
	"        ",
	"        ",
	"        ",
	"        "};
static char *down_x24[] = {
	"12 24 11 1",
	" 	c	None",
	"0	c	#000000",
	"1	c	#303030",
	"2	c	#686868",
	"3	c	#101010",
	"4	c	#404040",
	"5	c	#505050",
	"6	c	#181818",
	"7	c	#707070",
	"8	c	#383838",
	"9	c	#202020",
	"            ",
	"            ",
	"            ",
	"            ",
	"            ",
	"            ",
	"            ",
	"            ",
	" 2444444442 ",
	" 8000000008 ",
	"  00000000  ",
	"  70000002  ",
	"   500004   ",
	"    1009    ",
	"     63     ",
	"            ",
	"            ",
	"            ",
	"            ",
	"            ",
	"            ",
	"            ",
	"            ",
	"            "};
static char *down_x32[] = {
	"16 32 12 1",
	" 	c	None",
	"0	c	#000000",
	"1	c	#303030",
	"2	c	#606060",
	"3	c	#080808",
	"4	c	#181818",
	"5	c	#404040",
	"6	c	#707070",
	"7	c	#505050",
	"8	c	#808080",
	"9	c	#101010",
	"A	c	#202020",
	"                ",
	"                ",
	"                ",
	"                ",
	"                ",
	"                ",
	"                ",
	"                ",
	"                ",
	"                ",
	"                ",
	"  333333333333  ",
	"  000000000000  ",
	"  300000000000  ",
	"   0000000000   ",
	"   6000000002   ",
	"    70000005    ",
	"     10000A     ",
	"      4009      ",
	"       30       ",
	"        8       ",
	"                ",
	"                ",
	"                ",
	"                ",
	"                ",
	"                ",
	"                ",
	"                ",
	"                ",
	"                ",
	"                "};

static char **down_xpm[3] = { down_x16, down_x24, down_x32 };
