static char *elevation_x16[] = {
	"16 16 5 1",
	" 	c	None",
	"0	c	#000000",
	"1	c	#c00000",
	"2	c	#d07808",
	"3	c	#f80000",
	"                ",
	"    1    33333  ",
	"   131      33  ",
	"  13331    33   ",
	"    3     33    ",
	"    3    33     ",
	"    3    33333  ",
	"    3           ",
	"                ",
	" 2 2 2 2 2 2 2  ",
	" 00000000000000 ",
	" 2 2 2 2 2 2 2  ",
	" 00000000000000 ",
	" 2 2 2 2 2 2 2  ",
	"                ",
	"                "};
static char *elevation_x24[] = {
	"24 24 41 1",
	" 	c	None",
	"0	c	#c80800",
	"1	c	#8a6220",
	"2	c	#f4b03c",
	"3	c	#b85038",
	"4	c	#ba8a3a",
	"5	c	#c8261c",
	"6	c	#7c705a",
	"7	c	#d8a888",
	"8	c	#ae9462",
	"9	c	#c86861",
	"A	c	#a04030",
	"B	c	#806840",
	"C	c	#e8b66e",
	"D	c	#c08030",
	"E	c	#e8b860",
	"F	c	#717070",
	"G	c	#c81608",
	"H	c	#a89878",
	"I	c	#c8392c",
	"J	c	#c87a72",
	"K	c	#d8c090",
	"L	c	#b0884c",
	"M	c	#c85c54",
	"N	c	#806848",
	"O	c	#c8443c",
	"P	c	#c83024",
	"Q	c	#787876",
	"R	c	#ac9470",
	"S	c	#f0b050",
	"T	c	#8d682d",
	"U	c	#b69050",
	"V	c	#807868",
	"W	c	#e0b880",
	"X	c	#8a6a3c",
	"Y	c	#d06850",
	"Z	c	#c81810",
	"a	c	#a49888",
	"b	c	#c81000",
	"c	c	#84704e",
	"d	c	#c85048",
	"                        ",
	"                        ",
	"               9GGGGGZ5 ",
	"                9999Zbd ",
	"                   JGP  ",
	"          O        Z5   ",
	"         I0b      5Z    ",
	"        I00Zb    PGJ    ",
	"       M0J0MPb  ObM     ",
	"          09 9 JGbPIIII ",
	"          09   M5555555 ",
	"          09            ",
	"          09            ",
	"          09            ",
	"          09            ",
	"  X6QccQ6X0AXQVTQQTQQ1  ",
	"  UR 88 RL03L a4  4  D  ",
	"  CK WW KC0YE  S  2  2  ",
	"  CK WW KC 7E  S  2  2  ",
	"  CK WW KC  E  S  2  2  ",
	"  BcFNNFcBF6XF6TFF1FF1  ",
	"  8H RR H8 aU  U  U  4  ",
	"                        ",
	"                        "};
static char *elevation_x32[] = {
	"32 32 41 1",
	" 	c	None",
	"0	c	#553a12",
	"1	c	#b0802c",
	"2	c	#c80800",
	"3	c	#c43028",
	"4	c	#e0b878",
	"5	c	#f0b054",
	"6	c	#707070",
	"7	c	#48483c",
	"8	c	#c86a68",
	"9	c	#c8574f",
	"A	c	#a48858",
	"B	c	#a81810",
	"C	c	#585856",
	"D	c	#deb580",
	"E	c	#60502a",
	"F	c	#c68830",
	"G	c	#989078",
	"H	c	#f8b03a",
	"I	c	#c8473f",
	"J	c	#5e5041",
	"K	c	#c8251d",
	"L	c	#aa8045",
	"M	c	#d88060",
	"N	c	#68481a",
	"O	c	#504026",
	"P	c	#dac090",
	"Q	c	#b89560",
	"R	c	#c09045",
	"S	c	#ad9d82",
	"T	c	#c81809",
	"U	c	#e8b868",
	"V	c	#c87c76",
	"W	c	#c81003",
	"X	c	#783020",
	"Y	c	#c8605a",
	"Z	c	#b86848",
	"a	c	#484848",
	"b	c	#606060",
	"c	c	#a08868",
	"d	c	#c83830",
	"                                ",
	"                                ",
	"                     999999999  ",
	"                     W222222228 ",
	"                     IIIIIIW2T  ",
	"                          8WTV  ",
	"                          TWI   ",
	"             YW          T2K    ",
	"            922W        K2T     ",
	"           92222W      IWT      ",
	"          Y22K232W    YTTV      ",
	"          22 d2 I2W   TW9       ",
	"          8  d2  Y9  T2W999999  ",
	"             d2     V222222222I ",
	"             d2      IIIIIIIIIV ",
	"             d2                 ",
	"             d2                 ",
	"             d2                 ",
	"             d2                 ",
	"             d2                 ",
	"   RQ  RQ  QR32ZF  SF   FS  FS  ",
	"  b0OaaOOaaO0B2X0aa707a707aa0O  ",
	"   5D  UU  45d2MH   H   H   HP  ",
	"   5D  UU  45d2MH   H   H   HP  ",
	"   5D  UU  45  DH   H   H   HP  ",
	"   5D  UU  45  PH   H   H   HP  ",
	"   5D  UU  45  PH   H   H   HP  ",
	"  6NJCCEECCENCCJNCCJNCCCNJCCNJ  ",
	"   1A  LL  AL  c1  G1   1G  1c  ",
	"                                ",
	"                                ",
	"                                "};

static char **elevation_xpm[3] = { elevation_x16, elevation_x24, elevation_x32 };
