static char *exit_x16[] = {
	"16 16 4 1",
	" 	c	None",
	"0	c	#000000",
	"1	c	#FF0000",
	"2	c	#000000",
	"                ",
	"       1        ",
	"      111       ",
	"     11111      ",
	"       1        ",
	"       1        ",
	"       1        ",
	"       1        ",
	"                ",
	"                ",
	" 000 0 0 0 000  ",
	" 0   0 0 0  0   ",
	" 00   0  0  0   ",
	" 0   0 0 0  0   ",
	" 000 0 0 0  0   ",
	"                "};

static char *exit_x24[] = {
	"24 24 6 1",
	" 	c	None",
	"0	c	#000000",
	"1	c	#404040",
	"2	c	#CC0000",
	"3	c	#808080",
	"4	c	#000000",
	"                        ",
	"                        ",
	"           22           ",
	"          2222          ",
	"         222222         ",
	"        22222222        ",
	"           22           ",
	"           22           ",
	"           22           ",
	"           22           ",
	"           22           ",
	"           22           ",
	"                        ",
	"                        ",
	"  00000 0   0 00 000000 ",
	"  00    01 10 00   00   ",
	"  00     030  00   00   ",
	"  0000   303  00   00   ",
	"  00     030  00   00   ",
	"  00    01 10 00   00   ",
	"  00000 0   0 00   00   ",
	"                        ",
	"                        ",
	"                        "};

static char *exit_x32[] = {
	"32 32 25 1",
	" 	c	None",
	"0	c	#000000",
	"1	c	#380400",
	"2	c	#3F0300",
	"3	c	#450400",
	"4	c	#4B0400",
	"5	c	#4C0400",
	"6	c	#630600",
	"7	c	#650600",
	"8	c	#7E0900",
	"9	c	#880900",
	"A	c	#980A00",
	"B	c	#9E0B00",
	"C	c	#AA0C00",
	"D	c	#AC0A00",
	"E	c	#B20B00",
	"F	c	#B80D00",
	"G	c	#BD0C00",
	"H	c	#C10C00",
	"I	c	#C50D00",
	"J	c	#C50E00",
	"K	c	#CB0D00",
	"L	c	#CB0E00",
	"M	c	#CC0E00",
	"N	c	#000000",
	"                                ",
	"               EA               ",
	"              HMMD              ",
	"             GMMMME             ",
	"           1JMMKMMME            ",
	"          2JMMILLIMMG           ",
	"         3MMME9MM6GMMG1         ",
	"         FMMC 8MM4 EMMF         ",
	"         8MB  8MM5  EMF         ",
	"              8MM5   3          ",
	"              8MM5              ",
	"              8MM5              ",
	"              8MM5              ",
	"              8MM5              ",
	"              8MM5              ",
	"              8MM5              ",
	"              8MM5              ",
	"              277               ",
	"                                ",
	"                                ",
	"                                ",
	" 00000000 000   00  00 000000000",
	" 00000000  000 000  00 00000000 ",
	" 00        000000   00    000   ",
	" 000        00000   00    000   ",
	" 0000000     000    00    000   ",
	" 0000000    0000    00    000   ",
	" 00         00000   00    000   ",
	" 00        000 000  00    000   ",
	" 00000000 000  000  00    000   ",
	" 00000000 00    000 00    000   ",
	"                                "};

static char **exit_xpm[3] = { exit_x16, exit_x24, exit_x32 };

