static char *filled_box_x16[] = {
	"16 16 32 1",
	" 	c	None",
	"0	c	#182020",
	"1	c	#90a0b0",
	"2	c	#a08088",
	"3	c	#88c0d8",
	"4	c	#385860",
	"5	c	#b83030",
	"6	c	#988898",
	"7	c	#80d0f0",
	"8	c	#a86060",
	"9	c	#c81000",
	"A	c	#88b0c8",
	"B	c	#c02018",
	"C	c	#a86068",
	"D	c	#9890a0",
	"E	c	#80e0f8",
	"F	c	#80c8e8",
	"G	c	#c02820",
	"H	c	#90a8b8",
	"I	c	#90b0c0",
	"J	c	#a08890",
	"K	c	#405060",
	"L	c	#b05858",
	"M	c	#88b8c8",
	"N	c	#88c8e0",
	"O	c	#a86868",
	"P	c	#9898a8",
	"Q	c	#989098",
	"R	c	#c81008",
	"S	c	#90a8c0",
	"T	c	#88b8d0",
	"U	c	#a86870",
	"                ",
	" 00000000000000 ",
	" 4EEEEEEEEQ8LC4 ",
	" 4EEEEEEEES2BR4 ",
	" 4EEEEEEEE3G294 ",
	" 4EEEEEEETB6EBK ",
	" 4EEEEEEABPEEN4 ",
	" 4EEEEEHB1EEEE4 ",
	" 4EEEE1BIEEEEE4 ",
	" 4EEEDBMEEEEEE4 ",
	" 4EEJG3EEEEEEE4 ",
	" 4E2GNEEEEEEEE4 ",
	" 4U5FEEEEEEEEE4 ",
	" 4O7EEEEEEEEEE4 ",
	" 00000000000000 ",
	"                "};
static char *filled_box_x24[] = {
	"24 24 41 1",
	" 	c	None",
	"0	c	#000000",
	"1	c	#508898",
	"2	c	#c01810",
	"3	c	#88bcd0",
	"4	c	#a07888",
	"5	c	#b83834",
	"6	c	#101018",
	"7	c	#90a0b0",
	"8	c	#80d5f0",
	"9	c	#c80800",
	"A	c	#a86068",
	"B	c	#a87070",
	"C	c	#90a8b8",
	"D	c	#588088",
	"E	c	#b05050",
	"F	c	#c02820",
	"G	c	#85c8e0",
	"H	c	#c81008",
	"I	c	#80e0f8",
	"J	c	#9d8890",
	"K	c	#b04848",
	"L	c	#9898a0",
	"M	c	#101818",
	"N	c	#80d0e8",
	"O	c	#c81000",
	"P	c	#988898",
	"Q	c	#90b0c8",
	"R	c	#80d8f8",
	"S	c	#c02018",
	"T	c	#bc3028",
	"U	c	#88c0d8",
	"V	c	#b84040",
	"W	c	#b84038",
	"X	c	#a0808c",
	"Y	c	#a8686c",
	"Z	c	#b05858",
	"a	c	#c81808",
	"b	c	#5088a0",
	"c	c	#9898a8",
	"d	c	#588090",
	"                        ",
	"                        ",
	" 6000000000000000000006 ",
	" MbIIIIIIIIIIIIGPPPJcbM ",
	" MbIIIIIIIIIIIIB9999SbM ",
	" MbIIIIIIIIIIIIRUcaaabM ",
	" MbIIIIIIIIIIIII7HTYO1M ",
	" MbIIIIIIIIIIIILO5NJ9dM ",
	" MbIIIIIIIIIIIPOW8Ic9DM ",
	" MbIIIIIIIIIIX9K8IIRCbM ",
	" MbIIIIIIIIIX9ZRIIIIIbM ",
	" MbIIIIIIIIY9AIIIIIIIbM ",
	" MbIIIIIIRZ9BIIIIIIIIbM ",
	" MbIIIIIRE94IIIIIIIIIbM ",
	" MbIIII8VOPIIIIIIIIIIbM ",
	" MbIIIN5OcIIIIIIIIIIIbM ",
	" MbIIGTH7IIIIIIIIIIIIbM ",
	" MbIUFaCIIIIIIIIIIIIIbM ",
	" Mb3S2QIIIIIIIIIIIIIIbM ",
	" Md2S3IIIIIIIIIIIIIIIbM ",
	" MbJGIIIIIIIIIIIIIIIIbM ",
	" 6000000000000000000006 ",
	"                        ",
	"                        "};
static char *filled_box_x32[] = {
	"32 32 41 1",
	" 	c	None",
	"0	c	#000000",
	"1	c	#988898",
	"2	c	#404040",
	"3	c	#c80800",
	"4	c	#80c8e8",
	"5	c	#606060",
	"6	c	#70a0b8",
	"7	c	#b04844",
	"8	c	#a86060",
	"9	c	#78a0b8",
	"A	c	#b83030",
	"B	c	#c01810",
	"C	c	#78a0b0",
	"D	c	#80d8f4",
	"E	c	#88b8c8",
	"F	c	#c02820",
	"G	c	#9890a0",
	"H	c	#68b8d0",
	"I	c	#90a0b8",
	"J	c	#c81000",
	"K	c	#88c0d4",
	"L	c	#b05255",
	"M	c	#c81808",
	"N	c	#a8686c",
	"O	c	#a08088",
	"P	c	#80e0f8",
	"Q	c	#88c8e0",
	"R	c	#90a8c0",
	"S	c	#b83c38",
	"T	c	#90a0b0",
	"U	c	#c02018",
	"V	c	#70b0c8",
	"W	c	#9898a5",
	"X	c	#a08290",
	"Y	c	#c02c28",
	"Z	c	#90b0c2",
	"a	c	#a87070",
	"b	c	#c81008",
	"c	c	#80d0ea",
	"d	c	#c02010",
	"                                ",
	"                                ",
	"  2222222222222222222222222222  ",
	" 500000000000000000000000000005 ",
	" 50HPPPPPPPPPPPPPPPPPKEEEEEKH05 ",
	" 50HPPPPPPPPPPPPPPPPG333333SH05 ",
	" 50HPPPPPPPPPPPPPPPPZYFFd33UH05 ",
	" 50HPPPPPPPPPPPPPPPPPPPXJ33dH05 ",
	" 50HPPPPPPPPPPPPPPPPPPO33OJJH05 ",
	" 50HPPPPPPPPPPPPPPPPPN3J1Pd3V05 ",
	" 50HPPPPPPPPPPPPPPPD83JWPPF3605 ",
	" 50HPPPPPPPPPPPPPPDL3bIPPPS3C05 ",
	" 50HPPPPPPPPPPPPPD73BZPPPPEGH05 ",
	" 50HPPPPPPPPPPPPcS3dEPPPPPPPH05 ",
	" 50HPPPPPPPPPPP4A3UKPPPPPPPPH05 ",
	" 50HPPPPPPPPPPQF3YQPPPPPPPPPH05 ",
	" 50HPPPPPPPPPKU3AcPPPPPPPPPPH05 ",
	" 50HPPPPPPPPEd3ScPPPPPPPPPPPH05 ",
	" 50HPPPPPPPRM37DPPPPPPPPPPPPH05 ",
	" 50HPPPPPPTb3LDPPPPPPPPPPPPPH05 ",
	" 50HPPPPPWJ38PPPPPPPPPPPPPPPH05 ",
	" 50HPPPP1J3aPPPPPPPPPPPPPPPPH05 ",
	" 50HPPPX33aPPPPPPPPPPPPPPPPPH05 ",
	" 50HPPO33XPPPPPPPPPPPPPPPPPPH05 ",
	" 50HPN3JGPPPPPPPPPPPPPPPPPPPH05 ",
	" 50HL3JWPPPPPPPPPPPPPPPPPPPPH05 ",
	" 509BMRPPPPPPPPPPPPPPPPPPPPPH05 ",
	" 50HZEPPPPPPPPPPPPPPPPPPPPPPH05 ",
	" 500000000000000000000000000005 ",
	"  2222222222222222222222222222  ",
	"                                ",
	"                                "};

static char **filled_box_xpm[3] = { filled_box_x16, filled_box_x24, filled_box_x32 };
