static char *filled_polygon_x16[] = {
	"16 16 9 1",
	" 	c	None",
	"0	c	#000000",
	"1	c	#003333",
	"2	c	#003366",
	"3	c	#006666",
	"4	c	#006699",
	"5	c	#009999",
	"6	c	#0099CC",
	"7	c	#00CCFF",
	"                ",
	"                ",
	"      0012      ",
	"   11346662     ",
	"   277777762    ",
	"  16777777762   ",
	"  177777777762  ",
	"  167777777771  ",
	"  047777777771  ",
	"   17777777771  ",
	"   16777777771  ",
	"    1577777771  ",
	"     116766301  ",
	"       1110     ",
	"                ",
	"                "};

static char *filled_polygon_x24[] = {
	"24 24 11 1",
	" 	c	None",
	"0	c	#000000",
	"1	c	#000033",
	"2	c	#003333",
	"3	c	#003366",
	"4	c	#006666",
	"5	c	#006699",
	"6	c	#009999",
	"7	c	#0099CC",
	"8	c	#0099FF",
	"9	c	#00CCFF",
	"                        ",
	"                        ",
	"                        ",
	"             0          ",
	"     0022202454         ",
	"     27789999994        ",
	"    0699999999994       ",
	"    29999999999993      ",
	"    399999999999993     ",
	"   17999999999999983    ",
	"   279999999999999970   ",
	"    49999999999999970   ",
	"    29999999999999970   ",
	"    27999999999999970   ",
	"     4999999999999970   ",
	"     2999999999999970   ",
	"     2599999999999970   ",
	"      227999999999970   ",
	"        2279999976400   ",
	"          22752220      ",
	"            00          ",
	"                        ",
	"                        ",
	"                        "};

static char *filled_polygon_x32[] = {
	"32 32 11 1",
	" 	c	None",
	"0	c	#000000",
	"1	c	#000033",
	"2	c	#003333",
	"3	c	#003366",
	"4	c	#006666",
	"5	c	#006699",
	"6	c	#009999",
	"7	c	#0099CC",
	"8	c	#0099FF",
	"9	c	#00CCFF",
	"                                ",
	"                                ",
	"                                ",
	"                                ",
	"                                ",
	"            00122003            ",
	"       22014577899962           ",
	"      0599999999999953          ",
	"      28999999999999952         ",
	"      299999999999999952        ",
	"     2799999999999999994        ",
	"     29999999999999999994       ",
	"     399999999999999999993      ",
	"    06999999999999999999993     ",
	"     3999999999999999999993     ",
	"     2999999999999999999993     ",
	"     2799999999999999999993     ",
	"      399999999999999999993     ",
	"      289999999999999999993     ",
	"      069999999999999999993     ",
	"       29999999999999999993     ",
	"       27999999999999999994     ",
	"        2599999999999999994     ",
	"         227999999999999994     ",
	"           2279999999997742     ",
	"             227998753220       ",
	"               220210           ",
	"                                ",
	"                                ",
	"                                ",
	"                                ",
	"                                "};

static char *filled_polygon_xpm[3] = { filled_polygon_x16, filled_polygon_x24, filled_polygon_x32 };

