static char *go_x16[] = {
	"16 16 41 1",
	" 	c	None",
	"0	c	#009818",
	"1	c	#668068",
	"2	c	#7cd088",
	"3	c	#20b838",
	"4	c	#287034",
	"5	c	#55c868",
	"6	c	#98d8a6",
	"7	c	#08ac24",
	"8	c	#38c050",
	"9	c	#507855",
	"A	c	#68c876",
	"B	c	#108828",
	"C	c	#4ac860",
	"D	c	#88d598",
	"E	c	#a4e0b0",
	"F	c	#386840",
	"G	c	#748878",
	"H	c	#107018",
	"I	c	#16ae30",
	"J	c	#30c048",
	"K	c	#288038",
	"L	c	#1d8a32",
	"M	c	#71cb80",
	"N	c	#5ec870",
	"O	c	#40c057",
	"P	c	#088018",
	"Q	c	#20a038",
	"R	c	#83d090",
	"S	c	#aae0b8",
	"T	c	#307c40",
	"U	c	#6a8270",
	"V	c	#28b841",
	"W	c	#a0dca8",
	"X	c	#90d89a",
	"Y	c	#587860",
	"Z	c	#108420",
	"a	c	#109828",
	"b	c	#70c878",
	"c	c	#387440",
	"d	c	#789080",
	"                ",
	"      9LLY      ",
	"    1KJ88VTG    ",
	"   4VO5NNC8Qc   ",
	" G03ONM22M58IH  ",
	" U7J5MX66DMCVP  ",
	" UIOARWEE625JZ  ",
	" UIOAXESSWRN8B  ",
	" 1IOADESEWRN8B  ",
	" 1I8NR6EWX25JZ  ",
	" 17VCbRXD2AO3P  ",
	"  4I85AMbNCJaF  ",
	"   UKJOCCOVTd   ",
	"     9LVVK1     ",
	"       c9       ",
	"                "};
static char *go_x24[] = {
	"24 24 41 1",
	" 	c	None",
	"0	c	#105018",
	"1	c	#74847a",
	"2	c	#02a51d",
	"3	c	#88d597",
	"4	c	#2ec048",
	"5	c	#305036",
	"6	c	#72d080",
	"7	c	#54c868",
	"8	c	#1cae38",
	"9	c	#9dd8a8",
	"A	c	#008018",
	"B	c	#41c058",
	"C	c	#556858",
	"D	c	#60c870",
	"E	c	#15982d",
	"F	c	#1a702a",
	"G	c	#405c46",
	"H	c	#a5e0b0",
	"I	c	#0eae28",
	"J	c	#78d088",
	"K	c	#24502c",
	"L	c	#20b840",
	"M	c	#48c85f",
	"N	c	#36c050",
	"O	c	#6bc878",
	"P	c	#91d89e",
	"Q	c	#1a882a",
	"R	c	#107220",
	"S	c	#15b030",
	"T	c	#ace0b8",
	"U	c	#265c2e",
	"V	c	#80d08b",
	"W	c	#1fb838",
	"X	c	#486048",
	"Y	c	#5d7060",
	"Z	c	#086e18",
	"a	c	#185a25",
	"b	c	#38523d",
	"c	c	#a0e0a8",
	"d	c	#28b740",
	"                        ",
	"          1K5           ",
	"         5QW8Fb         ",
	"       GFd4N448UY       ",
	"     YUdNBMMMBN4EK      ",
	"   1KEdNM7DDDD7B4WR5    ",
	"  CAILNMDO6JJ6O7B4S20   ",
	"  X2S4BD6V3P3VJO7BdIZ   ",
	"  X2WN7OVP999P36DM4SZ   ",
	"  XIdBD639HHHcPVO7NWZ   ",
	"  XS4MDJPcHTHH9367NWZ   ",
	"  XS4MOVPHHTTH9367BLR   ",
	"  GS4MDJPcHTTH9367BLR   ",
	"  GIdBD639HHHHPVO7NWR   ",
	"  GILN7OVP9c993JDM4SZ   ",
	"  G284MD6VPPP3VO7BdIZ   ",
	"  G2IdN7D6JVVJODMNW2Z   ",
	"   GRS4BMDOOOD7MNdIaC   ",
	"     KQ4NMM77MBNdFb     ",
	"      1U84NNNN4Q5       ",
	"        Ca8LWEU1        ",
	"          bRaY          ",
	"                        ",
	"                        "};
static char *go_x32[] = {
	"32 32 41 1",
	" 	c	None",
	"0	c	#123216",
	"1	c	#627068",
	"2	c	#04981c",
	"3	c	#82d08e",
	"4	c	#28b840",
	"5	c	#48c860",
	"6	c	#086016",
	"7	c	#69c877",
	"8	c	#98d8a2",
	"9	c	#586058",
	"A	c	#199931",
	"B	c	#344335",
	"C	c	#38c050",
	"D	c	#087c1a",
	"E	c	#58c868",
	"F	c	#1fb83a",
	"G	c	#253d28",
	"H	c	#a4e0b0",
	"I	c	#70d080",
	"J	c	#8bd698",
	"K	c	#144a1c",
	"L	c	#10b030",
	"M	c	#0aa628",
	"N	c	#28c048",
	"O	c	#186222",
	"P	c	#40c058",
	"Q	c	#454d45",
	"R	c	#767e76",
	"S	c	#158228",
	"T	c	#aee0b8",
	"U	c	#60c870",
	"V	c	#50c864",
	"W	c	#a0daa8",
	"X	c	#78d084",
	"Y	c	#1b3220",
	"Z	c	#19af33",
	"a	c	#30c04a",
	"b	c	#90d8a0",
	"c	c	#02a81e",
	"d	c	#10b028",
	"                                ",
	"               B1               ",
	"             902DY              ",
	"           RYSFFFZOG            ",
	"          GO4Naaaa4AKQ          ",
	"        BKZaCCPPPPCa4AYR        ",
	"      90A4aP5VVEVV5PCaFDY       ",
	"    R0DZ4CPVEU777UEV5CaFMKB     ",
	"   Q6cLFaPVU7IXXXI7UE5CNZMD0    ",
	"   GcMFaPVU7X33333XI7EPCFLc6    ",
	"   GcLFC5E7X3JbbbJ33IUVPNZc6    ",
	"   GcZNPVUI3J8WWW8b3X7E5aFd6    ",
	"   GMFaPE7XJ8WHHHWWb3IUVC4L6    ",
	"   GdFa5UI3bWHHHHHW8JX7VP4Z6    ",
	"   GdFC5UI38WHTTTHHWJX7EPNZ6    ",
	"   GdFCVUX38WHTTTHHWJ37EPaZ6    ",
	"   GdFC5UI38WHTTTHHWJX7EPNZ6    ",
	"   GdFa5UI3bWHHHHHW8JX7VP4Z6    ",
	"   GMFaPE7XJ8WHHHHWb3IUVC4L6    ",
	"   GcZNPVUI3J8WWWWbJX7E5aFd6    ",
	"   GcL4C5E7X3Jb8bJ33IUVPaZc6    ",
	"   GcMFaPVU7X33333XI7EPC4Lc6    ",
	"   B6cLFaPVU7IXXXI7UE5CNFM20    ",
	"    R0DZ4CPVEU777UUV5CaFM6G     ",
	"      QKA4aP5VVEEV5PCaFSYR      ",
	"        BO4aCPPPPPCa4AY9        ",
	"          YS4Naaaa4ZKB          ",
	"           1YAFFFZOG            ",
	"             BKMDY              ",
	"               Y1               ",
	"                                ",
	"                                "};

static char **go_xpm[3] = { go_x16, go_x24, go_x32 };
