static char* grid_x16[] = {
	"16 16 2 1",
	" 	c	None",
	"0	c	#000000",
	"                ",
	"                ",
	"  00 0 0000 0   ",
	" 00000000000000 ",
	"  00 0 0000 0   ",
	" 00000000000000 ",
	" 00000000000000 ",
	" 00000000000000 ",
	" 00000000000000 ",
	"  00 0 0000 0   ",
	" 00000000000000 ",
	"  00 0 0000 0   ",
	" 00000000000000 ",
	" 00000000000000 ",
	"  00 0 0000 0   ",
	"                "};

static char* grid_x24[] = {
	"24 24 2 1",
	" 	c	None",
	"0	c	#000000",
	"                        ",
	"                        ",
	"                        ",
	"    00 00  00 00  00    ",
	"  0000000000000000000   ",
	"  00000000000000000000  ",
	"    00 00  00 00  00    ",
	"    00 00  00 00  00    ",
	"  00000000000000000000  ",
	"  00000000000000000000  ",
	"    00 00  00 00  00    ",
	"  0000000000000000000   ",
	"  00000000000000000000  ",
	"    00 00  00 00  00    ",
	"    00 00  00 00  00    ",
	"  00000000000000000000  ",
	"  00000000000000000000  ",
	"    00 00  00 00  00    ",
	"  0000000000000000000   ",
	"  00000000000000000000  ",
	"    00 00  00 00  00    ",
	"    00 00  00 00  00    ",
	"                        ",
	"                        "};

static char* grid_x32[] = {
	"32 32 2 1",
	" 	c	None",
	"0	c	#000000",
	"                                ",
	"                                ",
	"                                ",
	"                                ",
	"     00   00   00  00   00      ",
	"     00   00   00  00   00      ",
	"  000000000000000000000000000   ",
	"   00000000000000000000000000   ",
	"     00   00   00  00   00      ",
	"     00   00   00  00   00      ",
	"     00   00   00  00   00      ",
	"   00000000000000000000000000   ",
	"   00000000000000000000000000   ",
	"     00   00   00  00   00      ",
	"     00   00   00  00   00      ",
	"     00   00   00  00   00      ",
	"   00000000000000000000000000   ",
	"     00   00   00  00   00      ",
	"     00   00   00  00   00      ",
	"     00   00   00  00   00      ",
	"   00000000000000000000000000   ",
	"  000000000000000000000000000   ",
	"     00   00   00  00   00      ",
	"     00   00   00  00   00      ",
	"     00   00   00  00   00      ",
	"   00000000000000000000000000   ",
	"   00000000000000000000000000   ",
	"     00   00   00  00   00      ",
	"     00   00   00  00   00      ",
	"                                ",
	"                                ",
	"                                "};

static char *grid_xpm[3] = { grid_x16, grid_x24, grid_x32 };

