static char *hide_x16[] = {
	"16 16 13 1",
	" 	c	None",
	"0	c	#000000",
	"1	c	#330000",
	"2	c	#333333",
	"3	c	#663300",
	"4	c	#663333",
	"5	c	#666666",
	"6	c	#996600",
	"7	c	#999999",
	"8	c	#CC6600",
	"9	c	#CC9900",
	"A	c	#C0C0C0",
	"B	c	#808080",
	"                ",
	"                ",
	"                ",
	"       0        ",
	"       00       ",
	"        12      ",
	"  6663664577B7  ",
	"  6663664577B7  ",
	"  99999965AAAA  ",
	"  6663664577B7  ",
	"  6663664577B7  ",
	"        0       ",
	"       0        ",
	"                ",
	"                ",
	"                "};

static char *hide_x24[] = {
	"24 24 9 1",
	" 	c	None",
	"0	c	#000000",
	"1	c	#663300",
	"2	c	#996600",
	"3	c	#999999",
	"4	c	#CC6600",
	"5	c	#CC9900",
	"6	c	#C0C0C0",
	"7	c	#808080",
	"                        ",
	"                        ",
	"                        ",
	"                        ",
	"                        ",
	"                        ",
	"           0            ",
	"            0           ",
	"             0          ",
	"    4 22 4 22033 3 33   ",
	"   010110101107777777   ",
	"    5 55 5 55066 6 66   ",
	"    5 55 5 55066 6 66   ",
	"    5 55 5 55066 6 66   ",
	"   010110101107777777   ",
	"    4 22 4 22033 3 33   ",
	"    5    5  20   6      ",
	"           00           ",
	"          00            ",
	"                        ",
	"                        ",
	"                        ",
	"                        ",
	"                        "};

static char *hide_x32[] = {
	"32 32 13 1",
	" 	c	None",
	"0	c	#000000",
	"1	c	#330000",
	"2	c	#333300",
	"3	c	#333333",
	"4	c	#663300",
	"5	c	#666666",
	"6	c	#996600",
	"7	c	#999999",
	"8	c	#CC6600",
	"9	c	#CC9900",
	"A	c	#C0C0C0",
	"B	c	#808080",
	"                                ",
	"                                ",
	"                                ",
	"                                ",
	"                                ",
	"                                ",
	"                                ",
	"              0                 ",
	"              00                ",
	"                0               ",
	"                 0              ",
	"                 00             ",
	"     99  9  9  9900AA  A  A     ",
	"    044014004204435BBBBBBBBB    ",
	"     66 48  86 660377 B7  77    ",
	"     99  9  9  9900AA  A  A     ",
	"     99  9  9  9900AA  A  A     ",
	"     99  9  9  9900AA  A  A     ",
	"     99  9  9  9900AA  A  A     ",
	"    044014004204435BBBBBBBBB    ",
	"     66 48  86 660377 B7  77    ",
	"     99  9  9  9900AA  A  A     ",
	"                00              ",
	"               00               ",
	"              00                ",
	"              0                 ",
	"                                ",
	"                                ",
	"                                ",
	"                                ",
	"                                ",
	"                                "};

static char *hide_xpm[3] = { hide_x16, hide_x24, hide_x32 };

