static char *Info_x16[] = {
	"16 16 35 1",
	" 	c	None",
	"0	c	#0058f8",
	"1	c	#88b8f8",
	"2	c	#4078e8",
	"3	c	#d8e8f8",
	"4	c	#5898f8",
	"5	c	#c0d8f8",
	"6	c	#1868f0",
	"7	c	#f0f0f8",
	"8	c	#4888f8",
	"9	c	#a8c8f8",
	"A	c	#70a0f8",
	"B	c	#3070f0",
	"C	c	#3880f8",
	"D	c	#80a0e0",
	"E	c	#d0e0f8",
	"F	c	#0060f8",
	"G	c	#2070f8",
	"H	c	#98b8f8",
	"I	c	#f8f8f8",
	"J	c	#5090f8",
	"K	c	#b0c8f8",
	"L	c	#2870f0",
	"M	c	#c8d8f8",
	"N	c	#a0c0f8",
	"O	c	#78a8f8",
	"P	c	#e0e8f8",
	"Q	c	#0860f8",
	"R	c	#4080e8",
	"S	c	#2068f0",
	"T	c	#4080f8",
	"U	c	#98c0f8",
	"V	c	#5088f8",
	"W	c	#6098f8",
	"X	c	#f0f8f8",
	"                ",
	"    D60000S     ",
	"   20JK3PKV0R   ",
	"  RQKIIA1IIKQR  ",
	"  09IIP0FIII90  ",
	" BTIII500EIIITL ",
	" 0UIIIE003IIIU0 ",
	" 0MIII700XIII50 ",
	" 0MIIIIGGIIIIM0 ",
	" 0UIIIIW4IIIIH0 ",
	" LTIIIIOOIIIICB ",
	"  09II5005IIN0  ",
	"  RQKIIJJII9FR  ",
	"   R08K33K80R   ",
	"     S0000S     ",
	"                "};
static char *Info_x24[] = {
	"24 24 41 1",
	" 	c	None",
	"0	c	#0058f8",
	"1	c	#88b0f8",
	"2	c	#3078f0",
	"3	c	#d8e0f8",
	"4	c	#5e90e0",
	"5	c	#b0cdf8",
	"6	c	#1868f0",
	"7	c	#78a0e0",
	"8	c	#c8d9f8",
	"9	c	#f0f0f8",
	"A	c	#407ee8",
	"B	c	#0860f8",
	"C	c	#5890f8",
	"D	c	#2068f0",
	"E	c	#4084f8",
	"F	c	#77a8f8",
	"G	c	#98b8f8",
	"H	c	#3078f8",
	"I	c	#2370f8",
	"J	c	#7098e0",
	"K	c	#f8f8f8",
	"L	c	#5090f8",
	"M	c	#d0e0f8",
	"N	c	#e2eaf8",
	"O	c	#80aaf8",
	"P	c	#6498f8",
	"Q	c	#1068f8",
	"R	c	#1060f8",
	"S	c	#2070f0",
	"T	c	#3878ed",
	"U	c	#90b8f8",
	"V	c	#b8d0f8",
	"W	c	#0060f8",
	"X	c	#a0c0f8",
	"Y	c	#4880e8",
	"Z	c	#4888f8",
	"a	c	#1869f8",
	"b	c	#2870f0",
	"c	c	#f0f8f8",
	"d	c	#3880f8",
	"                        ",
	"         Y6RBDA         ",
	"      JR00000000B7      ",
	"     T00IFVMM5FI002     ",
	"    S0BGKKK3NKKKUB0S    ",
	"   T0aMKKKMWa9KKK8a0A   ",
	"   0B8KKKKP001KKKK8W0   ",
	"  60OKKKKKH00LKKKKKO0D  ",
	"  0BcKKKKKI00EKKKKK9R0  ",
	" 40PKKKKKKH00EKKKKKKC04 ",
	" T0UKKKKKKZ00LKKKKKKG0T ",
	" S05KKKKKKF00FKKKKKK50b ",
	" b05KKKKKKX00XKKKKKK50S ",
	" T0GKKKKKK300MKKKKKKU0A ",
	" 40CKKKKKKKHIKKKKKKKC04 ",
	"  0R9KKKKKNFUcKKKKKcB0  ",
	"  D0OKKKKKd00ZKKKKKF06  ",
	"   0W8KKKKB00aKKKK8B0   ",
	"   A0aMKKKF001KKKMQ0T   ",
	"    S0BUKKKNMKKKUB0S    ",
	"     200aF5MMVFI00T     ",
	"      7B00000000RJ      ",
	"         ASBR6Y         ",
	"                        "};
static char *Info_x32[] = {
	"32 32 41 1",
	" 	c	None",
	"0	c	#0058f8",
	"1	c	#80b0f8",
	"2	c	#3076f0",
	"3	c	#d0e0f8",
	"4	c	#6090e0",
	"5	c	#a8c8f8",
	"6	c	#1060f8",
	"7	c	#f8f8f8",
	"8	c	#5888e8",
	"9	c	#6aa0f8",
	"A	c	#4085f8",
	"B	c	#c0d8f8",
	"C	c	#2068f0",
	"D	c	#94b8f8",
	"E	c	#7aa0e0",
	"F	c	#5893f8",
	"G	c	#e5f0f8",
	"H	c	#367ef8",
	"I	c	#5088e8",
	"J	c	#1868f0",
	"K	c	#7da8f8",
	"L	c	#0860f8",
	"M	c	#2870f0",
	"N	c	#6e98e0",
	"O	c	#9dc0f8",
	"P	c	#e0e8f8",
	"Q	c	#b1d0f8",
	"R	c	#3878ea",
	"S	c	#6098f8",
	"T	c	#1868f8",
	"U	c	#c8d8f8",
	"V	c	#5090f8",
	"W	c	#2070f8",
	"X	c	#88b0f8",
	"Y	c	#4888f8",
	"Z	c	#2871f8",
	"a	c	#d8e8f8",
	"b	c	#1068f8",
	"c	c	#6890e0",
	"d	c	#b0c8f8",
	"                                ",
	"             E48Ic              ",
	"          4J00000000Cc          ",
	"        cL000000000000LN        ",
	"       20000A1QBU5XH0000M       ",
	"      6000Sa77777777PS000J      ",
	"     J00TB7777G9177777UT00T     ",
	"    200ZG77777F00D77777PZ00R    ",
	"    00TP77777G000W777777Pb00E   ",
	"   b00Q777777d0000P777777Q00J   ",
	"   00Y7777777X0000d7777777A00   ",
	"  R00B7777777K0000O7777777B00R  ",
	"  00T77777777X0000O77777777T0L  ",
	"  00S77777777O0000d77777777F00  ",
	"  00177777777U0000377777777X00  ",
	" N00O7777777770000777777777D00E ",
	" E00D777777777Z00Z777777777O00N ",
	"  00X777777777F00V777777777K00  ",
	"  00F777777777D00X777777777F00  ",
	"  L0T777777777Pb6a777777777T00  ",
	"  R00B77777777GOd777777777Q00R  ",
	"  E00A7777777Pb00HG7777777Y00   ",
	"   J00Q77777790000K777777d00b   ",
	"   E00bP7777790000977777ab00    ",
	"    R00ZP7777U0000U7777GZ002    ",
	"     T00TB7777BSSU7777BT00C     ",
	"      J000SP77777777aS000b      ",
	"       M0000HX5UBd1H00002       ",
	"        NL000000000000LN        ",
	"          cC00000000Jc          ",
	"              cI8cE             ",
	"                                "};

static char **Info_xpm[3] = { Info_x16, Info_x24, Info_x32 };
