static char *join_line_x16[] = {
	"16 16 19 1",
	" 	c	None",
	"0	c	#484848",
	"1	c	#b02008",
	"2	c	#a88080",
	"3	c	#c84838",
	"4	c	#606060",
	"5	c	#c83020",
	"6	c	#c87868",
	"7	c	#c85848",
	"8	c	#b02818",
	"9	c	#707070",
	"A	c	#c83828",
	"B	c	#c88078",
	"C	c	#505050",
	"D	c	#c02818",
	"E	c	#c85038",
	"F	c	#c84028",
	"G	c	#c83820",
	"H	c	#c85040",
	"                ",
	"              C ",
	"              0 ",
	"              0 ",
	"              4 ",
	"            782 ",
	"             DA ",
	"            H   ",
	"           B7   ",
	"           F    ",
	"          G     ",
	"      6  F      ",
	"      537       ",
	"      1E        ",
	"  900           ",
	"                "};
static char *join_line_x24[] = {
	"24 24 37 1",
	" 	c	None",
	"0	c	#101010",
	"1	c	#c81800",
	"2	c	#c84830",
	"3	c	#404040",
	"4	c	#707070",
	"5	c	#c86860",
	"6	c	#781008",
	"7	c	#c82818",
	"8	c	#c85840",
	"9	c	#505050",
	"A	c	#202020",
	"B	c	#c02008",
	"C	c	#c83820",
	"D	c	#c87868",
	"E	c	#b86050",
	"F	c	#806868",
	"G	c	#585858",
	"H	c	#c82010",
	"I	c	#c84030",
	"J	c	#c88078",
	"K	c	#c86050",
	"L	c	#484848",
	"M	c	#787878",
	"N	c	#606060",
	"O	c	#181818",
	"P	c	#282828",
	"Q	c	#c82000",
	"R	c	#c85848",
	"S	c	#c84838",
	"T	c	#c83828",
	"U	c	#c87870",
	"V	c	#c83018",
	"W	c	#c82008",
	"X	c	#c82810",
	"Y	c	#c87060",
	"Z	c	#c86058",
	"                        ",
	"                      9 ",
	"                     MG ",
	"                     N4 ",
	"                     3  ",
	"                     O  ",
	"                     A  ",
	"                    FG  ",
	"                 YX11E  ",
	"                   KBQ  ",
	"                   HJSZ ",
	"                  RC    ",
	"                  1     ",
	"                 WU     ",
	"                XR      ",
	"               VS       ",
	"              7S        ",
	"         RD  WR         ",
	"         25R1D          ",
	"         V1C            ",
	"        L61I            ",
	"     GOPM  8T           ",
	" L0PLM                  ",
	"                        "};
static char *join_line_x32[] = {
	"32 32 41 1",
	" 	c	None",
	"0	c	#000000",
	"1	c	#c01800",
	"2	c	#c84838",
	"3	c	#404040",
	"4	c	#802018",
	"5	c	#181818",
	"6	c	#c86860",
	"7	c	#606060",
	"8	c	#c02810",
	"9	c	#282828",
	"A	c	#c03828",
	"B	c	#c87870",
	"C	c	#400808",
	"D	c	#505050",
	"E	c	#c85848",
	"F	c	#707070",
	"G	c	#080808",
	"H	c	#b81808",
	"I	c	#b82818",
	"J	c	#604848",
	"K	c	#c88078",
	"L	c	#c82818",
	"M	c	#c82008",
	"N	c	#787878",
	"O	c	#c86058",
	"P	c	#c8402d",
	"Q	c	#202020",
	"R	c	#484848",
	"S	c	#686868",
	"T	c	#303030",
	"U	c	#585858",
	"V	c	#c81800",
	"W	c	#c8887c",
	"X	c	#c87062",
	"Y	c	#101010",
	"Z	c	#c82000",
	"a	c	#c82810",
	"b	c	#c83018",
	"c	c	#c85038",
	"d	c	#c85850",
	"                                ",
	"                             D  ",
	"                             0  ",
	"                             0  ",
	"                             G  ",
	"                            S9  ",
	"                            RR  ",
	"                            5N  ",
	"                            0   ",
	"                           NY   ",
	"                          K4J   ",
	"                       bVVVVA   ",
	"                        B 81V   ",
	"                          VXaa  ",
	"                         aa  b  ",
	"                        dV      ",
	"                        Vc      ",
	"                       Ma       ",
	"                      bV        ",
	"                     PV         ",
	"                    PVX         ",
	"                   PV6          ",
	"                  bVX           ",
	"            OV   MVW            ",
	"            EV dVa              ",
	"            cZaV2               ",
	"            IVMW                ",
	"          F5CHVL                ",
	"       FT05S  KaV               ",
	"  3TQ005U                       ",
	"  U7F                           ",
	"                                "};

static char **join_line_xpm[3] = { join_line_x16, join_line_x24, join_line_x32 };
