static char *join_x16[] = {
	"16 16 18 1",
	" 	c	None",
	"0	c	#000000",
	"1	c	#333300",
	"2	c	#663300",
	"3	c	#993333",
	"4	c	#996600",
	"5	c	#996666",
	"6	c	#999999",
	"7	c	#CC0000",
	"8	c	#CC3300",
	"9	c	#CC3333",
	"A	c	#CC6600",
	"B	c	#CC6666",
	"C	c	#CC9900",
	"D	c	#CC9999",
	"E	c	#CCCCCC",
	"F	c	#C0C0C0",
	"G	c	#808080",
	"            2 0 ",
	"           A2C1C",
	"           20 0 ",
	"           4442 ",
	"           0 24 ",
	"          9971  ",
	"         E5895  ",
	"         6D9G9  ",
	"        65966   ",
	"      EG6B5GE   ",
	"     9GD766     ",
	" C A399B6G      ",
	"0202879G6       ",
	" A C4795        ",
	"02004           ",
	" A  C           "};

static char *join_x24[] = {
	"24 24 23 1",
	" 	c	None",
	"0	c	#000000",
	"1	c	#330000",
	"2	c	#333300",
	"3	c	#663300",
	"4	c	#666666",
	"5	c	#990000",
	"6	c	#993300",
	"7	c	#993333",
	"8	c	#996600",
	"9	c	#996666",
	"A	c	#999999",
	"B	c	#CC0000",
	"C	c	#CC3300",
	"D	c	#CC3333",
	"E	c	#CC6600",
	"F	c	#CC6666",
	"G	c	#CC9900",
	"H	c	#CC9999",
	"I	c	#CCCC99",
	"J	c	#CCCCCC",
	"K	c	#C0C0C0",
	"L	c	#808080",
	"                  0  0  ",
	"                 G0GG2E ",
	"                 81GG1G ",
	"                  0  0  ",
	"                G82  0  ",
	"                 38G83G ",
	"                 0  28G ",
	"                41  0   ",
	"               BBBB60   ",
	"               LLBBD4   ",
	"             JKL B DB   ",
	"              LJFDL9    ",
	"            JL BHAL     ",
	"            LKCBLLJ     ",
	"         JAL FF L       ",
	"         LA BBAA        ",
	"       B9LIFCLLKJ       ",
	"  G  E1BDBBHAL          ",
	" 380036BBB LAJ          ",
	" 38  GEBB7LL J          ",
	"  G  G815BB             ",
	" 380008   B             ",
	" 18   G                 ",
	"  G                     "};

static char *join_x32[] = {
	"32 32 22 1",
	" 	c	None",
	"0	c	#000000",
	"1	c	#330000",
	"2	c	#333300",
	"3	c	#663300",
	"4	c	#666666",
	"5	c	#990000",
	"6	c	#996600",
	"7	c	#996666",
	"8	c	#999999",
	"9	c	#CC0000",
	"A	c	#CC3300",
	"B	c	#CC3333",
	"C	c	#CC6600",
	"D	c	#CC6633",
	"E	c	#CC6666",
	"F	c	#CC9900",
	"G	c	#CC9999",
	"H	c	#CCCCCC",
	"I	c	#C0C0C0",
	"J	c	#808080",
	"K	c	#800000",
	"                                ",
	"                        0   00  ",
	"                      FF2FFF66F ",
	"                        0   26  ",
	"                        0   0   ",
	"                        0   0   ",
	"                      F66F  0   ",
	"                       16FFC6F  ",
	"                       0   03F  ",
	"                      00   0    ",
	"                    9AB99900    ",
	"                   9999999K0    ",
	"                    E79999B     ",
	"                  H J 999A99    ",
	"                   88B99 799    ",
	"                  JJGB99JJ9     ",
	"                HJJ 99G8J       ",
	"                88 999 JHH      ",
	"               JJHE99 J         ",
	"             HJJ 99B J          ",
	"             88 999G8           ",
	"         997JJG999 J8H          ",
	"         997 999B J  H          ",
	"  F   F60999999E8J              ",
	"  660013 99999BJ8H              ",
	" 03300 F 99994JJ H              ",
	"  FF   FF9999B                  ",
	"  FF    C015999                 ",
	"  6C000033   99                 ",
	" 02300  FF                      ",
	"   F     F                      ",
	"   F                            "};

static char **join_xpm[3] = { join_x16, join_x24, join_x32 };

