static char *loosen_x16[] = {
	"16 16 24 1",
	" 	c	None",
	"0	c	#4878c8",
	"1	c	#c80000",
	"2	c	#c86868",
	"3	c	#6890c8",
	"4	c	#78a8e8",
	"5	c	#c82020",
	"6	c	#5880c8",
	"7	c	#7890b0",
	"8	c	#c83838",
	"9	c	#c81010",
	"A	c	#8090b8",
	"B	c	#88b0e8",
	"C	c	#c87070",
	"D	c	#5888d0",
	"E	c	#c82828",
	"F	c	#7090b8",
	"G	c	#5078c0",
	"H	c	#6088d0",
	"I	c	#c87878",
	"J	c	#c83030",
	"K	c	#c84040",
	"L	c	#6890d0",
	"M	c	#7890b8",
	"                ",
	"                ",
	"                ",
	" D D 3    3 D D ",
	" 0A0A6M  M6A0A0 ",
	" 4 4 B    B 4 4 ",
	" 0707GF  FG7070 ",
	" H H L    L H H ",
	"      EC2E      ",
	"     89  9J     ",
	"     1I   1C    ",
	"     K9  98     ",
	"      5C2E      ",
	"                ",
	"                ",
	"                "};
static char *loosen_x24[] = {
	"24 24 38 1",
	" 	c	None",
	"0	c	#084098",
	"1	c	#c80000",
	"2	c	#3870c8",
	"3	c	#c84848",
	"4	c	#4888e8",
	"5	c	#2058c0",
	"6	c	#c81818",
	"7	c	#78a8e8",
	"8	c	#6080b8",
	"9	c	#4870b0",
	"A	c	#c86868",
	"B	c	#6090e8",
	"C	c	#4068b0",
	"D	c	#90a8d0",
	"E	c	#5878a8",
	"F	c	#c82828",
	"G	c	#c80808",
	"H	c	#3068b8",
	"I	c	#5890f8",
	"J	c	#7088b0",
	"K	c	#6898f0",
	"L	c	#5880b8",
	"M	c	#c85858",
	"N	c	#c87070",
	"O	c	#88a8e8",
	"P	c	#104098",
	"Q	c	#3068c8",
	"R	c	#2860b8",
	"S	c	#6898e0",
	"T	c	#c81010",
	"U	c	#4070c0",
	"V	c	#5070a8",
	"W	c	#104898",
	"X	c	#c83030",
	"Y	c	#c82020",
	"Z	c	#c85050",
	"a	c	#c87878",
	"                        ",
	"                        ",
	"                        ",
	"                        ",
	"                        ",
	" LUJJQJJ28    82JJQJJUL ",
	" CHEV5EER9    9REE5VEHC ",
	"  7  I  K      K  I  7  ",
	"  7  I  K      K  I  7  ",
	" DS  4  B      B  4  SD ",
	" P0PW0PP0P    P0PP0WP0P ",
	"  O  K  7      7  K  O  ",
	"         ZG  1M         ",
	"        N1G  11A        ",
	"        11    11a       ",
	"       G1M    A11       ",
	"       316    Y1X       ",
	"        F1X  X1Y        ",
	"         T1  1T         ",
	"          A  M          ",
	"                        ",
	"                        ",
	"                        ",
	"                        "};
static char *loosen_x32[] = {
	"32 32 41 1",
	" 	c	None",
	"0	c	#0840a0",
	"1	c	#c80000",
	"2	c	#7088b0",
	"3	c	#c82828",
	"4	c	#3068c0",
	"5	c	#5090f8",
	"6	c	#2058bc",
	"7	c	#80a8e8",
	"8	c	#c85050",
	"9	c	#6078b0",
	"A	c	#c81010",
	"B	c	#3058a0",
	"C	c	#689df0",
	"D	c	#486ca8",
	"E	c	#205098",
	"F	c	#c83838",
	"G	c	#95b0e0",
	"H	c	#4068a0",
	"I	c	#c86060",
	"J	c	#1648a0",
	"K	c	#4870b8",
	"L	c	#3d68b0",
	"M	c	#2860b8",
	"N	c	#2050a4",
	"O	c	#1048a8",
	"P	c	#c84343",
	"Q	c	#c80808",
	"R	c	#c81919",
	"S	c	#5070a9",
	"T	c	#70a0f0",
	"U	c	#c86c6c",
	"V	c	#6480b0",
	"W	c	#4070b8",
	"X	c	#5890f8",
	"Y	c	#2860c4",
	"Z	c	#3860a0",
	"a	c	#c83030",
	"b	c	#2850a0",
	"c	c	#1850a8",
	"d	c	#88a8e8",
	"                                ",
	"                                ",
	"                                ",
	"                                ",
	"                                ",
	"                                ",
	"  7G   T   C        C   T   G7  ",
	" VMLSSL6SSS6LV    VL6SSS6LSSLMV ",
	" DcNBBNOBBBObD    DbOBBBONBBNcD ",
	"  Cd  GX   5        5   XG  dC  ",
	"  Cd  GX   5        5   XG  dC  ",
	"  Cd  GX   5        5   XG  dC  ",
	"  Cd  GX   5        5   XG  dC  ",
	" ZJJEEJ0EEE0JH    HJ0EEE0JEEJJZ ",
	" 24W99KY999YS2    2SY999YK99W42 ",
	"  7G   T   C        C   T   G7  ",
	"             QF  R1             ",
	"            111  11Q            ",
	"           A11U  I11Q           ",
	"          311P    811R          ",
	"         P113      P11R         ",
	"         8113      F113         ",
	"          a11P    P11R          ",
	"           A11U  I11A           ",
	"            111  11Q            ",
	"             1a  R1             ",
	"                                ",
	"                                ",
	"                                ",
	"                                ",
	"                                ",
	"                                "};

static char **loosen_xpm[3] = { loosen_x16, loosen_x24, loosen_x32 };
