static char *magnet_x16[] = {
	"16 16 18 1",
	" 	c	None",
	"0	c	#000000",
	"1	c	#330000",
	"2	c	#333300",
	"3	c	#660000",
	"4	c	#663300",
	"5	c	#666600",
	"6	c	#990000",
	"7	c	#999900",
	"8	c	#CC0000",
	"9	c	#CC3300",
	"A	c	#CC9900",
	"B	c	#CCCC00",
	"C	c	#FF0000",
	"D	c	#FF6600",
	"E	c	#FFCC00",
	"F	c	#FFFF00",
	"G	c	#800000",
	"        1110    ",
	"      11888610  ",
	"     16CCCCCCG0 ",
	"    08CC836CCC30",
	"   06CC83 13CC81",
	"   3CC83    GCC1",
	"  1CCC3     3CC1",
	" 5DCC3     38C81",
	"5BEDG1    38CC3 ",
	" 5EA4    38CCG0 ",
	"  55    18CC61  ",
	"       18CC81   ",
	"      5ACC83    ",
	"     27FE93     ",
	"      5AB5      ",
	"       55       "};

static char *magnet_x24[] = {
	"24 24 19 1",
	" 	c	None",
	"0	c	#000000",
	"1	c	#330000",
	"2	c	#333300",
	"3	c	#660000",
	"4	c	#663300",
	"5	c	#666600",
	"6	c	#990000",
	"7	c	#996600",
	"8	c	#999900",
	"9	c	#CC0000",
	"A	c	#CC9900",
	"B	c	#FF0000",
	"C	c	#FF6600",
	"D	c	#FF9900",
	"E	c	#FFCC00",
	"F	c	#FFFF00",
	"G	c	#800000",
	"H	c	#808000",
	"             000        ",
	"           3399G310     ",
	"         019BBBBBBG1    ",
	"        0GBBBBBBBBB91   ",
	"       0GBBBBBBBBBBBB1  ",
	"      06BBBBBG319BBBBB1 ",
	"     03BBBBB31  GGBBBBG0",
	"     3BBBBB3     6GBBB91",
	"    1BBBBB3       G9BBB1",
	"   19BBBBG        39BBB1",
	"  29BBBB6G       G9BBB60",
	" 48DBBB93       GGBBBB1 ",
	"58FFDB91        GBBBBG0 ",
	" 5EFFE3        GBBBB91  ",
	"  5EE72       3BBBBB1   ",
	"   5H4       3BBBBB3    ",
	"    2       3BBBBB3     ",
	"          13BBBBBG1     ",
	"          HCBBBBG1      ",
	"         5EECBB63       ",
	"        48FFFD61        ",
	"         5HEFA2         ",
	"          45A5          ",
	"            5           "};

static char *magnet_x32[] = {
	"32 32 19 1",
	" 	c	None",
	"0	c	#000000",
	"1	c	#330000",
	"2	c	#333300",
	"3	c	#660000",
	"4	c	#663300",
	"5	c	#666600",
	"6	c	#990000",
	"7	c	#996600",
	"8	c	#CC0000",
	"9	c	#CC9900",
	"A	c	#CCCC00",
	"B	c	#FF0000",
	"C	c	#FF3300",
	"D	c	#FF6600",
	"E	c	#FFCC00",
	"F	c	#FFFF00",
	"G	c	#800000",
	"H	c	#808000",
	"                                ",
	"               013GGG010        ",
	"              16BBBBBB8G00      ",
	"             38BBBBBBBBBB30     ",
	"           03BBBBBBBBBBBBB80    ",
	"          03BBBBBBBBBBBBBBB80   ",
	"         0GBBBBBBB88BBBBBBBB80  ",
	"        03BBBBBBB83G3GBBBBBBBG0 ",
	"        1BBBBBBB61   G38BBBBBB0 ",
	"       1BBBBBBB61      G8BBBBBG0",
	"      1BBBBBBB63        3BBBBB80",
	"     08BBBBBB63         6GBBBB80",
	"    06BBBBBB63          68BBBB81",
	"   03BBBBBB83          8GBBBBBG0",
	"   5CBBBBB83           3BBBBBB1 ",
	"  5EECBBBB3           G8BBBBBG0 ",
	" 5EFFECBBG1          G8BBBBB81  ",
	" 5EFFFED81          G8BBBBBB1   ",
	"  5EFFFE4          38BBBBBBG0   ",
	"   5EFE5          38BBBBBB81    ",
	"    5A5          18BBBBBB81     ",
	"     5          18BBBBBB81      ",
	"               08BBBBBBB3       ",
	"              08BBBBBBB3        ",
	"             59CBBBBBB3         ",
	"            5AFECBBBB3          ",
	"           59FFFECBBG           ",
	"           45EFFFEDG0           ",
	"             5EFFE70            ",
	"              5EE74             ",
	"               5H2              ",
	"                2               "};

static char **magnet_xpm[3] = { magnet_x16, magnet_x24, magnet_x32 };

