static char *manage_x16[] = {
	"16 16 8 1",
	" 	c	None",
	"0	c	#000000",
	"1	c	#666666",
	"2	c	#999999",
	"3	c	#CCCCCC",
	"4	c	#FFFFFF",
	"5	c	#C0C0C0",
	"6	c	#808080",
	"      1661      ",
	"      6221  1   ",
	"  611 15561666  ",
	" 16361233262361 ",
	" 1653333333326  ",
	"  163356623361  ",
	"1112352332232611",
	"6623363444633521",
	"1533363444633351",
	"6665325443235661",
	"  163326663321  ",
	"  163333333356  ",
	" 16352533322361 ",
	"  6261653616661 ",
	"   11 1256  11  ",
	"      1116      "};

static char *manage_x24[] = {
	"24 24 8 1",
	" 	c	None",
	"0	c	#000000",
	"1	c	#666666",
	"2	c	#999999",
	"3	c	#CCCCCC",
	"4	c	#FFFFFF",
	"5	c	#C0C0C0",
	"6	c	#808080",
	"          1111          ",
	"         11221          ",
	"         16331          ",
	"    661  163361  1161   ",
	"   625611653351116356   ",
	"  16333223333332233311  ",
	"   623333333333333361   ",
	"    6533333333333321    ",
	"    1233356616533356    ",
	"   1133352344325333611  ",
	"166123336344443633336611",
	"125333336444444253333356",
	"623333336444444253333356",
	"162233336344444633336111",
	" 111633322444422333611  ",
	"    1233326226233356    ",
	"    1233333523333356    ",
	"   165333333333333326   ",
	"   6533353333335233361  ",
	"   6535666533326163361  ",
	"   16261 163321  1611   ",
	"    11    13321   11    ",
	"          62561         ",
	"          1666          "};

static char *manage_x32[] = {
	"32 32 8 1",
	" 	c	None",
	"0	c	#000000",
	"1	c	#666666",
	"2	c	#999999",
	"3	c	#CCCCCC",
	"4	c	#FFFFFF",
	"5	c	#C0C0C0",
	"6	c	#808080",
	"              1111              ",
	"             166661             ",
	"             653321             ",
	"             653321             ",
	"     116     653321    1111     ",
	"    162261  16333361  163361    ",
	"    653356666333333611633356    ",
	"   1133333253333333333333356    ",
	"    623333333333333333333361    ",
	"     6233333333333333333361     ",
	"      13333333222233333331      ",
	"     1133333561611123333311     ",
	"     1633335163443212333326     ",
	" 111163333312444444515333366666 ",
	"16666333332134444444623333355561",
	"16333333332644444444263333333321",
	"12333333332644444444263333333321",
	"16333333332144444444663333352261",
	" 611123333515444444312333366111 ",
	"     1233332154444366333326     ",
	"     1133333616256163333361     ",
	"      653333356616233333311     ",
	"      653333333333333333361     ",
	"     62333333333333333333366    ",
	"    6233333333333333333333361   ",
	"    6533326623333335611533361   ",
	"    16332611663333261 165366    ",
	"     1666    1233311   1611     ",
	"      11     123331             ",
	"             123331             ",
	"             162226             ",
	"              11111             "};

static char **manage_xpm[3] = { manage_x16, manage_x24, manage_x32 };

