static char *map_x16[] = {
	"16 16 28 1",
	" 	c	None",
	"0	c	#000000",
	"1	c	#000033",
	"2	c	#003333",
	"3	c	#003366",
	"4	c	#006666",
	"5	c	#006699",
	"6	c	#0099CC",
	"7	c	#00CCFF",
	"8	c	#330000",
	"9	c	#330033",
	"A	c	#333333",
	"B	c	#33CCFF",
	"C	c	#660033",
	"D	c	#660066",
	"E	c	#663300",
	"F	c	#663366",
	"G	c	#990066",
	"H	c	#996600",
	"I	c	#CC0099",
	"J	c	#CC6600",
	"K	c	#CC66CC",
	"L	c	#CC9900",
	"M	c	#FF0099",
	"N	c	#FF00CC",
	"O	c	#FF33CC",
	"P	c	#FF6699",
	"Q	c	#FF9900",
	"                ",
	"                ",
	"                ",
	"         HEQ    ",
	"  QQQ   QQ8QQQ  ",
	"HEQQQEJQQL  QQ  ",
	" 8  QELPQ   QQ  ",
	"    N9INND 77QHE",
	" 9NNNDG NM 777  ",
	" AKM     IA77BC9",
	" 277735 7BCNNOF3",
	"   77467768NNN1 ",
	"      375       ",
	"                ",
	"                ",
	"                "};

static char *map_x24[] = {
	"24 24 26 1",
	" 	c	None",
	"0	c	#000000",
	"1	c	#000033",
	"2	c	#003366",
	"3	c	#006666",
	"4	c	#006699",
	"5	c	#00CCCC",
	"6	c	#00CCFF",
	"7	c	#330000",
	"8	c	#333300",
	"9	c	#333333",
	"A	c	#660033",
	"B	c	#660066",
	"C	c	#663300",
	"D	c	#990066",
	"E	c	#993399",
	"F	c	#996600",
	"G	c	#996699",
	"H	c	#CC0099",
	"I	c	#CC6600",
	"J	c	#CC66CC",
	"K	c	#CC9900",
	"L	c	#FF0099",
	"M	c	#FF00CC",
	"N	c	#FF33CC",
	"O	c	#FF9900",
	"                        ",
	"                        ",
	"                        ",
	"                        ",
	"                        ",
	"              O OO      ",
	"     O       OO OOOO    ",
	"  8OOOOO    OOO   OOO   ",
	" FIOO OO8KOOOO     OO   ",
	" 8     O8OOOO      OO   ",
	"         BMMM      OOF7 ",
	"        7LMMMM   66OOIC ",
	"  7MMMMMAH  MMM 6666    ",
	" 7DMMM       LM 66666   ",
	" 146          M 6  66EA ",
	"  46666      66 J  MNG9 ",
	"    666625  666 MMMMM32 ",
	"       6 56666   MM     ",
	"          66            ",
	"                        ",
	"                        ",
	"                        ",
	"                        ",
	"                        "};

static char *map_x32[] = {
	"32 32 24 1",
	" 	c	None",
	"0	c	#000000",
	"1	c	#006666",
	"2	c	#006699",
	"3	c	#00CCFF",
	"4	c	#333300",
	"5	c	#3399CC",
	"6	c	#660033",
	"7	c	#663300",
	"8	c	#663366",
	"9	c	#66CCFF",
	"A	c	#990066",
	"B	c	#996600",
	"C	c	#9999CC",
	"D	c	#9999FF",
	"E	c	#CC0099",
	"F	c	#CC3399",
	"G	c	#CC66CC",
	"H	c	#CC9900",
	"I	c	#FF0099",
	"J	c	#FF00CC",
	"K	c	#FF33CC",
	"L	c	#FF9900",
	"M	c	#FF9966",
	"                                ",
	"                                ",
	"                                ",
	"                                ",
	"                                ",
	"                                ",
	"                   L7HL         ",
	"                  LLBHLLL       ",
	"       L          LL7BLLLLL     ",
	"    LLLLLL       LLL   LLLL     ",
	"  4LLLLLLLL   LLLLLL     LL     ",
	"  4LLLL LLL LLLLLLL      LLL    ",
	"   B     LL LLLMLL       LLL    ",
	"            LJJJJ        LLL    ",
	"            JJJJJJ     3  LLL   ",
	"        JJJ JJJJJJJ   333 LLL   ",
	"    JJJJJJJ JJ  JJJJ  3333      ",
	"   IJJJJJJJ      JJJ6233333     ",
	"   EJJ            JJA53333333   ",
	"   333             KAC3  339G   ",
	"   333333         3DAFD  JJJJ   ",
	"   13333333 33  33338EJJJJJJ9   ",
	"      33333 33333333 EJJJJJ     ",
	"            333333    JJJ       ",
	"             3333               ",
	"              3                 ",
	"                                ",
	"                                ",
	"                                ",
	"                                ",
	"                                ",
	"                                "};

static char **map_xpm[3] = { map_x16, map_x24, map_x32 };

