static char *move_x16[] = {
	"16 16 7 1",
	" 	c	None",
	"0	c	#025BD0",
	"1	c	#07ABFB",
	"2	c	#C40000",
	"3	c	#808080",
	"4	c	#C0C0C0",
	"5	c	#000000",
	" 0 0        3 3 ",
	"10101      43434",
	" 0 0        3 3 ",
	"10101      43434",
	" 0 0        3 3 ",
	"10101    2 43434",
	" 0 0     22 3 3 ",
	"10101 222222 434",
	" 0 0     22 3 3 ",
	"10101    2 43434",
	" 0 0        3 3 ",
	"10101      43434",
	" 0 0        3 3 ",
	"10101      43434",
	" 0 0        3 3 ",
	"                "};

static char *move_x24[] = {
	"24 24 52 1",
	" 	c	None",
	"0	c	#00272B",
	"1	c	#002234",
	"2	c	#003637",
	"3	c	#272727",
	"4	c	#3D3D3D",
	"5	c	#00444D",
	"6	c	#005B5B",
	"7	c	#00486D",
	"8	c	#004C72",
	"9	c	#006567",
	"A	c	#006B73",
	"B	c	#520000",
	"C	c	#562B2B",
	"D	c	#650000",
	"E	c	#691313",
	"F	c	#6C2929",
	"G	c	#494949",
	"H	c	#595959",
	"I	c	#546464",
	"J	c	#605858",
	"K	c	#7D4D4D",
	"L	c	#7B5A5A",
	"M	c	#686666",
	"N	c	#797979",
	"O	c	#005883",
	"P	c	#00648C",
	"Q	c	#006993",
	"R	c	#007599",
	"S	c	#0079A1",
	"T	c	#009598",
	"U	c	#0089A8",
	"V	c	#00B9C0",
	"W	c	#00C8C9",
	"X	c	#943535",
	"Y	c	#AF2323",
	"Z	c	#BD2A2A",
	"a	c	#8D4949",
	"b	c	#855858",
	"c	c	#974D4D",
	"d	c	#9F5C5C",
	"e	c	#8F4F69",
	"f	c	#845960",
	"g	c	#907E7E",
	"h	c	#A04949",
	"i	c	#CA0101",
	"j	c	#C71616",
	"k	c	#848484",
	"l	c	#9B9B9B",
	"m	c	#A4A4A4",
	"n	c	#B2B2B2",
	"o	c	#000000",
	"                        ",
	"   O   7        43  G   ",
	" 9WSWWVUW      mklnnNmM ",
	"   O   8        43  G   ",
	"   O   8        43  G   ",
	" 6TRTTTRT      NNNkkNkH ",
	"  2P  5O        HG  H4  ",
	"   O   8        43  G   ",
	" 29Q99AP9      HLMHHMH4 ",
	"  9Q99AP6      KibHHMH  ",
	"   O   8        Yi  G   ",
	"  9Q9IfeLEDDDDDahjZJMH  ",
	" 29Q9MfeLFDDDDEccZjLMHG ",
	"   O   8        XiB G   ",
	"  2P  5O       CiX  H4  ",
	" 6TRTTTRT      gdNkkNkH ",
	"   O   8        43  G   ",
	"   O   8        43  G   ",
	" 9WSWWVUW      mklnnNmM ",
	"   O   8        43  G   ",
	"   O   8        43  G   ",
	" 6TRTTTRT      NNNkkNkG ",
	"  2P  5O        HG  H4  ",
	"   1   0            3   "};

static char *move_x32[] = {
	"32 32 47 1",
	" 	c	None",
	"0	c	#003C3F",
	"1	c	#353535",
	"2	c	#3B3131",
	"3	c	#3F3F3F",
	"4	c	#003F5F",
	"5	c	#005B5B",
	"6	c	#004568",
	"7	c	#006565",
	"8	c	#4A2F2F",
	"9	c	#780000",
	"A	c	#454545",
	"B	c	#4D4D4D",
	"C	c	#585858",
	"D	c	#546464",
	"E	c	#7D5E5E",
	"F	c	#656565",
	"G	c	#6C6C6C",
	"H	c	#706060",
	"I	c	#787878",
	"J	c	#005885",
	"K	c	#00608C",
	"L	c	#006699",
	"M	c	#006993",
	"N	c	#007099",
	"O	c	#0079A1",
	"P	c	#008B8B",
	"Q	c	#009697",
	"R	c	#00B8B8",
	"S	c	#00C9CA",
	"T	c	#9B0000",
	"U	c	#AA0000",
	"V	c	#B80000",
	"W	c	#BD2E2E",
	"X	c	#B73636",
	"Y	c	#8A5656",
	"Z	c	#AB4141",
	"a	c	#A36D6D",
	"b	c	#CB0000",
	"c	c	#C51D1D",
	"d	c	#C32323",
	"e	c	#C46868",
	"f	c	#848484",
	"g	c	#A09D9D",
	"h	c	#A8A8A8",
	"i	c	#B2B2B2",
	"j	c	#000000",
	"                                ",
	"    6    4            A    3    ",
	"    L    K0           F    C1   ",
	"  QQLQQQQNQQ        IfFffffGfI  ",
	"    L    J            F    C    ",
	"    L    J            F    C    ",
	"    L    J            F    C    ",
	"  RSLSSSSOSS        hiFiiiiIhh  ",
	"    L    J            F    C    ",
	"    L    J            F    C    ",
	"    L    J            F    C    ",
	"  PQLQQQQNQP        GaEffffGfI  ",
	"    L    K0         8bc2   C1   ",
	"    L    J           TbT   C    ",
	"    L    J            db9  C    ",
	"  57L7DWbbbbbbbbbbbbbbbbbYCFCB  ",
	"  77L7HbbbbbbbbbbbbbbbbbbZCFCC  ",
	"    L    J            XbU  C    ",
	"    L    J           9bV   C    ",
	"    L    J           bb    C    ",
	"  RSLSSSSOSS        geYiiiiIhh  ",
	"    L    J            F    C    ",
	"    L    J            F    C    ",
	"    L    J            F    C    ",
	"  QQLQQQQNQQ        IfFffffGfI  ",
	"    L    K0           F    C1   ",
	"    L    J            F    C    ",
	"    L    J            F    C    ",
	"  57L7777M75        BCFCCCCFCC  ",
	"  57L7777M77        CCFCCCCFCC  ",
	"    J    J            C    C    ",
	"                                "};

static char **move_xpm[3] = { move_x16, move_x24, move_x32 };

