static char *new_car_x16[] = {
	"16 16 7 1",
	" 	c	None",
	"0	c	#000000",
	"1	c	#009933",
	"2	c	#00CC33",
	"3	c	#00CC66",
	"4	c	#00FF66",
	"5	c	#663300",
	"                ",
	"    1           ",
	"   121          ",
	"  12321         ",
	"  22422         ",
	"   121          ",
	"   12           ",
	"  555555555555  ",
	"  555555555555  ",
	"  555555555555  ",
	"  555555555555  ",
	"  555555555555  ",
	"   00      0    ",
	"  000      000  ",
	"                ",
	"                "};

static char *new_car_x24[] = {
	"24 24 6 1",
	" 	c	None",
	"0	c	#000000",
	"1	c	#009933",
	"2	c	#00CC33",
	"3	c	#00FF66",
	"4	c	#663300",
	"                        ",
	"                        ",
	"                        ",
	"     121                ",
	"     232                ",
	"   2223222              ",
	"   2333332              ",
	"   1113211              ",
	"     232                ",
	"     111                ",
	"                        ",
	"   444444444444444444   ",
	"   444444444444444444   ",
	"   444444444444444444   ",
	"   444444444444444444   ",
	"   444444444444444444   ",
	"   444444444444444444   ",
	"   444444444444444444   ",
	"                        ",
	"   00000        00000   ",
	"    0 00        00 0    ",
	"                        ",
	"                        ",
	"                        "};

static char *new_car_x32[] = {
	"32 32 6 1",
	" 	c	None",
	"0	c	#000000",
	"1	c	#009933",
	"2	c	#00CC33",
	"3	c	#00FF66",
	"4	c	#663300",
	"                                ",
	"                                ",
	"                                ",
	"                                ",
	"       222                      ",
	"       232                      ",
	"       232                      ",
	"    122232222                   ",
	"    233333332                   ",
	"    222232222                   ",
	"       232                      ",
	"       232                      ",
	"       122                      ",
	"                                ",
	"                                ",
	"   44444444444444444444444444   ",
	"   44444444444444444444444444   ",
	"   44444444444444444444444444   ",
	"   44444444444444444444444444   ",
	"   44444444444444444444444444   ",
	"   44444444444444444444444444   ",
	"   44444444444444444444444444   ",
	"   44444444444444444444444444   ",
	"   44444444444444444444444444   ",
	"                                ",
	"     00 000          000 00     ",
	"     000000          0000000    ",
	"     00  0            00 00     ",
	"                                ",
	"                                ",
	"                                ",
	"                                "};

static char **new_car_xpm[3] = { new_car_x16, new_car_x24, new_car_x32 };

