static char *ok_x16[] = {
	"16 16 24 1",
	" 	c	None",
	"0	c	#002600",
	"1	c	#002E00",
	"2	c	#003400",
	"3	c	#003800",
	"4	c	#004200",
	"5	c	#004700",
	"6	c	#004900",
	"7	c	#005300",
	"8	c	#005800",
	"9	c	#005C00",
	"A	c	#006300",
	"B	c	#006B00",
	"C	c	#006D00",
	"D	c	#006F00",
	"E	c	#007000",
	"F	c	#007300",
	"G	c	#007400",
	"H	c	#007600",
	"I	c	#007800",
	"J	c	#007A00",
	"K	c	#007C00",
	"L	c	#008000",
	"M	c	#000000",
	"                ",
	"              6 ",
	"             GJ ",
	"            FI3 ",
	"          0GI5  ",
	"         1GJ7   ",
	"        2HK9    ",
	"       4HKA     ",
	" 0    5ILC      ",
	" IB  8HLB       ",
	" HKA8JLE        ",
	" 3JKJLD         ",
	"  HLLG          ",
	"  3JF           ",
	"   C            ",
	"                "};

static char *ok_x24[] = {
	"24 24 24 1",
	" 	c	None",
	"0	c	#002600",
	"1	c	#002A00",
	"2	c	#003400",
	"3	c	#003C00",
	"4	c	#004200",
	"5	c	#004700",
	"6	c	#005300",
	"7	c	#005800",
	"8	c	#005F00",
	"9	c	#006300",
	"A	c	#006400",
	"B	c	#006700",
	"C	c	#006B00",
	"D	c	#006F00",
	"E	c	#007000",
	"F	c	#007200",
	"G	c	#007400",
	"H	c	#007600",
	"I	c	#007800",
	"J	c	#007A00",
	"K	c	#007C00",
	"L	c	#008000",
	"M	c	#000000",
	"                        ",
	"                        ",
	"                     D  ",
	"                   0GLB ",
	"                  1GLD  ",
	"                 2HLG   ",
	"                3HLG    ",
	"               5ILH0    ",
	"              6HLH2     ",
	"             7JLH2      ",
	"            AJLH5       ",
	"           9KLH5        ",
	"          CKLJ6         ",
	"  I4     CLLJ7          ",
	" 8LH2   ELLKA           ",
	" 0ILG0 DLLK9            ",
	"  DLLHFLLLC             ",
	"  0ILLLLLC              ",
	"   DLLLLD               ",
	"    HLLF                ",
	"    8LF                 ",
	"     J                  ",
	"                        ",
	"                        "};

static char *ok_x32[] = {
	"32 32 29 1",
	" 	c	None",
	"0	c	#002600",
	"1	c	#002E00",
	"2	c	#003400",
	"3	c	#003C00",
	"4	c	#004200",
	"5	c	#004700",
	"6	c	#004D00",
	"7	c	#004E00",
	"8	c	#005200",
	"9	c	#005800",
	"A	c	#005C00",
	"B	c	#005F00",
	"C	c	#006000",
	"D	c	#006300",
	"E	c	#006400",
	"F	c	#006600",
	"G	c	#006B00",
	"H	c	#006D00",
	"I	c	#006F00",
	"J	c	#007000",
	"K	c	#007200",
	"L	c	#007400",
	"M	c	#007600",
	"N	c	#007800",
	"O	c	#007A00",
	"P	c	#007C00",
	"Q	c	#008000",
	"R	c	#000000",
	"                                ",
	"                                ",
	"                                ",
	"                           1N4  ",
	"                          2MQN  ",
	"                         4MQM5  ",
	"                        5NQO7   ",
	"                       9MQPA    ",
	"                      9OQPD     ",
	"                     DOQQG      ",
	"                    FPQQJ       ",
	"                   GQQQK        ",
	"                  IQQQK         ",
	"                 IQQQL          ",
	"                LQQQL0          ",
	"               KQQQM2           ",
	"             0LQQQN3            ",
	"   9        1LQQQM5             ",
	"  CPJ      2MQQQO7              ",
	"  MQQH    4MQQQO9               ",
	"  GQQPE  5NQQQPA                ",
	"   NQQO99MQQQPD                 ",
	"   BQQQMOQQQQF                  ",
	"    NQQQQQQQG                   ",
	"    BQQQQQQI                    ",
	"     NQQQQI                     ",
	"     8PQQI                      ",
	"      NQK                       ",
	"      6N                        ",
	"                                ",
	"                                ",
	"                                "};

static char **ok_xpm[3] = { ok_x16, ok_x24, ok_x32 };

