static char *pan_zoom_x16[] = {
	"16 16 4 1",
	" 	c	None",
	"0	c	#f80000",
	"1	c	#f83030",
	"2	c	#f83838",
	"                ",
	"       00       ",
	"      0100      ",
	"     000000     ",
	"       00       ",
	"   0   00   0   ",
	"  00   00   00  ",
	" 00000000000000 ",
	" 00000000000000 ",
	"  00   00   00  ",
	"   0   00   0   ",
	"       00       ",
	"     021000     ",
	"      0000      ",
	"       00       ",
	"                "};
static char *pan_zoom_x24[] = {
	"24 24 3 1",
	" 	c	None",
	"0	c	#f80000",
	"1	c	#f83030",
	"                        ",
	"                        ",
	"           00           ",
	"          0000          ",
	"         000000         ",
	"        00000100        ",
	"           00           ",
	"           00           ",
	"     0     00     0     ",
	"    00     00     00    ",
	"   000     00     000   ",
	"  00000000000000000000  ",
	"  00000000000000000000  ",
	"   000     00     000   ",
	"    00     00     00    ",
	"     0     00     0     ",
	"           00           ",
	"           00           ",
	"        00000000        ",
	"         000000         ",
	"          0000          ",
	"           00           ",
	"                        ",
	"                        "};
static char *pan_zoom_x32[] = {
	"32 32 17 1",
	" 	c	None",
	"0	c	#c80000",
	"1	c	#c82828",
	"2	c	#c85858",
	"3	c	#c81010",
	"4	c	#c83838",
	"5	c	#c87070",
	"6	c	#c84848",
	"7	c	#c80808",
	"8	c	#c81818",
	"9	c	#c84040",
	"A	c	#c86868",
	"B	c	#c87878",
	"C	c	#c82020",
	"D	c	#c85050",
	"E	c	#c83030",
	"F	c	#c86060",
	"                                ",
	"                                ",
	"               13B              ",
	"             600001             ",
	"           A700000006           ",
	"          6007A00F8007          ",
	"          609  00  A73          ",
	"               00               ",
	"               00               ",
	"     BB        00        F      ",
	"     00        00       507     ",
	"    301        00        70E    ",
	"   D00         00        B005   ",
	"   00F         00         400   ",
	"  807999999999900E99999999400C  ",
	"  0000000000000000000000000000  ",
	"  8004999999999001999999994001  ",
	"   006         00         C07   ",
	"   A00         00        600    ",
	"    103        00        002    ",
	"     77        00        01     ",
	"               00               ",
	"               00               ",
	"               70               ",
	"          F75  70   55          ",
	"          4009 70  C00          ",
	"           4003704000D          ",
	"            50000003            ",
	"              80006             ",
	"               63               ",
	"                                ",
	"                                "};

static char **pan_zoom_xpm[3] = { pan_zoom_x16, pan_zoom_x24, pan_zoom_x32 };
