static char *parameter_x16[] = {
	"16 16 3 1",
	" 	c	None",
	"0	c	#000000",
	"1	c	#999999",
	" 11111111111    ",
	" 1         11   ",
	" 1          11  ",
	" 1           11 ",
	" 1            1 ",
	" 1            1 ",
	" 1            1 ",
	" 1            1 ",
	" 1            1 ",
	" 1            1 ",
	" 1            1 ",
	" 1            1 ",
	" 1            1 ",
	" 1            1 ",
	" 1            1 ",
	" 11111111111111 "};

static char *parameter_x24[] = {
	"24 24 9 1",
	" 	c	None",
	"0	c	#000000",
	"1	c	#333333",
	"2	c	#666666",
	"3	c	#999999",
	"4	c	#CCCCCC",
	"5	c	#FFFFFF",
	"6	c	#C0C0C0",
	"7	c	#808080",
	" 277777777777777772     ",
	" 234444444444444447     ",
	" 2355555555555555537    ",
	" 23555377777777776572   ",
	" 235554444444444455572  ",
	" 235555555555555555547  ",
	" 2355555555555543355537 ",
	" 2355555555556774555547 ",
	" 2355566637123455555547 ",
	" 2355566644555555555547 ",
	" 2355555555555555555547 ",
	" 2355567455555543655547 ",
	" 2355554326556274555547 ",
	" 2355555553113555555547 ",
	" 2355555427447265555547 ",
	" 2355542355555532455547 ",
	" 2355555555555555555547 ",
	" 2355555555555555555547 ",
	" 235553          755547 ",
	" 2355555555326555555547 ",
	" 2355555555556235555547 ",
	" 2355555555555562455547 ",
	" 2355555555555555555547 ",
	" 2222222222222222222227 "};

static char *parameter_x32[] = {
	"32 32 9 1",
	" 	c	None",
	"0	c	#000000",
	"1	c	#333333",
	"2	c	#666666",
	"3	c	#999999",
	"4	c	#CCCCCC",
	"5	c	#FFFFFF",
	"6	c	#C0C0C0",
	"7	c	#808080",
	"  2222222222222222222222        ",
	"  73666666666666666666637       ",
	"  745555555555555555555572      ",
	"  7455555555555555555555472     ",
	"  7455554777777777777775547     ",
	"  7455556              55537    ",
	"  745555555555555555555555572   ",
	"  7455555555555555555555555572  ",
	"  7455555555555555555474555547  ",
	"  74555555555555555437455555572 ",
	"  74555555555555431345555555572 ",
	"  74555566377712345555555555572 ",
	"  74555546444455555555555555572 ",
	"  74555555555555555555555555572 ",
	"  74555554555555555555455555572 ",
	"  74555551235555555532145555572 ",
	"  7455555431 745543 13455555572 ",
	"  745555555542 11 2455555555572 ",
	"  745555555543    3455555555572 ",
	"  7455555542 265542 26555555572 ",
	"  74555551 34555555431155555572 ",
	"  74555554555555555555455555572 ",
	"  74555555555555555555555555572 ",
	"  74555554444444444444455555572 ",
	"  7455554              65555572 ",
	"  7455555444432 234444455555572 ",
	"  745555555555547 1655555555572 ",
	"  74555555555555547 13555555572 ",
	"  7455555555555555543  55555572 ",
	"  74555555555555555555655555572 ",
	"  76444444444444444444444444472 ",
	"  77777777777777777777777777772 "};

static char **parameter_xpm[3] = { parameter_x16, parameter_x24, parameter_x32 };

