static char *parallel_line_x16[] = {
	"16 16 8 1",
	" 	c	None",
	"0	c	#000000",
	"1	c	#333300",
	"2	c	#663300",
	"3	c	#666666",
	"4	c	#996600",
	"5	c	#CC6600",
	"6	c	#CC9900",
	"                ",
	"                ",
	"                ",
	"                ",
	"                ",
	" 3333333333333  ",
	"      333       ",
	"      3333      ",
	"       33       ",
	"  6 666336666   ",
	" 0000000000002  ",
	"  666666666666  ",
	"  545445454454  ",
	" 0212222122222  ",
	"  6 6566 6566   ",
	"                "};

static char *parallel_line_x24[] = {
	"24 24 7 1",
	" 	c	None",
	"0	c	#000000",
	"1	c	#663300",
	"2	c	#666666",
	"3	c	#996600",
	"4	c	#CC6600",
	"5	c	#CC9900",
	"                        ",
	"                        ",
	"                        ",
	"                        ",
	"                        ",
	"                        ",
	"                        ",
	"   22222222222222222    ",
	"  2222222222222222222   ",
	"          222           ",
	"         22222          ",
	"         22222          ",
	"           22           ",
	"           22           ",
	"   55 5 55 2255 5 55    ",
	"  0110101101011010110   ",
	"  0330403304033040330   ",
	"   55 5 55 5 55 5 55    ",
	"   55 5 55 5 55 5 55    ",
	"  0110101101011010110   ",
	"  0330403304033040330   ",
	"                        ",
	"                        ",
	"                        "};

static char *parallel_line_x32[] = {
	"32 32 7 1",
	" 	c	None",
	"0	c	#000000",
	"1	c	#333300",
	"2	c	#663300",
	"3	c	#666666",
	"4	c	#996600",
	"5	c	#CC9900",
	"                                ",
	"                                ",
	"                                ",
	"                                ",
	"                                ",
	"                                ",
	"                                ",
	"                                ",
	"                                ",
	"                                ",
	"   333333333333333333333333     ",
	"   3333333333333333333333333    ",
	"              333               ",
	"             33333              ",
	"            3333333             ",
	"            33 3 33             ",
	"               3                ",
	"               3                ",
	"               3                ",
	"     5  5  55  3  5  55  5      ",
	"   014004204401400420440140     ",
	"   0140042044014004204401400    ",
	"    55  55 55 55  55 55 55      ",
	"    55  55 55 55  55 55 55      ",
	"    55  55 55 55  55 55 55      ",
	"    55  55 55 55  55 55 55      ",
	"   0000000000000000000000000    ",
	"    55  55 55 55  55 55 55      ",
	"                                ",
	"                                ",
	"                                ",
	"                                "};

static char *parallel_line_xpm[3] = { parallel_line_x16, parallel_line_x24, parallel_line_x32 };

