static char *parallel_x16[] = {
	"16 16 7 1",
	" 	c	None",
	"0	c	#000000",
	"1	c	#C40000",
	"2	c	#CE9B73",
	"3	c	#808080",
	"4	c	#C0C0C0",
	"5	c	#000000",
	" 4 4 4 4 4 4 4  ",
	"333333333333333 ",
	" 4 4 4 4 4 4 4  ",
	" 4 4 4 4 4 4 4  ",
	"3333333 3333333 ",
	" 4 4 4 1 4 4 4  ",
	"      111       ",
	"     11111      ",
	"       1        ",
	"       1        ",
	" 2 2 2 1 2 2 2  ",
	"0000000 0000000 ",
	" 2 2 2 2 2 2 2  ",
	" 2 2 2 2 2 2 2  ",
	"000000000000000 ",
	" 2 2 2 2 2 2 2  "};

static char *parallel_x24[] = {
	"24 24 49 1",
	" 	c	None",
	"0	c	#000000",
	"1	c	#2B1900",
	"2	c	#222222",
	"3	c	#2B2B2B",
	"4	c	#2C2C2C",
	"5	c	#312626",
	"6	c	#303030",
	"7	c	#373737",
	"8	c	#3D3D3D",
	"9	c	#4C0000",
	"A	c	#491200",
	"B	c	#520000",
	"C	c	#5F0000",
	"D	c	#422902",
	"E	c	#513303",
	"F	c	#453333",
	"G	c	#601200",
	"H	c	#7F0000",
	"I	c	#633D03",
	"J	c	#6C4506",
	"K	c	#724700",
	"L	c	#794D06",
	"M	c	#424242",
	"N	c	#4B4B4B",
	"O	c	#525252",
	"P	c	#595959",
	"Q	c	#626262",
	"R	c	#6D6D6D",
	"S	c	#717171",
	"T	c	#7B7B7B",
	"U	c	#810000",
	"V	c	#920000",
	"W	c	#B20000",
	"X	c	#BC0000",
	"Y	c	#855406",
	"Z	c	#8F5B05",
	"a	c	#9F6406",
	"b	c	#A2670A",
	"c	c	#BD790A",
	"d	c	#C50000",
	"e	c	#CC0000",
	"f	c	#D98B0D",
	"g	c	#838383",
	"h	c	#929292",
	"i	c	#9C9C9C",
	"j	c	#A4A4A4",
	"k	c	#B3B3B3",
	"l	c	#000000",
	"     7         6  6     ",
	" NS  j  g8 QQ 3h  h3 QQ ",
	"2QRNNTNNSPNQQNOTNNTONQQ6",
	" MR  k  g  PP  i  i  PP ",
	" MR  k  g  PP  i  i  PP ",
	" MR  k  g  PP  i  i  PP ",
	"2QRNNTNNSPNQQNOTNNTONQQ4",
	" NS  j  g8 QQ 3h  h3 QQ ",
	"  7  N  8  5F  N  N     ",
	"           XdB          ",
	"         CeXdeV         ",
	"         XHUW9d         ",
	"           HW           ",
	"           HW           ",
	"           HW           ",
	"           AG           ",
	" EY  f  b  JJ  c  c  JJ ",
	"000000000000000000000000",
	" EY  f  b  JJ  c  c  JJ ",
	" EY  f  b  JJ  c  c  JJ ",
	" EY  f  b  JJ  c  c  JJ ",
	" EK00a00YD0II01Z00Z10II ",
	" EK00a00YD0II01Z00Z10II ",
	"  E  Y  J  DD  L  L  DD "};

static char *parallel_x32[] = {
	"32 32 48 1",
	" 	c	None",
	"0	c	#000000",
	"1	c	#231300",
	"2	c	#281901",
	"3	c	#380000",
	"4	c	#341F00",
	"5	c	#313131",
	"6	c	#3F3F3F",
	"7	c	#580000",
	"8	c	#412701",
	"9	c	#412902",
	"A	c	#4D2F02",
	"B	c	#523403",
	"C	c	#5E3C05",
	"D	c	#650000",
	"E	c	#6B0000",
	"F	c	#700000",
	"G	c	#613C02",
	"H	c	#6B4405",
	"I	c	#744803",
	"J	c	#424242",
	"K	c	#4C4C4C",
	"L	c	#535353",
	"M	c	#575757",
	"N	c	#595959",
	"O	c	#646464",
	"P	c	#6F6F6F",
	"Q	c	#747474",
	"R	c	#7A7A7A",
	"S	c	#8B0000",
	"T	c	#920000",
	"U	c	#9E0000",
	"V	c	#AA0000",
	"W	c	#B20000",
	"X	c	#BB0000",
	"Y	c	#855406",
	"Z	c	#955E07",
	"a	c	#A2670A",
	"b	c	#AA6C07",
	"c	c	#BE790A",
	"d	c	#C50000",
	"e	c	#CB0000",
	"f	c	#D98B0D",
	"g	c	#858585",
	"h	c	#939393",
	"i	c	#9C9C9C",
	"j	c	#B3B3B3",
	"k	c	#000000",
	"                                ",
	"  gO  Lg   gJ  Qg  5g5  gO  Lg  ",
	" 5hR55Ph65KhO55gh55MhM55hR55Ph6 ",
	" 5hR55Ph65KhO55gh55MhM55hR55Ph6 ",
	"  jg  Pj   jN  ij  JjJ  jg  Pj  ",
	"  jg  Pj   jN  ij  JjJ  jg  Pj  ",
	"  jg  Pj   jN  ij  JjJ  jg  Pj  ",
	"  jg  Pj   jN  ij  JjJ  jg  Pj  ",
	" 5hR55Ph65KhO55gh55MhM55hR55Ph6 ",
	" 5hR55Ph65KhO55gh55MhM55hR55Ph6 ",
	"  gO  Lg   gJ  Qg  5g5  gO  Lg  ",
	"                                ",
	"              7deF              ",
	"             SeeeeU             ",
	"            WeXXeVed            ",
	"            WT We EX3           ",
	"               We               ",
	"               We               ",
	"               We               ",
	"               We               ",
	"               7D               ",
	"  HB  9H   H   CH   H   HB  9H  ",
	"  cZ  Yc2 9cH  bc  BcB  cZ  Yc2 ",
	" 0IG00BI104IA00HI008I800IG00BI10",
	"  fa  Yf   fH  cf  BfB  fa  Yf  ",
	"  fa  Yf   fH  cf  BfB  fa  Yf  ",
	"  fa  Yf   fH  cf  BfB  fa  Yf  ",
	"  fa  Yf   fH  cf  BfB  fa  Yf  ",
	"  cZ  Yc2 9cH  bc  BcB  cZ  Yc2 ",
	" 0IG00BI104IA00HI008I800IG00BI10",
	"  fa  Yf   fH  cf  BfB  fa  Yf  ",
	"                                "};

static char **parallel_xpm[3] = { parallel_x16, parallel_x24, parallel_x32 };

