static char *paste_x16[] = {
	"16 16 27 1",
	" 	c	None",
	"0	c	#2C2C2C",
	"1	c	#323232",
	"2	c	#3F3F3F",
	"3	c	#474747",
	"4	c	#4F4F4F",
	"5	c	#5A5A5A",
	"6	c	#626262",
	"7	c	#666666",
	"8	c	#676767",
	"9	c	#696969",
	"A	c	#6B6B6B",
	"B	c	#6E6E6E",
	"C	c	#939393",
	"D	c	#959595",
	"E	c	#A4A4A4",
	"F	c	#A7A7A7",
	"G	c	#ABABAB",
	"H	c	#AEAEAE",
	"I	c	#B1B1B1",
	"J	c	#BFBFBF",
	"K	c	#C7C7C7",
	"L	c	#D7D7D7",
	"M	c	#DCDCDC",
	"N	c	#E9E9E9",
	"O	c	#F5F5F5",
	"P	c	#000000",
	"     5778       ",
	" 566ADMMGB664   ",
	"5KMMLHCCFLMMI2  ",
	"9NOOO77777777777",
	"9NOO7OOOOOOOOOO7",
	"9NOO7OOOOOOOOOO7",
	"9NOO7OOOOOOOOOO7",
	"9NOO7OOOOOOOOOO7",
	"9NOO7OOOOOOOOOO7",
	"9NOO7OOOOOOOOOO7",
	"9NOO7OOOOOOOOOO7",
	"9NOO7OOOOOOOOOO7",
	"9NOO7OOOOOOOOOO7",
	"9NOO7OOOOOOOOOO7",
	"3EJJ7OOOOOOOOOO7",
	" 011777777777777"};

static char *paste_x24[] = {
	"24 24 30 1",
	" 	c	None",
	"0	c	#202020",
	"1	c	#323232",
	"2	c	#4A4A4A",
	"3	c	#4B4B4B",
	"4	c	#535353",
	"5	c	#5A5A5A",
	"6	c	#606060",
	"7	c	#626262",
	"8	c	#666666",
	"9	c	#686868",
	"A	c	#696969",
	"B	c	#6B6B6B",
	"C	c	#6E6E6E",
	"D	c	#747474",
	"E	c	#787878",
	"F	c	#919191",
	"G	c	#9B9B9B",
	"H	c	#AAAAAA",
	"I	c	#AFAFAF",
	"J	c	#B3B3B3",
	"K	c	#BFBFBF",
	"L	c	#C7C7C7",
	"M	c	#D2D2D2",
	"N	c	#DCDCDC",
	"O	c	#E6E6E6",
	"P	c	#ECECEC",
	"Q	c	#F2F2F2",
	"R	c	#F5F5F5",
	"S	c	#000000",
	"        37775           ",
	"       2INNNL6          ",
	" 498888CLNNNME8888A1    ",
	"0FQRRRRPJGGGHORRRRPB    ",
	"1KRRRRRRRRRRRRRRRRRD    ",
	"1KRRRRR8888888888888888 ",
	"1KRRRR8RRRRRRRRRRRRRRRR8",
	"1KRRRR8RRRRRRRRRRRRRRRR8",
	"1KRRRR8RRRRRRRRRRRRRRRR8",
	"1KRRRR8RRRRRRRRRRRRRRRR8",
	"1KRRRR8RRRRRRRRRRRRRRRR8",
	"1KRRRR8RRRRRRRRRRRRRRRR8",
	"1KRRRR8RRRRRRRRRRRRRRRR8",
	"1KRRRR8RRRRRRRRRRRRRRRR8",
	"1KRRRR8RRRRRRRRRRRRRRRR8",
	"1KRRRR8RRRRRRRRRRRRRRRR8",
	"1KRRRR8RRRRRRRRRRRRRRRR8",
	"1KRRRR8RRRRRRRRRRRRRRRR8",
	"1KRRRR8RRRRRRRRRRRRRRRR8",
	"1KRRRR8RRRRRRRRRRRRRRRR8",
	"1KRRRR8RRRRRRRRRRRRRRRR8",
	"0FQRRR8RRRRRRRRRRRRRRRR8",
	" 498888RRRRRRRRRRRRRRRR8",
	"       8888888888888888 "};

static char *paste_x32[] = {
	"32 32 41 1",
	" 	c	None",
	"0	c	#242424",
	"1	c	#282828",
	"2	c	#2C2C2C",
	"3	c	#323232",
	"4	c	#414141",
	"5	c	#424242",
	"6	c	#484848",
	"7	c	#505050",
	"8	c	#565656",
	"9	c	#5D5D5D",
	"A	c	#626262",
	"B	c	#666666",
	"C	c	#686868",
	"D	c	#696969",
	"E	c	#6B6B6B",
	"F	c	#797979",
	"G	c	#808080",
	"H	c	#818181",
	"I	c	#838383",
	"J	c	#888888",
	"K	c	#8C8C8C",
	"L	c	#9B9B9B",
	"M	c	#9E9E9E",
	"N	c	#A0A0A0",
	"O	c	#A5A5A5",
	"P	c	#A8A8A8",
	"Q	c	#AAAAAA",
	"R	c	#BBBBBB",
	"S	c	#BEBEBE",
	"T	c	#BFBFBF",
	"U	c	#CECECE",
	"V	c	#D2D2D2",
	"W	c	#D5D5D5",
	"X	c	#DCDCDC",
	"Y	c	#DFDFDF",
	"Z	c	#E3E3E3",
	"a	c	#E6E6E6",
	"b	c	#ECECEC",
	"c	c	#F5F5F5",
	"d	c	#000000",
	"           233333               ",
	"          6NTTTTRA              ",
	"         5MccccccS8             ",
	" 0DJJJJJJGGVXXXXWKHJJJJJF9      ",
	" CZcccccccaQLLLLOYcccccccP1     ",
	" IcccccccccccccccccccccccU7     ",
	" JcccccccccccccccccccccccU7     ",
	" JcccccccBBBBBBBBBBBBBBBBBBBBBB ",
	" JcccccccBccccccccccccccccccccB ",
	" JcccccccBccccccccccccccccccccB ",
	" JcccccccBccccccccccccccccccccB ",
	" JcccccccBccccccccccccccccccccB ",
	" JcccccccBccccccccccccccccccccB ",
	" JcccccccBccccccccccccccccccccB ",
	" JcccccccBccccccccccccccccccccB ",
	" JcccccccBccccccccccccccccccccB ",
	" JcccccccBccccccccccccccccccccB ",
	" JcccccccBccccccccccccccccccccB ",
	" JcccccccBccccccccccccccccccccB ",
	" JcccccccBccccccccccccccccccccB ",
	" JcccccccBccccccccccccccccccccB ",
	" JcccccccBccccccccccccccccccccB ",
	" JcccccccBccccccccccccccccccccB ",
	" JcccccccBccccccccccccccccccccB ",
	" JcccccccBccccccccccccccccccccB ",
	" JcccccccBccccccccccccccccccccB ",
	" JcccccccBccccccccccccccccccccB ",
	" JcccccccBccccccccccccccccccccB ",
	" EbccccccBccccccccccccccccccccB ",
	" 4FTTTTTTBccccccccccccccccccccB ",
	"   333333BccccccccccccccccccccB ",
	"         BBBBBBBBBBBBBBBBBBBBBB "};

static char **paste_xpm[3] = { paste_x16, paste_x24, paste_x32 };

