static char* pause_x16[] = {
	"16 16 20 1",
	" 	c	None",
	"0	c	#000000",
	"1	c	#003300",
	"2	c	#003333",
	"3	c	#006633",
	"4	c	#009966",
	"5	c	#333333",
	"6	c	#336633",
	"7	c	#336666",
	"8	c	#339966",
	"9	c	#33CC99",
	"A	c	#666666",
	"B	c	#66CC99",
	"C	c	#99CC99",
	"D	c	#99CCCC",
	"E	c	#CCCCCC",
	"F	c	#CCFFCC",
	"G	c	#CCFFFF",
	"H	c	#FFFFFF",
	"I	c	#808080",
	"        0       ",
	"      00000     ",
	"    01133300    ",
	"  001688887210  ",
	" 01688888888821 ",
	" 07CCCCDDDDDDC5 ",
	" 0AEEEEEEEEEEE5 ",
	" 0IHHHHHHHHHHG5 ",
	" 0IHHHHHHHHHHG5 ",
	" 0AFFFFFFFFFFD5 ",
	" 07DDDDDDDDDDC2 ",
	" 05BBBBBBBBBBB2 ",
	"  128BBBBBB9720 ",
	"   0128999810   ",
	"     0134210    ",
	"       020      "};

static char* pause_x24[] = {
	"24 24 22 1",
	" 	c	None",
	"0	c	#000000",
	"1	c	#003300",
	"2	c	#003333",
	"3	c	#006633",
	"4	c	#009966",
	"5	c	#333333",
	"6	c	#336633",
	"7	c	#336666",
	"8	c	#339966",
	"9	c	#33CC66",
	"A	c	#33CC99",
	"B	c	#666666",
	"C	c	#669999",
	"D	c	#66CC99",
	"E	c	#99CCCC",
	"F	c	#99FFCC",
	"G	c	#CCCCCC",
	"H	c	#CCFFCC",
	"I	c	#CCFFFF",
	"J	c	#FFFFFF",
	"K	c	#808080",
	"                        ",
	"           000          ",
	"         0012000        ",
	"       0003333300       ",
	"      0036777773210     ",
	"    01278888888887100   ",
	"  01278888888888888710  ",
	"  05CCCCCCCCCCCCCCCCC0  ",
	"  07EEEEEEEEEEEEEEEEE0  ",
	"  0BGGGGGGGGGGGGGGGGG0  ",
	"  0BIIIIIIIIIIIIIIIII0  ",
	"  0KJJJJJJJJJJJJJJJJJ0  ",
	"  0KJJJJJJJJJJJJJJJJJ0  ",
	"  0BHHHHHHHHHHHHHHHHH0  ",
	"  0BFFFFFFFFFFFFFFFFF0  ",
	"  07EEEEEEEEEEEEEEEEE0  ",
	"  07DDDDDDDDDDDDDDDDD0  ",
	"  02DDDDDDDDDDDDDDDDC1  ",
	"   027DDDDDDDDDDDDA620  ",
	"     028AAAAAAAAA720    ",
	"      0128AAAA9811      ",
	"        013894110       ",
	"          01210         ",
	"            0           "};

static char* pause_x32[] = {
	"32 32 22 1",
	" 	c	None",
	"0	c	#000000",
	"1	c	#003300",
	"2	c	#003333",
	"3	c	#006633",
	"4	c	#009966",
	"5	c	#333333",
	"6	c	#336633",
	"7	c	#336666",
	"8	c	#339966",
	"9	c	#339999",
	"A	c	#33CC66",
	"B	c	#33CC99",
	"C	c	#669966",
	"D	c	#66CC99",
	"E	c	#99CC99",
	"F	c	#99CCCC",
	"G	c	#99FFCC",
	"H	c	#CCCCCC",
	"I	c	#CCFFCC",
	"J	c	#CCFFFF",
	"K	c	#FFFFFF",
	"                                ",
	"                                ",
	"              00000             ",
	"             0023300            ",
	"           00233333200          ",
	"         011333333333210        ",
	"       0013777777777776100      ",
	"      006888888888888888600     ",
	"    0168888888888888888888210   ",
	"   018CCCCCCCCCCCCCCCCCCCCC810  ",
	"   05EEEEEEEEEEEEEEEEEEEEEEE50  ",
	"   05FFFFFFFFFFFFFFFFFFFFFFF50  ",
	"   05HHHHHHHHHHHHHHHHHHHHHHH50  ",
	"   05IIIIIIIIIIIIIIIIIIIIIII50  ",
	"   05KKKKKKKKKKKKKKKKKKKKKKK50  ",
	"   05KKKKKKKKKKKKKKKKKKKKKKK50  ",
	"   06KKKKKKKKKKKKKKKKKKKKKKK60  ",
	"   05JJJJJJJJJJJJJJJJJJJJJJJ50  ",
	"   05IIIIIIIIIIIIIIIIIIIIIII50  ",
	"   05GGGGGGGGGGGGGGGGGGGGGGG50  ",
	"   05FFFFFFFFFFFFFFFFFFFFFFF50  ",
	"   05FFFFFFFFFFFFFFFFFFFFFFF50  ",
	"   05DDDDDDDDDDDDDDDDDDDDDDD50  ",
	"   028DDDDDDDDDDDDDDDDDDDDD820  ",
	"    0228DDDDDDDDDDDDDDDDD9220   ",
	"      026BBBBBBBBBBBBBBB620     ",
	"        028BBBBBBBBBBB820       ",
	"          128AAAAAAA821         ",
	"           0128AAA4210          ",
	"             0134310            ",
	"               010              ",
	"                                "};

static char *pause_xpm[3] = { pause_x16, pause_x24, pause_x32 };

