static char *polyline_x16[] = {
	"16 16 15 1",
	" 	c	None",
	"0	c	#3030e8",
	"1	c	#5858e0",
	"2	c	#7070d8",
	"3	c	#4848e0",
	"4	c	#4040e0",
	"5	c	#7878d8",
	"6	c	#6060e0",
	"7	c	#5050e0",
	"8	c	#6868e0",
	"9	c	#3838e0",
	"A	c	#8080d8",
	"B	c	#3838e8",
	"C	c	#4040e8",
	"D	c	#7070e0",
	"                ",
	"                ",
	" 5           4  ",
	" BC3         7  ",
	" 3  806       1 ",
	" B     D      B ",
	" 4            1 ",
	" 8            A ",
	"  5           3 ",
	"  B           3 ",
	"   7         3  ",
	"   62        7  ",
	"    3       9   ",
	"     B  A64B2   ",
	"      36        ",
	"                "};
static char *polyline_x24[] = {
	"24 24 21 1",
	" 	c	None",
	"0	c	#0808f0",
	"1	c	#4848e0",
	"2	c	#2828e8",
	"3	c	#7070d8",
	"4	c	#1818e8",
	"5	c	#5858e0",
	"6	c	#3838e0",
	"7	c	#8080d8",
	"8	c	#6060e0",
	"9	c	#1010e8",
	"A	c	#4040e0",
	"B	c	#2020e8",
	"C	c	#3030e8",
	"D	c	#6868d8",
	"E	c	#7878d8",
	"F	c	#5050e0",
	"G	c	#3838e8",
	"H	c	#4040e8",
	"I	c	#1010f0",
	"J	c	#6868e0",
	"                        ",
	"                        ",
	"                   6    ",
	" E                 CD   ",
	" 0I1                4   ",
	" 238B48             27  ",
	" 1J   FICE          EC  ",
	" 31     7G05         0  ",
	"  B                  GE ",
	"  0                  3H ",
	"  4                   I ",
	"  HE                  0 ",
	"  85                 EC ",
	"   C                 B  ",
	"   47               72  ",
	"    I               B   ",
	"    E4             E2   ",
	"     52            4    ",
	"      6A          8G    ",
	"       28         I     ",
	"        4E 78AB09CJ     ",
	"         04G5E          ",
	"                        ",
	"                        "};
static char *polyline_x32[] = {
	"32 32 22 1",
	" 	c	None",
	"0	c	#0808f0",
	"1	c	#4040e0",
	"2	c	#2020e8",
	"3	c	#6868d8",
	"4	c	#5858e0",
	"5	c	#1010e8",
	"6	c	#3030e8",
	"7	c	#7878d8",
	"8	c	#5050e0",
	"9	c	#1818e8",
	"A	c	#7070d8",
	"B	c	#6060e0",
	"C	c	#4848e0",
	"D	c	#2828e8",
	"E	c	#3838e0",
	"F	c	#1010f0",
	"G	c	#8080d8",
	"H	c	#4040e8",
	"I	c	#7070e0",
	"J	c	#6868e0",
	"K	c	#3838e8",
	"                                ",
	"                                ",
	"                                ",
	"                         D4     ",
	" G                       30     ",
	" 6FC                      2K    ",
	" 40909B                   A0    ",
	" 70  8F0DA                 F4   ",
	"  0    7600C               85   ",
	"  0A      B909B             0   ",
	"  2C         8FH            9C  ",
	"  CD                        45  ",
	"  J0                         0  ",
	"   0                         54 ",
	"   0G                        16 ",
	"   54                        6E ",
	"   KK                        0A ",
	"   45                       8F  ",
	"   G0                       0B  ",
	"    22                     4F   ",
	"     56                    04   ",
	"      08                  8F    ",
	"      A0A                 0B    ",
	"       80                H9     ",
	"        6F               07     ",
	"         29             D2      ",
	"          56         JCD0       ",
	"           08 GB120000DCJ       ",
	"           I000F6CJ             ",
	"            G                   ",
	"                                ",
	"                                "};

static char **polyline_xpm[3] = { polyline_x16, polyline_x24, polyline_x32 };
