static char *polygon_x16[] = {
	"16 16 2 1",
	" 	c	None",
	"0	c	#000000",
	"                ",
	"                ",
	"    0000000     ",
	"   00000000     ",
	"  00      00    ",
	"  00       00   ",
	"  00        00  ",
	"  00        00  ",
	"  00        00  ",
	"  000       00  ",
	"   00       00  ",
	"   0000     00  ",
	"    0000000000  ",
	"      000000    ",
	"                ",
	"                "};

static char *polygon_x24[] = {
	"24 24 2 1",
	" 	c	None",
	"0	c	#000000",
	"                        ",
	"                        ",
	"                        ",
	"           0000         ",
	"     00000000000        ",
	"    000000    000       ",
	"    00         000      ",
	"    00          000     ",
	"   00            000    ",
	"   00             000   ",
	"   00              00   ",
	"   00              00   ",
	"    00             00   ",
	"    00             00   ",
	"    00             00   ",
	"     00            00   ",
	"     000           00   ",
	"      0000         00   ",
	"       00000   000000   ",
	"         0000000000     ",
	"           0000         ",
	"                        ",
	"                        ",
	"                        "};

static char *polygon_x32[] = {
	"32 32 2 1",
	" 	c	None",
	"0	c	#000000",
	"                                ",
	"                                ",
	"                                ",
	"                                ",
	"                                ",
	"          0000000000            ",
	"      00000000000  00           ",
	"      000           00          ",
	"      00             00         ",
	"     00              000        ",
	"     00               000       ",
	"     00                000      ",
	"    00                  000     ",
	"    00                   000    ",
	"    00                    00    ",
	"     00                   00    ",
	"     00                   00    ",
	"     00                   00    ",
	"      00                  00    ",
	"      00                  00    ",
	"      00                  00    ",
	"       00                 00    ",
	"       0000               00    ",
	"         0000             00    ",
	"          00000       000000    ",
	"            0000  000000000     ",
	"              00000000          ",
	"                0               ",
	"                                ",
	"                                ",
	"                                ",
	"                                "};

static char *polygon_xpm[3] = { polygon_x16, polygon_x24, polygon_x32 };

