static char *profile_x16[] = {
	"16 16 8 1",
	" 	c	None",
	"0	c	#000000",
	"1	c	#003366",
	"2	c	#003399",
	"3	c	#006699",
	"4	c	#0066CC",
	"5	c	#0066FF",
	"6	c	#0099FF",
	"                ",
	"                ",
	"                ",
	"  0555          ",
	"  0665          ",
	"  06665  555500 ",
	" 00566656666610 ",
	"  066666666663  ",
	" 00566666666610 ",
	" 00566666666610 ",
	"  0666666666620 ",
	" 00566666666610 ",
	"  0545454545420 ",
	"  0000000000000 ",
	"    0   0   00  ",
	"                "};

static char *profile_x24[] = {
	"24 24 7 1",
	" 	c	None",
	"0	c	#000000",
	"1	c	#003366",
	"2	c	#006699",
	"3	c	#0066CC",
	"4	c	#0066FF",
	"5	c	#0099FF",
	"                        ",
	"                        ",
	"                        ",
	"                        ",
	"                        ",
	"    1555                ",
	"   035554               ",
	"   035555               ",
	"   0355554   445544 00  ",
	"  00255555  4555555300  ",
	"   035555555555555550   ",
	"   035555555555555550   ",
	"   0355555555555555500  ",
	"  00255555555555555300  ",
	"   035555555555555550   ",
	"   035555555555555550   ",
	"  00255555555555555400  ",
	"  00355555555555555400  ",
	"   035555555555555550   ",
	"   000000000000000000   ",
	"      00 00 00 00 00    ",
	"                        ",
	"                        ",
	"                        "};

static char *profile_x32[] = {
	"32 32 6 1",
	" 	c	None",
	"0	c	#000000",
	"1	c	#006699",
	"2	c	#0066CC",
	"3	c	#0066FF",
	"4	c	#0099FF",
	"                                ",
	"                                ",
	"                                ",
	"                                ",
	"                                ",
	"                                ",
	"        33                      ",
	"     034443                     ",
	"     044444                     ",
	"     0444443                    ",
	"     0444444        3           ",
	"     04444443     3444443300    ",
	"   00044444443  34444444441000  ",
	"     04444444334444444444430    ",
	"     04444444444444444444430    ",
	"     04444444444444444444430    ",
	"     04444444444444444444430    ",
	"   000444444444444444444442000  ",
	"   00044444444444444444444200   ",
	"     04444444444444444444430    ",
	"     04444444444444444444430    ",
	"     04444444444444444444430    ",
	"   000444444444444444444441000  ",
	"     04444444444444444444430    ",
	"     04444444444444444444430    ",
	"     02222222222222222222210    ",
	"     00000000000000000000000    ",
	"        00  00  00   0   00     ",
	"                                ",
	"                                ",
	"                                ",
	"                                "};

static char *profile_xpm[3] = { profile_x16, profile_x24, profile_x32 };

