static char *protractor_x16[] = {
	"16 16 15 1",
	" 	c	None",
	"0	c	#000000",
	"1	c	#000101",
	"2	c	#000202",
	"3	c	#170202",
	"4	c	#1C0202",
	"5	c	#3B0000",
	"6	c	#540000",
	"7	c	#580000",
	"8	c	#5F0000",
	"9	c	#6B0000",
	"A	c	#720000",
	"B	c	#980000",
	"C	c	#B20000",
	"D	c	#000000",
	"                ",
	"            10  ",
	"           00   ",
	"          01    ",
	"         1      ",
	"        2       ",
	"      06        ",
	"     007A       ",
	"    01  C       ",
	"   11   89      ",
	"  2      B      ",
	" 201     C      ",
	"  1022015B      ",
	"      103401    ",
	"          00220 ",
	"              1 "};

static char *protractor_x24[] = {
	"24 24 21 1",
	" 	c	None",
	"0	c	#000000",
	"1	c	#000101",
	"2	c	#000202",
	"3	c	#050202",
	"4	c	#250202",
	"5	c	#320000",
	"6	c	#380000",
	"7	c	#4C0000",
	"8	c	#580000",
	"9	c	#5F0000",
	"A	c	#6B0000",
	"B	c	#6D0000",
	"C	c	#720000",
	"D	c	#7A0000",
	"E	c	#7F0000",
	"F	c	#920000",
	"G	c	#A50000",
	"H	c	#AA0000",
	"I	c	#B20000",
	"J	c	#000000",
	"                        ",
	"                   01   ",
	"                  021   ",
	"                 221    ",
	"                22      ",
	"              022       ",
	"             021        ",
	"            020         ",
	"           221          ",
	"          241           ",
	"        122D7           ",
	"       121  G           ",
	"      020   A9          ",
	"     121     H          ",
	"    220      I          ",
	"  022        F6         ",
	" 021         C8         ",
	" 022200      C8         ",
	"   00222200  E7         ",
	"       002222B5         ",
	"           00322200     ",
	"               1022220  ",
	"                   1022 ",
	"                        "};

static char *protractor_x32[] = {
	"32 32 26 1",
	" 	c	None",
	"0	c	#000000",
	"1	c	#000101",
	"2	c	#000202",
	"3	c	#100101",
	"4	c	#150101",
	"5	c	#1C0202",
	"6	c	#380000",
	"7	c	#3F0000",
	"8	c	#450000",
	"9	c	#4C0000",
	"A	c	#580000",
	"B	c	#590101",
	"C	c	#5F0000",
	"D	c	#650000",
	"E	c	#6B0000",
	"F	c	#720000",
	"G	c	#7F0000",
	"H	c	#8B0000",
	"I	c	#A50000",
	"J	c	#B30000",
	"K	c	#B80000",
	"L	c	#C50000",
	"M	c	#C90000",
	"N	c	#CC0000",
	"O	c	#000000",
	"                                ",
	"                          0     ",
	"                         020    ",
	"                        222     ",
	"                       222      ",
	"                     0220       ",
	"                    0220        ",
	"                   0220         ",
	"                  222           ",
	"                 222            ",
	"               1220             ",
	"              1220              ",
	"             0223               ",
	"            125JE               ",
	"           222 IL               ",
	"         0221   NI              ",
	"        1220    HN              ",
	"       0221     7NF             ",
	"      1221       KK             ",
	"     222         GN             ",
	"    222          CN6            ",
	"  1220           8NA            ",
	" 12200            ND            ",
	" 022222200        NC            ",
	"    0022222201   9N9            ",
	"        102222220BM             ",
	"            1022222400          ",
	"                102222210       ",
	"                    102222210   ",
	"                        1022220 ",
	"                            10  ",
	"                                "};

static char **protractor_xpm[3] = { protractor_x16, protractor_x24, protractor_x32 };

