static char *redo_x16[] = {
	"16 16 5 1",
	" 	c	None",
	"0	c	#000000",
	"1	c	#009900",
	"2	c	#00CC00",
	"3	c	#00FF00",
	"                ",
	"                ",
	"        22      ",
	"        2222    ",
	"      2223322   ",
	"     23333322   ",
	"    23322222    ",
	"   2232 22      ",
	"   232          ",
	"   222          ",
	"  222           ",
	"  222           ",
	"  222           ",
	"  22            ",
	"   2            ",
	"                "};

static char *redo_x24[] = {
	"24 24 5 1",
	" 	c	None",
	"0	c	#000000",
	"1	c	#009900",
	"2	c	#00CC00",
	"3	c	#00FF00",
	"                        ",
	"                        ",
	"                        ",
	"             22         ",
	"             232        ",
	"            223322      ",
	"         2222333322     ",
	"        223333333322    ",
	"       233333333322     ",
	"      23332222332       ",
	"      23322  222        ",
	"     23322   22         ",
	"     2332               ",
	"    2232                ",
	"    2322                ",
	"    232                 ",
	"    232                 ",
	"    222                 ",
	"    222                 ",
	"   222                  ",
	"   222                  ",
	"                        ",
	"                        ",
	"                        "};

static char *redo_x32[] = {
	"32 32 5 1",
	" 	c	None",
	"0	c	#000000",
	"1	c	#009900",
	"2	c	#00CC00",
	"3	c	#00FF00",
	"                                ",
	"                                ",
	"                                ",
	"                                ",
	"                 22             ",
	"                 2222           ",
	"                 22322          ",
	"                2223332         ",
	"             222223333322       ",
	"           222333333333322      ",
	"          223333333333332       ",
	"         223333333333322        ",
	"        223333222233322         ",
	"        2333322  23322          ",
	"       223332    222            ",
	"       23332     22             ",
	"      223322                    ",
	"      23332                     ",
	"      2332                      ",
	"      2332                      ",
	"     22322                      ",
	"     2332                       ",
	"     2332                       ",
	"     2322                       ",
	"     232                        ",
	"     232                        ",
	"     232                        ",
	"     222                        ",
	"                                ",
	"                                ",
	"                                ",
	"                                "};

static char **redo_xpm[3] = { redo_x16, redo_x24, redo_x32 };

