static char *reflect_x16[] = {
	"16 16 31 1",
	" 	c	None",
	"0	c	#181818",
	"1	c	#10a0c8",
	"2	c	#505050",
	"3	c	#58c8f0",
	"4	c	#808080",
	"5	c	#40a8d0",
	"6	c	#303030",
	"7	c	#60b0c8",
	"8	c	#506870",
	"9	c	#78d8f8",
	"A	c	#28a8d0",
	"B	c	#40b8e0",
	"C	c	#282828",
	"D	c	#606060",
	"E	c	#68d0f8",
	"F	c	#30a8d0",
	"G	c	#48c0e8",
	"H	c	#202020",
	"I	c	#70b8d0",
	"J	c	#686868",
	"K	c	#383838",
	"L	c	#585858",
	"M	c	#30b0d8",
	"N	c	#28b0d8",
	"O	c	#80d8f8",
	"P	c	#70d0f8",
	"Q	c	#18a0c8",
	"R	c	#48b8e0",
	"S	c	#38a8d0",
	"T	c	#70d8f8",
	"                ",
	"                ",
	"       D4       ",
	" Q     D4     0 ",
	" BAI   D4   JC6 ",
	" G9R5  D4  KKDK ",
	" GOO3A D4 H2DDK ",
	" GOOOP1820DDDDK ",
	" GOO9M7D4LCDDDK ",
	" GOTA  D4 4CDDK ",
	" GEA   D4   H2K ",
	" NF    D4    CH ",
	" S     D4     K ",
	"       D4       ",
	"                ",
	"                "};
static char *reflect_x24[] = {
	"24 24 40 1",
	" 	c	None",
	"0	c	#000000",
	"1	c	#0098c8",
	"2	c	#404040",
	"3	c	#48c0e8",
	"4	c	#181818",
	"5	c	#20a0c8",
	"6	c	#70d0f8",
	"7	c	#585858",
	"8	c	#70b8c8",
	"9	c	#282828",
	"A	c	#606060",
	"B	c	#40a8c8",
	"C	c	#10a0c8",
	"D	c	#080808",
	"E	c	#80d8f8",
	"F	c	#283030",
	"G	c	#58c8f0",
	"H	c	#28b0d8",
	"I	c	#686868",
	"J	c	#101010",
	"K	c	#484848",
	"L	c	#18a8d0",
	"M	c	#383838",
	"N	c	#202020",
	"O	c	#78d8f8",
	"P	c	#60d0f0",
	"Q	c	#30a8c8",
	"R	c	#50b0c8",
	"S	c	#80b8c8",
	"T	c	#0898c8",
	"U	c	#505050",
	"V	c	#10a0d0",
	"W	c	#707070",
	"X	c	#70d8f8",
	"Y	c	#18a0c8",
	"Z	c	#303030",
	"a	c	#28a0c8",
	"b	c	#48a8c8",
	"c	c	#68d0f0",
	"                        ",
	"                        ",
	"           MA           ",
	"           97           ",
	" 5         97         4 ",
	" 11S       97       W00 ",
	" 1GVb      97      ZJK0 ",
	" 1XOHY     97     DNA70 ",
	" 1XEE3T8   97   AD2AA70 ",
	" 1XEEEPVB  97  947AAA70 ",
	" 1XEEEEOHC 97 DZAAAAA70 ",
	" 1XEEEEEOLCFK09AAAAAA70 ",
	" 1XEEEEOH5 97 J9AAAAA70 ",
	" 1XEEE6LQ  97  NNAAAA70 ",
	" 1XEEcCR   97   KJUAA70 ",
	" 1XEGT8    97    IDKA70 ",
	" 1X3T      97      DZ70 ",
	" 1HC       97       JN0 ",
	" 1a        97        90 ",
	" B         97         K ",
	"           97           ",
	"           MA           ",
	"                        ",
	"                        "};
static char *reflect_x32[] = {
	"32 32 41 1",
	" 	c	None",
	"0	c	#000000",
	"1	c	#0098c8",
	"2	c	#484848",
	"3	c	#72b8c8",
	"4	c	#202020",
	"5	c	#28a0c8",
	"6	c	#4ca8c8",
	"7	c	#101010",
	"8	c	#585858",
	"9	c	#68d0f0",
	"A	c	#10a0c8",
	"B	c	#383838",
	"C	c	#48c0e8",
	"D	c	#707070",
	"E	c	#28b0d8",
	"F	c	#78d8f8",
	"G	c	#303030",
	"H	c	#10a8d0",
	"I	c	#080808",
	"J	c	#606060",
	"K	c	#181818",
	"L	c	#38a8c8",
	"M	c	#5ab0c8",
	"N	c	#18a0c8",
	"O	c	#686868",
	"P	c	#20a8d8",
	"Q	c	#80d8f8",
	"R	c	#08a0d0",
	"S	c	#70d4f8",
	"T	c	#505050",
	"U	c	#282828",
	"V	c	#30b2e0",
	"W	c	#40a8c8",
	"X	c	#50c0e8",
	"Y	c	#787878",
	"Z	c	#0898c8",
	"a	c	#18a8d0",
	"b	c	#20a0c8",
	"c	c	#10a0d0",
	"d	c	#50c8e8",
	"                                ",
	"                                ",
	"                                ",
	"               0G               ",
	"               0G               ",
	" M             0G             8 ",
	" L1            0G           D0B ",
	" L116          0G          B00B ",
	" LaX1N         0G         7I27B ",
	" LaQ9c13       0G       J0K8J7B ",
	" LaQQFV1W      0G      U0GJJJ7B ",
	" LaQQQQX1N     0G     0I2JJJJ7B ",
	" LaQQQQQ9H13   0G   204JJJJJJ7B ",
	" LaQQQQQQFV1W  0G  K0BJJJJJJJ7B ",
	" LaQQQQQQQQX1N 0GO07TJJJJJJJJ7B ",
	" LaQQQQQQQQFE160UU0BJJJJJJJJJ7B ",
	" LaQQQQQQQFP1M 0G 20UJJJJJJJJ7B ",
	" LaQQQQQQSa1   0G  O0KJJJJJJJ7B ",
	" LaQQQQQ9RA    0G    I78JJJJJ7B ",
	" LaQQQQd1b     0G     7I2JJJJ7B ",
	" LaQQQC1L      0G      G0BJJJ7B ",
	" LaQFV1M       0G       20UJJ7B ",
	" LaSP13        0G        Y0K87B ",
	" LccZ          0G          IIIB ",
	" L1N           0G           K0B ",
	" L5            0G            GB ",
	"               0G               ",
	"               0G               ",
	"               0G               ",
	"                                ",
	"                                ",
	"                                "};

static char **reflect_xpm[3] = { reflect_x16, reflect_x24, reflect_x32 };
