static char *rotate_x16[] = {
	"16 16 41 1",
	" 	c	None",
	"0	c	#c81008",
	"1	c	#1398c8",
	"2	c	#7098b8",
	"3	c	#30d0e0",
	"4	c	#c85e58",
	"5	c	#78bcbc",
	"6	c	#607088",
	"7	c	#a8a8a8",
	"8	c	#a83838",
	"9	c	#4898b0",
	"A	c	#50c8d8",
	"B	c	#28b0d0",
	"C	c	#a49494",
	"D	c	#b08880",
	"E	c	#b8b8b8",
	"F	c	#2d90c0",
	"G	c	#909090",
	"H	c	#40e8e8",
	"I	c	#c8443c",
	"J	c	#58e8e8",
	"K	c	#5daac8",
	"L	c	#c82d25",
	"M	c	#6490a0",
	"N	c	#90d0d0",
	"O	c	#c87470",
	"P	c	#c85048",
	"Q	c	#a0a0a0",
	"R	c	#2090c4",
	"S	c	#48a8c8",
	"T	c	#78c0cc",
	"U	c	#68c0d0",
	"V	c	#c82018",
	"W	c	#68a0c0",
	"X	c	#b0b0b0",
	"Y	c	#40c8d8",
	"Z	c	#c88078",
	"a	c	#34b0d0",
	"b	c	#68e0e0",
	"c	c	#3890c0",
	"d	c	#c0c0c0",
	"                ",
	" 1H3B           ",
	" c  2P4         ",
	" 1H3B  4VO      ",
	" c  W    4I     ",
	" 1H3B     OI    ",
	" F  K    I PZ   ",
	" 1JYa   O   L   ",
	" F TK       I   ",
	" 1bAa I    L4PL ",
	" F UMO      V0  ",
	" R5M6CQ7Q7Q7CDQ ",
	" R589XXE7 7 7 7 ",
	" SNTK d E E E E ",
	"  QGGGGGGGGGGGG ",
	"                "};
static char *rotate_x24[] = {
	"24 24 41 1",
	" 	c	None",
	"0	c	#c80b02",
	"1	c	#0480bc",
	"2	c	#808080",
	"3	c	#0dc8e0",
	"4	c	#786870",
	"5	c	#78b0c8",
	"6	c	#3cbcd8",
	"7	c	#327aa2",
	"8	c	#9ea0a0",
	"9	c	#b0b0b0",
	"A	c	#45d8e0",
	"B	c	#c6706c",
	"C	c	#c8251c",
	"D	c	#8c8484",
	"E	c	#0af8f8",
	"F	c	#269ac2",
	"G	c	#a86060",
	"H	c	#0d9ac9",
	"I	c	#c88080",
	"J	c	#54a0c4",
	"K	c	#68b0d0",
	"L	c	#64e4e4",
	"M	c	#b8b8b8",
	"N	c	#28e0e8",
	"O	c	#c61810",
	"P	c	#28c5d2",
	"Q	c	#989898",
	"R	c	#c8332c",
	"S	c	#c85854",
	"T	c	#7cd0d4",
	"U	c	#3690c0",
	"V	c	#c0a0a0",
	"W	c	#68d0d5",
	"X	c	#c87973",
	"Y	c	#44e8e8",
	"Z	c	#c0c0c0",
	"a	c	#24f0f0",
	"b	c	#54b8d0",
	"c	c	#8f9090",
	"d	c	#a6a8a8",
	"                        ",
	"  F  5J                 ",
	" N1aa3H                 ",
	"  1   U X               ",
	" T1  bFBC00OS           ",
	" A1YYPH    BC0S         ",
	"  1   U       OR        ",
	" W1LL6H        CC       ",
	" W1LL6H         CR      ",
	"  1   U      IO  0B     ",
	" A1YYPH          BO     ",
	" T1  bF    XC     OB    ",
	"  1   U    B      SR    ",
	" A1aa3H  XS        0 CS ",
	"  1  KU  R      B0S0RO  ",
	"  1   UX         X000   ",
	" N1EE37O          V0BZ  ",
	"  1dc47DQccQccQccQccQD8 ",
	"  1 GO789d89d898d98d98  ",
	" N1EPFHW  M ZM MZ M  9  ",
	"  J 9 59  M ZM ZZ M  9  ",
	"   Q222222222222222222c ",
	"    9  9  M  M ZZ M  M  ",
	"                        "};
static char *rotate_x32[] = {
	"32 32 41 1",
	" 	c	None",
	"0	c	#c80800",
	"1	c	#0e7db6",
	"2	c	#807f7f",
	"3	c	#05f8f8",
	"4	c	#989898",
	"5	c	#804050",
	"6	c	#488098",
	"7	c	#40e8e8",
	"8	c	#00b8d9",
	"9	c	#80b0c8",
	"A	c	#c8534d",
	"B	c	#30d8d8",
	"C	c	#b43028",
	"D	c	#5fa0c0",
	"E	c	#c08880",
	"F	c	#c87c78",
	"G	c	#c8190c",
	"H	c	#306090",
	"I	c	#b8b8b8",
	"J	c	#63e0e0",
	"K	c	#18b2d5",
	"L	c	#c86460",
	"M	c	#a8a8a8",
	"N	c	#45a5ca",
	"O	c	#c8433b",
	"P	c	#0080c0",
	"Q	c	#b0b0b0",
	"R	c	#a83c34",
	"S	c	#a0a0a0",
	"T	c	#2ceeee",
	"U	c	#55e5e5",
	"V	c	#c87870",
	"W	c	#69a0c8",
	"X	c	#c8241c",
	"Y	c	#74e0e0",
	"Z	c	#c0c0c0",
	"a	c	#c8332d",
	"b	c	#28afd0",
	"c	c	#0880c0",
	"d	c	#10b2d8",
	"                                ",
	"   9    W                       ",
	"  bcUUUbPJ                      ",
	"  dPTTTKP7                      ",
	"  D1   Wc                       ",
	"  D1   Wc 0000XL                ",
	"  dPTTTdP7 VLOG00a              ",
	"  bcUUUbPJ      O00A            ",
	"  D1   Wc         a0X           ",
	"  D1   Wc          L0G          ",
	" Y8P3338P3           0G         ",
	"  Nc   Nc          L  0a        ",
	"  D1   Wc         O0  A0L       ",
	"  Nc   Nc         a    X0       ",
	" J8P3338P3      L       0A      ",
	"  Nc   Dc      O0       X0      ",
	"  D1   Wc      a        V0      ",
	"  NcYYYNc    L           0A Fa  ",
	" Y8P3338PT  O0        OA GX 0G  ",
	"  D1   Wc   a         X0aa000   ",
	"  D1   Wc L            A0000    ",
	"  bPUUUb1R0             F00A    ",
	"  KPTTTK1CE  Q   Q   Q  IEO IZ  ",
	"  D1M2251222222222222222222222  ",
	"  D1 4C0H44SS4SSS4SSS4SS44SS44  ",
	"  dPTBR6PTI  Q   Q  ZQ  II  IZ  ",
	"  bcJUUbPJI  Q   Q  ZQ  II  IZ  ",
	"     II  II  Q   Q  ZQ  II  QI  ",
	"    S2222222222222222222222222  ",
	"     SSMMSSMM4MMM4MMM4MMSSMMSS  ",
	"             Z   Z   Z          ",
	"                                "};

static char **rotate_xpm[3] = { rotate_x16, rotate_x24, rotate_x32 };
