static char *ruler_x16[] = {
	"16 16 14 1",
	" 	c	None",
	"0	c	#181818",
	"1	c	#505050",
	"2	c	#383838",
	"3	c	#686868",
	"4	c	#787878",
	"5	c	#282828",
	"6	c	#585858",
	"7	c	#484848",
	"8	c	#303030",
	"9	c	#404040",
	"A	c	#606060",
	"B	c	#808080",
	"C	c	#202020",
	"                ",
	"                ",
	"             41 ",
	"             97 ",
	"              7 ",
	"  9           7 ",
	"  1             ",
	" 1              ",
	" 0            4 ",
	" C  6   4  4  C ",
	" 58A7  3   4  C ",
	"    A282  3  B6 ",
	"        A853 9  ",
	"            1C  ",
	"                ",
	"                "};
static char *ruler_x24[] = {
	"24 24 16 1",
	" 	c	None",
	"0	c	#000000",
	"1	c	#404040",
	"2	c	#202020",
	"3	c	#606060",
	"4	c	#101010",
	"5	c	#303030",
	"6	c	#585858",
	"7	c	#707070",
	"8	c	#080808",
	"9	c	#383838",
	"A	c	#787878",
	"B	c	#282828",
	"C	c	#181818",
	"D	c	#484848",
	"E	c	#686868",
	"                        ",
	"                        ",
	"                        ",
	"                     2  ",
	"                   E88  ",
	"                   9E8  ",
	"                     8  ",
	"                     8  ",
	"   0                 8  ",
	"  A8                 5  ",
	"  19                    ",
	"  87                    ",
	"  0    C              A ",
	" E4    5    B        62 ",
	" BD   7E   A3   EA   26 ",
	" 8897 9    1    5    0  ",
	"   E9885E  4    C    0  ",
	"       E504B7   D   D5  ",
	"           E50456   4E  ",
	"               6B0C10   ",
	"                   6B   ",
	"                        ",
	"                        ",
	"                        "};
static char *ruler_x32[] = {
	"32 32 18 1",
	" 	c	None",
	"0	c	#000000",
	"1	c	#383838",
	"2	c	#606060",
	"3	c	#181818",
	"4	c	#505050",
	"5	c	#707070",
	"6	c	#282828",
	"7	c	#080808",
	"8	c	#484848",
	"9	c	#787878",
	"A	c	#202020",
	"B	c	#686868",
	"C	c	#101010",
	"D	c	#585858",
	"E	c	#404040",
	"F	c	#303030",
	"G	c	#808080",
	"                                ",
	"                                ",
	"                                ",
	"                                ",
	"                            3   ",
	"                           70   ",
	"                         B0C0   ",
	"                         2950   ",
	"                           50   ",
	"                           50   ",
	"    E9                     50   ",
	"    08                     50   ",
	"   20                      50   ",
	"   60                           ",
	"   0A                           ",
	"   0D                           ",
	"  D0     21                     ",
	"  A0     6B     1            0D ",
	"  0F     0      C           D0  ",
	" 50B     7     48     0     A0  ",
	" E07E9  4E     3G     7     0F  ",
	"  5E7003A4     0     DE     0B  ",
	"      9E700389BA     A9    80   ",
	"          5E700C4    0     C7   ",
	"              BF0003EA     01   ",
	"                  BF0006D B05   ",
	"                      260000    ",
	"                          D8    ",
	"                                ",
	"                                ",
	"                                ",
	"                                "};

static char **ruler_xpm[3] = { ruler_x16, ruler_x24, ruler_x32 };
