static char *select_x16[] = {
	"16 16 12 1",
	" 	c	None",
	"0	c	#000000",
	"1	c	#660000",
	"2	c	#663300",
	"3	c	#990000",
	"4	c	#996600",
	"5	c	#CC0000",
	"6	c	#CC3300",
	"7	c	#CC9900",
	"8	c	#FF0000",
	"9	c	#FF3300",
	"A	c	#FF6600",
	"                ",
	"                ",
	"                ",
	"                ",
	"                ",
	"  424224242242  ",
	"  424444666444  ",
	"  77777A89A77   ",
	"  000001853002  ",
	"  7 7  7 7997   ",
	"           88   ",
	"            88  ",
	"                ",
	"                ",
	"                ",
	"                "};

static char *select_x24[] = {
	"24 24 11 1",
	" 	c	None",
	"0	c	#000000",
	"1	c	#660000",
	"2	c	#663300",
	"3	c	#993300",
	"4	c	#996600",
	"5	c	#CC6600",
	"6	c	#CC9900",
	"7	c	#FF0000",
	"8	c	#FF3300",
	"9	c	#FF6600",
	"                        ",
	"                        ",
	"                        ",
	"                        ",
	"                        ",
	"                        ",
	"                        ",
	"                        ",
	"   22020220202202022    ",
	"   44 5 44 5 44 5 44    ",
	"   66 6 66 677776 66    ",
	"   66 6 66 6789 6 66    ",
	"   22020220273712022    ",
	"   44 5 44 574575 44    ",
	"                7       ",
	"                 7      ",
	"                  7     ",
	"                   7    ",
	"                        ",
	"                        ",
	"                        ",
	"                        ",
	"                        ",
	"                        "};

static char *select_x32[] = {
	"32 32 14 1",
	" 	c	None",
	"0	c	#000000",
	"1	c	#330000",
	"2	c	#333300",
	"3	c	#663300",
	"4	c	#990000",
	"5	c	#993300",
	"6	c	#996600",
	"7	c	#CC3300",
	"8	c	#CC6600",
	"9	c	#CC9900",
	"A	c	#FF0000",
	"B	c	#FF3300",
	"C	c	#FF6600",
	"                                ",
	"                                ",
	"                                ",
	"                                ",
	"                                ",
	"                                ",
	"                                ",
	"                                ",
	"                                ",
	"                                ",
	"     9  9      9  9      9      ",
	"    13003203301300320330130     ",
	"    38  86 66 38  86 66 38      ",
	"     9  9  99  9AACBA99  9      ",
	"     9  9  99  9AACBA99  9      ",
	"     9  9  99  9AAB  99  9      ",
	"    260063066026A47A1660260     ",
	"    260063066026A467A560260     ",
	"     9  9      9  9 AB   9      ",
	"                     AA         ",
	"                      AA        ",
	"                        A       ",
	"                         A      ",
	"                          A     ",
	"                                ",
	"                                ",
	"                                ",
	"                                ",
	"                                ",
	"                                ",
	"                                ",
	"                                "};

static char *select_xpm[3] = { select_x16, select_x24, select_x32 };

