static char *sensor_x16[] = {
	"16 16 15 1",
	" 	c	None",
	"0	c	#000000",
	"1	c	#00FFFF",
	"2	c	#33CCCC",
	"3	c	#33FFCC",
	"4	c	#33FFFF",
	"5	c	#669999",
	"6	c	#66CC99",
	"7	c	#66CCCC",
	"8	c	#66FFFF",
	"9	c	#99CCCC",
	"A	c	#99FFFF",
	"B	c	#CCCCCC",
	"C	c	#CCFFFF",
	"D	c	#FFFFFF",
	"                ",
	"                ",
	"                ",
	"     555555     ",
	"    B924132B5   ",
	"   59D8111CA5   ",
	"   534D81CA165  ",
	"  55114DCA1125  ",
	"  55111CDA1125  ",
	"   541CA4CA165  ",
	"   57CA114CA55  ",
	"    9B41117B5   ",
	"     5555555    ",
	"       55       ",
	"                ",
	"                "};

static char *sensor_x24[] = {
	"24 24 16 1",
	" 	c	None",
	"0	c	#000000",
	"1	c	#00FFFF",
	"2	c	#33CCCC",
	"3	c	#33FFCC",
	"4	c	#33FFFF",
	"5	c	#669999",
	"6	c	#66CC99",
	"7	c	#66CCCC",
	"8	c	#66FFFF",
	"9	c	#99CC99",
	"A	c	#99CCCC",
	"B	c	#99FFFF",
	"C	c	#CCCCCC",
	"D	c	#CCFFFF",
	"E	c	#FFFFFF",
	"                        ",
	"                        ",
	"                        ",
	"                        ",
	"          5555          ",
	"        555675555       ",
	"      59641111125A      ",
	"      5E81111111DA5     ",
	"     574EB11111DB455    ",
	"    55114DB111DB1125    ",
	"    561114DB1DB11135    ",
	"    5211114DEB1111155   ",
	"    5211111DEB1111155   ",
	"    561111DB1DB11135    ",
	"    55111DB111DB1125    ",
	"     521DB11111DD455    ",
	"      5DB1111111DC5     ",
	"      5A741111125A      ",
	"        555726555       ",
	"          55555         ",
	"                        ",
	"                        ",
	"                        ",
	"                        "};

static char *sensor_x32[] = {
	"32 32 16 1",
	" 	c	None",
	"0	c	#000000",
	"1	c	#00FFFF",
	"2	c	#33CCCC",
	"3	c	#33FFCC",
	"4	c	#33FFFF",
	"5	c	#669999",
	"6	c	#66CC99",
	"7	c	#66CCCC",
	"8	c	#99CC99",
	"9	c	#99CCCC",
	"A	c	#99FFCC",
	"B	c	#99FFFF",
	"C	c	#CCCCCC",
	"D	c	#CCFFFF",
	"E	c	#FFFFFF",
	"                                ",
	"                                ",
	"                                ",
	"                                ",
	"                                ",
	"                                ",
	"            55555555            ",
	"           55723332655          ",
	"         557411111113555        ",
	"        5CB11111111111D85       ",
	"       553DB111111111DB25       ",
	"       5214DB1111111DB1165      ",
	"      561114DB11111DB111455     ",
	"      5211114DB111DB1111165     ",
	"      53111111DB1DB11111125     ",
	"      511111111DEB111111125     ",
	"      511111111DDD111111125     ",
	"      53111111DB1DD11111125     ",
	"      5211111DD111DD1111165     ",
	"      561111DD11111DD111455     ",
	"       5211DD1111111BD1165      ",
	"       553DD111111111BD25       ",
	"        59D11111111111A95       ",
	"         557411111113555        ",
	"           55723332655          ",
	"            55555555            ",
	"                                ",
	"                                ",
	"                                ",
	"                                ",
	"                                ",
	"                                "};

static char *sensor_xpm[3] = { sensor_x16, sensor_x24, sensor_x32 };

