static char *signal_x16[] = {
	"16 16 25 1",
	" 	c	None",
	"0	c	#080000",
	"1	c	#e00830",
	"2	c	#08b808",
	"3	c	#604048",
	"4	c	#303030",
	"5	c	#484848",
	"6	c	#787878",
	"7	c	#103810",
	"8	c	#384830",
	"9	c	#606060",
	"A	c	#383838",
	"B	c	#10d008",
	"C	c	#503038",
	"D	c	#385838",
	"E	c	#404040",
	"F	c	#583840",
	"G	c	#e80838",
	"H	c	#405840",
	"I	c	#503838",
	"J	c	#e00838",
	"K	c	#08c008",
	"L	c	#183810",
	"M	c	#384838",
	"N	c	#10d808",
	"       IC       ",
	"      3GGF      ",
	"      I1JI      ",
	"      A00E      ",
	"      8K2M      ",
	"      DNBH      ",
	"       7L       ",
	"       99       ",
	"       99       ",
	"       99       ",
	"       99       ",
	"       99       ",
	"       99       ",
	"       99       ",
	"       5E       ",
	"   6AAA44AAA6   "};
static char *signal_x24[] = {
	"24 24 36 1",
	" 	c	None",
	"0	c	#000000",
	"1	c	#484848",
	"2	c	#088008",
	"3	c	#900820",
	"4	c	#381018",
	"5	c	#003800",
	"6	c	#f00838",
	"7	c	#08b808",
	"8	c	#606060",
	"9	c	#202020",
	"A	c	#101010",
	"B	c	#a80828",
	"C	c	#303030",
	"D	c	#10d808",
	"E	c	#686868",
	"F	c	#180000",
	"G	c	#585858",
	"H	c	#282828",
	"I	c	#089008",
	"J	c	#004800",
	"K	c	#b80828",
	"L	c	#707070",
	"M	c	#302828",
	"N	c	#08c808",
	"O	c	#383838",
	"P	c	#08a008",
	"Q	c	#505050",
	"R	c	#085000",
	"S	c	#686060",
	"T	c	#283028",
	"U	c	#b00828",
	"V	c	#c00828",
	"W	c	#401018",
	"X	c	#282020",
	"Y	c	#005000",
	"           Q1           ",
	"          4UKW          ",
	"          K66VL         ",
	"         EB66U8         ",
	"         SF33FS         ",
	"         80000E         ",
	"         GJNN5E         ",
	"         G7DDPL         ",
	"          IDD2          ",
	"          TYRO          ",
	"           9H           ",
	"           HC           ",
	"           HM           ",
	"           HM           ",
	"           HH           ",
	"           HH           ",
	"           HH           ",
	"           HH           ",
	"           MH           ",
	"           MH           ",
	"           CH           ",
	"           CX           ",
	"     HAAAAA00AAAAAH     ",
	"     EGGGGGGGGGGGGE     "};
static char *signal_x32[] = {
	"32 32 36 1",
	" 	c	None",
	"0	c	#000000",
	"1	c	#700820",
	"2	c	#086800",
	"3	c	#505050",
	"4	c	#580818",
	"5	c	#08c808",
	"6	c	#686868",
	"7	c	#082000",
	"8	c	#d00830",
	"9	c	#080808",
	"A	c	#085008",
	"B	c	#a80828",
	"C	c	#180008",
	"D	c	#f00838",
	"E	c	#787878",
	"F	c	#10d808",
	"G	c	#081800",
	"H	c	#083808",
	"I	c	#585858",
	"J	c	#280008",
	"K	c	#087000",
	"L	c	#100008",
	"M	c	#606060",
	"N	c	#600818",
	"O	c	#707070",
	"P	c	#b80828",
	"Q	c	#08d008",
	"R	c	#680818",
	"S	c	#087800",
	"T	c	#082800",
	"U	c	#180808",
	"V	c	#100808",
	"W	c	#086808",
	"X	c	#d80830",
	"Y	c	#085808",
	"               O6               ",
	"              LNNCO             ",
	"             U8DDXC             ",
	"             NDDDD1             ",
	"             4DDDDR             ",
	"             VBDDPV             ",
	"             90JJ09             ",
	"             900009             ",
	"             9SQQ29             ",
	"             AFFFFH             ",
	"             WFFFFY             ",
	"             7QFF5G             ",
	"             MTSK7E             ",
	"               00               ",
	"               00               ",
	"               00               ",
	"               00               ",
	"               00               ",
	"               00               ",
	"               00               ",
	"               00               ",
	"               00               ",
	"               00               ",
	"               00               ",
	"               00               ",
	"               00               ",
	"               00               ",
	"               00               ",
	"               00               ",
	"       IIIIIIII003IIIIIII       ",
	"       000000000000000000       ",
	"       EEEEEEEEEEEEEEEEEE       "};

static char **signal_xpm[3] = { signal_x16, signal_x24, signal_x32 };
