static char *snap_grid_x16[] = {
	"16 16 21 1",
	" 	c	None",
	"0	c	#08c818",
	"1	c	#50c858",
	"2	c	#68c870",
	"3	c	#30c838",
	"4	c	#38c848",
	"5	c	#58c860",
	"6	c	#18c828",
	"7	c	#78c880",
	"8	c	#28c830",
	"9	c	#60c860",
	"A	c	#48c848",
	"B	c	#38c840",
	"C	c	#80c880",
	"D	c	#60c868",
	"E	c	#70c878",
	"F	c	#40c850",
	"G	c	#20c828",
	"H	c	#48c850",
	"I	c	#68c868",
	"J	c	#40c848",
	"E599A991199A995E",
	"H   8  DD  G  CF",
	"1   3  CC  3   1",
	"1   3  CC  3   1",
	"B83303366330338B",
	"1   3  CC  3   1",
	"1   3  CC  3   1",
	"F2  G  11  G  2H",
	"J277677HH77677IH",
	"1   3  CC  3   1",
	"1   3  CC  3   1",
	"B83303366330338J",
	"1   3  CC  3   1",
	"1   3  CC  3   1",
	"H   8  II  8   H",
	"2155155115545512"};
static char *snap_grid_x24[] = {
	"24 24 25 1",
	" 	c	None",
	"0	c	#00c808",
	"1	c	#40c850",
	"2	c	#20c828",
	"3	c	#68c870",
	"4	c	#08c818",
	"5	c	#58c858",
	"6	c	#30c838",
	"7	c	#10c820",
	"8	c	#78c878",
	"9	c	#00c810",
	"A	c	#50c850",
	"B	c	#30c840",
	"C	c	#28c830",
	"D	c	#78c880",
	"E	c	#18c820",
	"F	c	#08c810",
	"G	c	#80c880",
	"H	c	#10c818",
	"I	c	#70c878",
	"J	c	#48c850",
	"K	c	#58c860",
	"L	c	#50c858",
	"M	c	#20c830",
	"N	c	#70c870",
	"                        ",
	"KFCCCC07EEE44EEE70EEEE95",
	"DB    9    KK    9    6D",
	"DB    9    KK    9    6D",
	"DB    9    KK    9    6D",
	"DB    9    KK    9    6D",
	"N94444044449944440444498",
	"8C    0    11    9    CD",
	"DB    9    KK    9    6D",
	"DB    9    KK    9    6D",
	"DB    9    KK    9    6D",
	"IEKKKK0AKKKCCKKKJ0KKKKE8",
	"I7LLLL0JLLL22LLLJ0LLLL7D",
	"DB    9    KK    9    6D",
	"DB    9    KK    9    6D",
	"DB    9    KK    9    6D",
	"8C    0    JJ    9    CD",
	"30999909999009999099990D",
	"DB    9    KK    9    6D",
	"DB    9    KK    9    6D",
	"DB    9    KK    9    6D",
	"DB    9    KK    9    6D",
	"KFCCCC4MCCCHHCCC20CCCCFK",
	" G               D    G "};
static char *snap_grid_x32[] = {
	"32 32 21 1",
	" 	c	None",
	"0	c	#00c808",
	"1	c	#30c838",
	"2	c	#50c858",
	"3	c	#10c820",
	"4	c	#68c870",
	"5	c	#08c810",
	"6	c	#80c880",
	"7	c	#58c860",
	"8	c	#20c830",
	"9	c	#38c840",
	"A	c	#00c810",
	"B	c	#08c818",
	"C	c	#60c860",
	"D	c	#48c850",
	"E	c	#18c820",
	"F	c	#28c830",
	"G	c	#10c818",
	"H	c	#18c828",
	"I	c	#38c848",
	"J	c	#58c858",
	"                                ",
	" 000000000000000000000000000000 ",
	" 02444440144444EE444441044444D0 ",
	" 0      AC     11     CA      0 ",
	" 0      AC     11     CA      0 ",
	" 0      AC     11     CA      0 ",
	" 0      AC     11     CA      0 ",
	" 0      AC     11     CA      0 ",
	" 0BGGGGG05GGGGGAAGGGGG50GGGGGB0 ",
	" 09222220822222GG22222802222290 ",
	" 0      AC     11     CA      0 ",
	" 0      AC     11     CA      0 ",
	" 0      AC     11     CA      0 ",
	" 0      AC     11     CA      0 ",
	" 0      AC     11     CA      0 ",
	" 08999990E99999BB99999E09999980 ",
	" 0HFFFFF03FFFFF55FFFFF30FFFFFH0 ",
	" 0      AC     11     CA      0 ",
	" 0      AC     11     CA      0 ",
	" 0      AC     11     CA      0 ",
	" 0      AC     11     CA      0 ",
	" 0      AC     11     CA      0 ",
	" 0I777770F777773377777F077777I0 ",
	" 0A555550A555550055555A055555A0 ",
	" 0      AC     11     CA      0 ",
	" 0      AC     11     CA      0 ",
	" 0      AC     11     CA      0 ",
	" 0      AC     11     CA      0 ",
	" 0      AC     11     CA      0 ",
	" 0J666660966666HH666669A66666J0 ",
	" 000000000000000000000000000000 ",
	"                                "};

static char **snap_grid_xpm[3] = { snap_grid_x16, snap_grid_x24, snap_grid_x32 };
