static char *snap_curs_x16[] = {
	"16 16 41 1",
	" 	c	None",
	"0	c	#201818",
	"1	c	#307838",
	"2	c	#687068",
	"3	c	#404840",
	"4	c	#58c868",
	"5	c	#30c440",
	"6	c	#303030",
	"7	c	#48c850",
	"8	c	#70c878",
	"9	c	#5c5858",
	"A	c	#204028",
	"B	c	#389840",
	"C	c	#58c860",
	"D	c	#38c048",
	"E	c	#286830",
	"F	c	#78c880",
	"G	c	#686060",
	"H	c	#202018",
	"I	c	#585050",
	"J	c	#787070",
	"K	c	#50c858",
	"L	c	#40c848",
	"M	c	#305030",
	"N	c	#38a840",
	"O	c	#68c86c",
	"P	c	#202820",
	"Q	c	#80c880",
	"R	c	#38c840",
	"S	c	#383838",
	"T	c	#6c6868",
	"U	c	#48c858",
	"V	c	#787878",
	"W	c	#40a848",
	"X	c	#282420",
	"Y	c	#484848",
	"Z	c	#284828",
	"a	c	#201820",
	"b	c	#38c848",
	"c	c	#40c850",
	"d	c	#60c868",
	"  8    FQ    8  ",
	"FO b  C QK  L d8",
	"U 9Z9GEV b  b  7",
	" RMaaaa17F  dKb ",
	"  2aaaT         ",
	"   aaaS         ",
	" UNaY XPW    LK ",
	"C  A  N6XB  5  d",
	"K  5  b SH  R  C",
	" LR    bD30V RL ",
	"          IaJ   ",
	"           T    ",
	" bK4  Q7cF  dKR ",
	"U  L  b  b  b  7",
	"Fd R  CQ K  L O8",
	"  8    FF    8  "};
static char *snap_curs_x24[] = {
	"24 24 41 1",
	" 	c	None",
	"0	c	#20181f",
	"1	c	#01c810",
	"2	c	#587860",
	"3	c	#484040",
	"4	c	#40a848",
	"5	c	#207028",
	"6	c	#78ac7c",
	"7	c	#185820",
	"8	c	#20c828",
	"9	c	#58c860",
	"A	c	#30c83c",
	"B	c	#807878",
	"C	c	#253a25",
	"D	c	#5c5858",
	"E	c	#10c820",
	"F	c	#202c1c",
	"G	c	#608860",
	"H	c	#46c850",
	"I	c	#6ec876",
	"J	c	#28c834",
	"K	c	#10b818",
	"L	c	#4ec858",
	"M	c	#309038",
	"N	c	#2d2a2d",
	"O	c	#79c87f",
	"P	c	#343c34",
	"Q	c	#18c820",
	"R	c	#666464",
	"S	c	#888888",
	"T	c	#545050",
	"U	c	#60c868",
	"V	c	#6d726d",
	"W	c	#38c842",
	"X	c	#232020",
	"Y	c	#6c9470",
	"Z	c	#0ac818",
	"a	c	#146818",
	"b	c	#20c830",
	"c	c	#18c728",
	"d	c	#48b850",
	"                        ",
	" 9ZcQ     AEEA     Q8ZU ",
	" c  Ob   UH  H9   JO  c ",
	"IL VRaVBSMY   A   1   UU",
	" 8 D00000003 LL   J   J ",
	" LZ5000000Cc8b     EJEH ",
	"   Y00000N              ",
	"    00000D              ",
	"    X00000T             ",
	"  9HP00SR00Cd       HU  ",
	" E9O70B  2X0CK    UbOHc ",
	"IH  Va   WGX0N4   1   W ",
	"I9   Z   W  X0F   1   HO",
	" ZO A9    c 6F0X  HW OZ ",
	"  WbU      AA6P00B 9bW  ",
	"               300R     ",
	"                T0N     ",
	"                 R      ",
	" LEJE     J8cJ     EJZL ",
	" 8   b   UH  L9   J   b ",
	"IL   1   W    A   1   UU",
	" c   b   UH  L9   JO  b ",
	" UZ8E     AEQJ     Q8ZL ",
	"                        "};
static char *snap_curs_x32[] = {
	"32 32 41 1",
	" 	c	None",
	"0	c	#20181f",
	"1	c	#0c8014",
	"2	c	#587c5c",
	"3	c	#40b048",
	"4	c	#189820",
	"5	c	#383438",
	"6	c	#60a868",
	"7	c	#00c808",
	"8	c	#18501c",
	"9	c	#28c836",
	"A	c	#50b858",
	"B	c	#70b078",
	"C	c	#545050",
	"D	c	#7b7979",
	"E	c	#08c818",
	"F	c	#203420",
	"G	c	#18c825",
	"H	c	#716c6c",
	"I	c	#5cc868",
	"J	c	#45c850",
	"K	c	#386038",
	"L	c	#79c77e",
	"M	c	#323530",
	"N	c	#888a88",
	"O	c	#20c82d",
	"P	c	#30b838",
	"Q	c	#00c710",
	"R	c	#57c860",
	"S	c	#68c870",
	"T	c	#625d5d",
	"U	c	#3bc848",
	"V	c	#089810",
	"W	c	#212021",
	"X	c	#08c810",
	"Y	c	#70c877",
	"Z	c	#484040",
	"a	c	#2b2828",
	"b	c	#10c81e",
	"c	c	#30c83c",
	"d	c	#4ec858",
	"                                ",
	"  YOXc        Jbbd        cXOL  ",
	" RQdYcQ      GbSSbG      QcYdQR ",
	" QY   UO    YX    ES    9c   L7 ",
	" Q  DH21N   3P    UU    QL    7 ",
	" Q  T0000000000a  Od    GR    Q ",
	" 9O D0000000000  IQ     IQ   9G ",
	"  OQV0000000001Q7QY      JQQQG  ",
	"    B00000000D                  ",
	"     a000000C                   ",
	"     Z000000WN                  ",
	"     T00000000H                 ",
	"   YI2000M 5000KI         LRL   ",
	"  EEGV00a   Z0008QS      OQOQb  ",
	" EJ   0W    L8000MQ     UG   9G ",
	" Q    a4    JcT000FA    QL    Q ",
	" 7    6E    UU H000F    Q     Q ",
	" QS   OU    YQ  NW00W   9c   RE ",
	" SQcdGE      9QUUVW00W   QGd97L ",
	"   U9R        YUUL a000D  d9J   ",
	"                    5000H       ",
	"                     Z000D      ",
	"                      C0M       ",
	"                       H        ",
	"  OQ7QJ       EQQE       JQ7QO  ",
	" 9O   XI     Qd  dQ     IQ   OO ",
	" Q    SE    IG    Od    GR    Q ",
	" Q     7    Jc    UU    QL    7 ",
	" QY   JG    YX    EI    9c    7 ",
	" IQdLU7      GbSYGb      QcLRQd ",
	"  YGQ9        JbEJ        cQGS  ",
	"                                "};

static char **snap_curs_xpm[3] = { snap_curs_x16, snap_curs_x24, snap_curs_x32 };
