static char *split_x16[] = {
	"16 16 11 1",
	" 	c	None",
	"0	c	#000000",
	"1	c	#996666",
	"2	c	#999999",
	"3	c	#CC0000",
	"4	c	#CC3333",
	"5	c	#CC6633",
	"6	c	#CC6666",
	"7	c	#CC9999",
	"8	c	#C0C0C0",
	"9	c	#808080",
	"                ",
	"                ",
	"          829   ",
	"         8992   ",
	"         29 29  ",
	"      3629 292  ",
	"      3792292   ",
	"    33312292    ",
	"    461  92     ",
	"    292 4343    ",
	"   2922943      ",
	"   9229253      ",
	"  99892         ",
	" 99892          ",
	"   92           ",
	"                "};

static char *split_x24[] = {
	"24 24 8 1",
	" 	c	None",
	"0	c	#000000",
	"1	c	#996666",
	"2	c	#999999",
	"3	c	#CC0000",
	"4	c	#CC6666",
	"5	c	#C0C0C0",
	"6	c	#808080",
	"                        ",
	"                        ",
	"                        ",
	"                  6     ",
	"                26      ",
	"              5 625 6   ",
	"              26  526   ",
	"            52625 625   ",
	"          3  62  26     ",
	"          356655665     ",
	"          362  26       ",
	"      33333  5265       ",
	"       441    6         ",
	"        22   6 5        ",
	"      56655  3333       ",
	"      62  26 3          ",
	"    526 5 62 3          ",
	"    625 26   3          ",
	"   26 52625             ",
	"  665  62               ",
	"     56 5               ",
	"     62                 ",
	"     6                  ",
	"                        "};

static char *split_x32[] = {
	"32 32 8 1",
	" 	c	None",
	"0	c	#000000",
	"1	c	#999999",
	"2	c	#CC0000",
	"3	c	#CC3333",
	"4	c	#CC6666",
	"5	c	#C0C0C0",
	"6	c	#808080",
	"                                ",
	"                                ",
	"                                ",
	"                                ",
	"                        6       ",
	"                     5166       ",
	"                      61        ",
	"                   5 6655  6    ",
	"                    16  5566    ",
	"                 5 665   11     ",
	"             2   566  5 6655    ",
	"             22  615   16       ",
	"             24566 55 665       ",
	"             2216   516         ",
	"            223615  665         ",
	"        2222222  5566 5         ",
	"        224233    16            ",
	"          516     6 5           ",
	"           61    222222         ",
	"        516 55   222222         ",
	"         61  516 22             ",
	"      5 6 5   61 22             ",
	"      16   516 5522             ",
	"      615   61   22             ",
	"    56  55 6 5   22             ",
	"    61   16                     ",
	"   66 5  615                    ",
	"       566                      ",
	"       615                      ",
	"      66 5                      ",
	"                                ",
	"                                "};

static char **split_xpm[3] = { split_x16, split_x24, split_x32 };

