static char *split_draw_x16[] = {
	"16 16 6 1",
	" 	c	None",
	"0	c	#000000",
	"1	c	#996666",
	"2	c	#FF0000",
	"3	c	#FF3333",
	"4	c	#808080",
	"                ",
	"                ",
	"             4  ",
	"            4   ",
	"           4    ",
	"       2  4     ",
	"       2 4      ",
	"     2224       ",
	"      31222     ",
	"      442       ",
	"     44 2       ",
	"    44          ",
	"   44           ",
	"  44            ",
	"                ",
	"                "};

static char *split_draw_x24[] = {
	"24 24 4 1",
	" 	c	None",
	"0	c	#000000",
	"1	c	#FF0000",
	"2	c	#808080",
	"                        ",
	"                        ",
	"                        ",
	"                        ",
	"                  22    ",
	"                  2     ",
	"                 2      ",
	"                2       ",
	"           1   2        ",
	"           1  2         ",
	"           1 2          ",
	"       111112           ",
	"            11111       ",
	"          2211          ",
	"         22 1           ",
	"        22  1           ",
	"       22   1           ",
	"      22                ",
	"     22                 ",
	"    22                  ",
	"    2                   ",
	"                        ",
	"                        ",
	"                        "};

static char *split_draw_x32[] = {
	"32 32 4 1",
	" 	c	None",
	"0	c	#000000",
	"1	c	#FF0000",
	"2	c	#808080",
	"                                ",
	"                                ",
	"                                ",
	"                                ",
	"                                ",
	"                         22     ",
	"                        22      ",
	"                       22       ",
	"                      22        ",
	"                      2         ",
	"                     2          ",
	"              11    2           ",
	"              11   2            ",
	"              11  2             ",
	"              11 2              ",
	"          11111                 ",
	"                 11111          ",
	"              2 11111           ",
	"             22 11              ",
	"            22  11              ",
	"           22   11              ",
	"          22    1               ",
	"         22                     ",
	"        22                      ",
	"       22                       ",
	"      22                        ",
	"     22                         ",
	"                                ",
	"                                ",
	"                                ",
	"                                ",
	"                                "};

static char *split_draw_xpm[3] = { split_draw_x16, split_draw_x24, split_draw_x32 };

