static char *sticky_link_x16[] = {
	"16 16 41 1",
	" 	c	None",
	"0	c	#c89018",
	"1	c	#2068a8",
	"2	c	#709068",
	"3	c	#e0c010",
	"4	c	#b08870",
	"5	c	#488088",
	"6	c	#98a048",
	"7	c	#387890",
	"8	c	#c0a000",
	"9	c	#f0c000",
	"A	c	#608878",
	"B	c	#889850",
	"C	c	#b88828",
	"D	c	#f0c800",
	"E	c	#b88858",
	"F	c	#a8a838",
	"G	c	#809858",
	"H	c	#f8c800",
	"I	c	#c89810",
	"J	c	#c89020",
	"K	c	#2870a0",
	"L	c	#688870",
	"M	c	#909850",
	"N	c	#f8c000",
	"O	c	#b09078",
	"P	c	#e8c008",
	"Q	c	#d09818",
	"R	c	#508080",
	"S	c	#789060",
	"T	c	#809860",
	"U	c	#407890",
	"V	c	#2070a8",
	"W	c	#f0c808",
	"X	c	#a8a840",
	"Y	c	#c8a000",
	"Z	c	#90a050",
	"a	c	#2870a8",
	"b	c	#98a050",
	"c	c	#889858",
	"d	c	#e8c010",
	"                ",
	"                ",
	"OQQQ000JJJJJE   ",
	"OHHHHHHHHHH98C  ",
	"OHHHHHHHHHH9YYI ",
	"OHWTLXHHHHFLcHNO",
	"OHAA6U5dPR7ZR2NO",
	"OH1HHHGKKSHHD19O",
	"OH1HHHMVaBHHH19O",
	"OHLAZUU33UUbALNO",
	"OHWTLXHHHHXLGWNO",
	"OHHHHHHHHHHHHHNO",
	"OHHHHHHHHHHHHHNO",
	"OJJJJJJJJ00000J4",
	"                ",
	"                "};
static char *sticky_link_x24[] = {
	"24 24 41 1",
	" 	c	None",
	"0	c	#1060b8",
	"1	c	#b07730",
	"2	c	#d0b820",
	"3	c	#a86c38",
	"4	c	#307099",
	"5	c	#c08018",
	"6	c	#588878",
	"7	c	#889850",
	"8	c	#c5b02a",
	"9	c	#f0c800",
	"A	c	#c09900",
	"B	c	#206aa8",
	"C	c	#407890",
	"D	c	#a8a83d",
	"E	c	#a87858",
	"F	c	#e8c000",
	"G	c	#c89010",
	"H	c	#b87830",
	"I	c	#a0a043",
	"J	c	#759065",
	"K	c	#487c88",
	"L	c	#1068b0",
	"M	c	#b09078",
	"N	c	#387895",
	"O	c	#b08020",
	"P	c	#98a04b",
	"Q	c	#b1a838",
	"R	c	#b88030",
	"S	c	#f8c800",
	"T	c	#2870a0",
	"U	c	#e8c00a",
	"V	c	#c49408",
	"W	c	#c89018",
	"X	c	#508084",
	"Y	c	#dcbc18",
	"Z	c	#b08068",
	"a	c	#a87840",
	"b	c	#1868b0",
	"c	c	#688870",
	"d	c	#387098",
	"                        ",
	"                        ",
	"                        ",
	" 1RRRRRRRRR1111111Z     ",
	" WSSSSSSSSSSSSSSSFVa    ",
	" WSSSSSSSSSSSSSSSFAAOM  ",
	" WSSSSSSSSSSSSSSSFAAAVE ",
	" WSSSS9SSSSSSSSSSSFFFF5 ",
	" WSSIT04P9SSSSSIN0CQSS5 ",
	" WSD0CJN0d2SSYC04c4b8S5 ",
	" GSNXSSSQBbDQBBISS9CKS5 ",
	" GSLISSSSUK0LCYSSSSPbS5 ",
	" GSLISSSSU600XUSSSSILS5 ",
	" GSNKSSSQTL7PbTQSSSKNS5 ",
	" GSDLCJd048SS840NJCLQS5 ",
	" GSSIT0NP9SSSS9P404ISS5 ",
	" GSSSSSSSSSSSSSSSSSSSS5 ",
	" GSSSSSSSSSSSSSSSSSSSS5 ",
	" GSSSSSSSSSSSSSSSSSSSS5 ",
	" GSSSSSSSSSSSSSSSSSSSS5 ",
	" 3111111111HHHHHHHHHHH3 ",
	"                        ",
	"                        ",
	"                        "};
static char *sticky_link_x32[] = {
	"32 32 41 1",
	" 	c	None",
	"0	c	#b4781c",
	"1	c	#1060b8",
	"2	c	#a0603d",
	"3	c	#e6b600",
	"4	c	#628874",
	"5	c	#3e7890",
	"6	c	#b08870",
	"7	c	#b8b030",
	"8	c	#f8c000",
	"9	c	#327098",
	"A	c	#98a04c",
	"B	c	#c09701",
	"C	c	#789064",
	"D	c	#1e6aa8",
	"E	c	#e0c010",
	"F	c	#c8b428",
	"G	c	#2870a1",
	"H	c	#d0a800",
	"I	c	#b8a830",
	"J	c	#f0c600",
	"K	c	#aea839",
	"L	c	#548082",
	"M	c	#f8c800",
	"N	c	#889856",
	"O	c	#a87858",
	"P	c	#1568b0",
	"Q	c	#709068",
	"R	c	#a06848",
	"S	c	#ca9a05",
	"T	c	#d1b81d",
	"U	c	#b89888",
	"V	c	#f0b800",
	"W	c	#487a88",
	"X	c	#a0683f",
	"Y	c	#3070a0",
	"Z	c	#f0c608",
	"a	c	#387898",
	"b	c	#c0b028",
	"c	c	#e8c00d",
	"d	c	#a0a046",
	"                                ",
	"                                ",
	"                                ",
	"                                ",
	" XXXXXXXXXXXXXXXXXXXXXXX6       ",
	" RMMMMMMMMMMMMMMMM8888830R      ",
	" RMMMMMMMMMMMMMMMMMMMMM3BSXU    ",
	" RMMMMMMMMMMMMMMMMMMMMM3BBS0O   ",
	" XMMMMMMMMMMMMMMMMMMMMM3BBBBBX  ",
	" XMMMMMMMMMMMMMMMMMMMMMJHHHHHS2 ",
	" XMMMMM7d7ZMMMMMMMMMMMbKTMMMMVX ",
	" XMMMTG111PCZMMMMMMJAG111WcMMVX ",
	" XMMED1GLG11YbMMMMTa11D5P19ZMVX ",
	" XMMC14MMM7a1PNMMAP1YdMMc51NMVX ",
	" XMMGPcMMMMMCP14Q114ZMMMMTP9MVX ",
	" XMZ1aMMMMMMMKD11PdMMMMMMM9PJVX ",
	" XMJPaMMMMMMMFG11DFMMMMMMMa1MVX ",
	" XMMGPcMMMMMNP15W1PNMMMMMcPGMVX ",
	" XMMC1LMMMK5114JMQ1157MMJL1CMVX ",
	" XMMEG1GWD11GKMMMMKD11GLG1GEMVX ",
	" XMMMTY111GNcMMMMMMcCD1119TMMVX ",
	" XMMMMM7dbMMMMMMMMMMMZ7dIMMMMVX ",
	" XMMMMMMMMMMMMMMMMMMMMMMMMMMMVX ",
	" XMMMMMMMMMMMMMMMMMMMMMMMMMMMVX ",
	" XMMMMMMMMMMMMMMMMMMMMMMMMMMMVX ",
	" XMMMMMMMMMMMMMMMMMMMMMMMMMMMVX ",
	" X8888888888888888888888888MMVX ",
	" XXXXXXXXXX2XXXXXXXXXXXXXXXXXX2 ",
	"                                ",
	"                                ",
	"                                ",
	"                                "};

static char **sticky_link_xpm[3] = { sticky_link_x16, sticky_link_x24, sticky_link_x32 };
