static char *sticky_doc_x16[] = {
	"16 16 15 1",
	" 	c	None",
	"0	c	#000000",
	"1	c	#3366CC",
	"2	c	#666699",
	"3	c	#669999",
	"4	c	#996633",
	"5	c	#999999",
	"6	c	#CC6633",
	"7	c	#CC9900",
	"8	c	#CC9966",
	"9	c	#CC9999",
	"A	c	#CCCC66",
	"B	c	#FFCC00",
	"C	c	#FFCC33",
	"D	c	#FFCC66",
	"                ",
	"                ",
	" 44444444444    ",
	"4BBBBBBBBBBB64  ",
	"4BBA5DB5DBBB774 ",
	"4BD2D5AC5ABB7774",
	"4BD3CC59C59BBBB4",
	"4BBA3CB95B95CBB4",
	"4BBBC3DBADBA5BB4",
	"4BBBBC58BBBB1CB4",
	"4BBBBBC55CBD3BB4",
	"4BBBBBBBA123CBB4",
	"4BBBBBBBBBCBBBB4",
	"4444444444444444",
	"                ",
	"                "};

static char *sticky_doc_x24[] = {
	"24 24 18 1",
	" 	c	None",
	"0	c	#000000",
	"1	c	#0066CC",
	"2	c	#3366CC",
	"3	c	#666699",
	"4	c	#669999",
	"5	c	#996600",
	"6	c	#996633",
	"7	c	#999999",
	"8	c	#CC6633",
	"9	c	#CC9900",
	"A	c	#CC9933",
	"B	c	#CC9966",
	"C	c	#CC9999",
	"D	c	#CCCC66",
	"E	c	#FFCC00",
	"F	c	#FFCC33",
	"G	c	#FFCC66",
	"                        ",
	"                        ",
	"                        ",
	"                        ",
	" 666666666666666666     ",
	"6AEEEEEEEEEEEEEEEE96    ",
	"6AEEEB7CFEF7DEEEEE9966  ",
	"6AEE71113GF31CEEEE99996 ",
	"6AEF14FB22DF417FEEEEEEA6",
	"6AEG17FEG21BF717FEEEEE96",
	"6AEE717FEF31CE713FEEEE96",
	"6AEEEC13GEF417EB12DEEE96",
	"6AEEEED22BEF7DEEG21DEE96",
	"6AEEEEEG317FEEEEEF17EE96",
	"6AEEEEEEF717FEEEEE37EE96",
	"6AEEEEEEEEC12DEEEB1CEE96",
	"6AEEEEEEEEED217GB23FEE96",
	"6AEEEEEEEEEEF71112GEEE96",
	"6AEEEEEEEEEEEEGCDFEEEE96",
	"66AAAAAAAAAAAAAAAAAAAA86",
	"                        ",
	"                        ",
	"                        ",
	"                        "};

static char *sticky_doc_x32[] = {
	"32 32 18 1",
	" 	c	None",
	"0	c	#000000",
	"1	c	#0066CC",
	"2	c	#3366CC",
	"3	c	#666699",
	"4	c	#669999",
	"5	c	#996600",
	"6	c	#996633",
	"7	c	#999999",
	"8	c	#CC6633",
	"9	c	#CC9900",
	"A	c	#CC9933",
	"B	c	#CC9966",
	"C	c	#CC9999",
	"D	c	#CCCC66",
	"E	c	#FFCC00",
	"F	c	#FFCC33",
	"G	c	#FFCC66",
	"                                ",
	"                                ",
	"                                ",
	"                                ",
	"                                ",
	" 66666666666666666666666        ",
	" 6999999999999999999999A66      ",
	" 6EEEEEEEEEEEEEFEEEEEEEE966     ",
	" 6EEEEEC77DEEEF3DEEEEEEE9996    ",
	" 6EEEF71111CFE711BEEEEEE999966  ",
	" 6EEE712C7117FF7117EEEEE9999986 ",
	" 6EEF21BEEC113FF7117FEEEEEEEEE6 ",
	" 6EEF21CEEED212GEC114FEEEEEEEE6 ",
	" 6EEE7117FEEG312DED213GEEEEEEE6 ",
	" 6EEEF7117FEEF411BEG312DEEEEEE6 ",
	" 6EEEEEB113GEEF711CEF411CEEEEE6 ",
	" 6EEEEEEG212DEEF74FEEF7117EEEE6 ",
	" 6EEEEEEEF311CEEEFEEEEEC12FEEE6 ",
	" 6EEEEEEEEF7117FEEEEEEEF11GEEE6 ",
	" 6EEEEEEEEEEC113GEEEEEEE11GEEE6 ",
	" 6EEEEEEEEEEED212DEEEEED11FEEE6 ",
	" 6EEEEEEEEEEEEG3117GEED217EEEE6 ",
	" 6EEEEEEEEEEEEEF711173113FEEEE6 ",
	" 6EEEEEEEEEEEEEEED311117FEEEEE6 ",
	" 6EEEEEEEEEEEEEEEEEDCCGEEEEEEE6 ",
	" 6EEEEEEEEEEEEEEEEEEEEEEEEEEEE6 ",
	" 666666666666666666666666666666 ",
	"                                ",
	"                                ",
	"                                ",
	"                                ",
	"                                "};

static char **sticky_doc_xpm[3] = { sticky_doc_x16, sticky_doc_x24, sticky_doc_x32 };

