static char *sticky_note_x16[] = {
	"16 16 27 1",
	" 	c	None",
	"0	c	#1060b8",
	"1	c	#98a048",
	"2	c	#c0a000",
	"3	c	#d8b810",
	"4	c	#488088",
	"5	c	#b08870",
	"6	c	#f0c000",
	"7	c	#c0b028",
	"8	c	#b88828",
	"9	c	#c89018",
	"A	c	#b88858",
	"B	c	#c89020",
	"C	c	#f0c800",
	"D	c	#a0a040",
	"E	c	#508080",
	"F	c	#e8c008",
	"G	c	#c89810",
	"H	c	#f8c800",
	"I	c	#1868b0",
	"J	c	#e0c010",
	"K	c	#b09078",
	"L	c	#d09818",
	"M	c	#f8c000",
	"N	c	#c8a000",
	"O	c	#f0c808",
	"P	c	#e8c010",
	"                ",
	"                ",
	"KLLL999BBBBBA   ",
	"KHHHHHHHHHH628  ",
	"KJ0000000003NNG ",
	"KHJJJJJJJJJHHHMK",
	"KFEEEEEEEEEEEFMK",
	"KC11111111111OMK",
	"KODDDDDDDDDDJHMK",
	"KP44444444447HMK",
	"KHHHHHHHHHHHHHMK",
	"KJ00000000000IMK",
	"KHJJJJJJJJJJJJMK",
	"KBBBBBBBB99999B5",
	"                ",
	"                "};
static char *sticky_note_x24[] = {
	"24 24 37 1",
	" 	c	None",
	"0	c	#1060b8",
	"1	c	#a86838",
	"2	c	#e8c000",
	"3	c	#608878",
	"4	c	#c08018",
	"5	c	#d0b820",
	"6	c	#789068",
	"7	c	#909850",
	"8	c	#a0a040",
	"9	c	#c09800",
	"A	c	#f8c800",
	"B	c	#b87830",
	"C	c	#e0c010",
	"D	c	#c89010",
	"E	c	#a87858",
	"F	c	#809860",
	"G	c	#b07030",
	"H	c	#f0c808",
	"I	c	#688870",
	"J	c	#b09078",
	"K	c	#1868a8",
	"L	c	#b08020",
	"M	c	#b8a838",
	"N	c	#b88030",
	"O	c	#c09008",
	"P	c	#c89018",
	"Q	c	#d8b818",
	"R	c	#889858",
	"S	c	#b08068",
	"T	c	#a87840",
	"U	c	#e8c008",
	"V	c	#c89808",
	"W	c	#e8c010",
	"X	c	#b07830",
	"Y	c	#c0a000",
	"Z	c	#a87038",
	"                        ",
	"                        ",
	"                        ",
	" GNNNNNNNNNXXXXXXXS     ",
	" PAAAAAAAAAAAAAAA2VT    ",
	" PAAAAAAAAAAAAAAA29YLJ  ",
	" PQ000000000000032999OE ",
	" PC33333333333337A22224 ",
	" PAAAAAAAAAAAAAAAAAAAA4 ",
	" PU66666666666666668AA4 ",
	" DQ00000000000000003AA4 ",
	" DACCCCCCCCCCCCCCCCUAA4 ",
	" DAHHHHHHHHHHHHHHHAAAA4 ",
	" D5000000000000000RAAA4 ",
	" DCIIIIIIIIIIIIIIIMAAA4 ",
	" DAAAAAAAAAAAAAAAAAAAA4 ",
	" DWFFFFFFFFFFFFFFFFFRA4 ",
	" D500000000000000000KA4 ",
	" DAQQQQQQQQQQQQQQQQQQA4 ",
	" DAAAAAAAAAAAAAAAAAAAA4 ",
	" ZXXXXXXXXXBBBBBBBBBBB1 ",
	"                        ",
	"                        ",
	"                        "};
static char *sticky_note_x32[] = {
	"32 32 41 1",
	" 	c	None",
	"0	c	#1060b8",
	"1	c	#a0603d",
	"2	c	#c09008",
	"3	c	#e0b000",
	"4	c	#387898",
	"5	c	#809858",
	"6	c	#c0b028",
	"7	c	#909850",
	"8	c	#508088",
	"9	c	#f8c000",
	"A	c	#b08870",
	"B	c	#b07020",
	"C	c	#e8c008",
	"D	c	#d0a800",
	"E	c	#c8b820",
	"F	c	#f8c800",
	"G	c	#a87858",
	"H	c	#688870",
	"I	c	#2068a8",
	"J	c	#b0a838",
	"K	c	#d0b820",
	"L	c	#a06848",
	"M	c	#cc9808",
	"N	c	#e0c018",
	"O	c	#f0b800",
	"P	c	#b89888",
	"Q	c	#a06840",
	"R	c	#c8b028",
	"S	c	#b88018",
	"T	c	#98a048",
	"U	c	#c8a000",
	"V	c	#a86838",
	"W	c	#c09800",
	"X	c	#e8b800",
	"Y	c	#f0c808",
	"Z	c	#d8b818",
	"a	c	#e8c010",
	"b	c	#c8b828",
	"c	c	#f0c000",
	"d	c	#c0b030",
	"                                ",
	"                                ",
	"                                ",
	"                                ",
	" QQQQQQQQQQQQQQQQQQQQQQQA       ",
	" LFFFFFFFFFFFFFFFF999993SL      ",
	" LFFFFFFFFFFFFFFFFFFFFFXWMVP    ",
	" LFFFFFFFFFFFFFFFFFFFFFXWWUBG   ",
	" QFb000000000000000000RXWWWW2Q  ",
	" QFb000000000000000000RcDDDDDM1 ",
	" QFYRRRRRRRRRRRRRRRRRRYFFFFFFOQ ",
	" QFFFFFFFFFFFFFFFFFFFFFFFFFFFOQ ",
	" QFCTTTTTTTTTTTTTTTTTTTTTTaFFOQ ",
	" QFK0000000000000000000000bFFOQ ",
	" QFZ4444444444444444444444KFFOQ ",
	" QFFFFFFFFFFFFFFFFFFFFFFFFFFFOQ ",
	" QFFFFFFFFFFFFFFFFFFFFFFFFFFFOQ ",
	" QFK888888888888888888887FFFFOQ ",
	" QFd00000000000000000000HFFFFOQ ",
	" QFN55555555555555555555JFFFFOQ ",
	" QFFFFFFFFFFFFFFFFFFFFFFFFFFFOQ ",
	" QFFFFFFFFFFFFFFFFFFFFFFFFFFFOQ ",
	" QF600000000000000000000000IFOQ ",
	" QF600000000000000000000000IFOQ ",
	" QFYbbbbbbbbbbbbbbbbbbbbbbbEFOQ ",
	" QFFFFFFFFFFFFFFFFFFFFFFFFFFFOQ ",
	" Q9999999999999999999999999FFOQ ",
	" QQQQQQQQQQ1QQQQQQQQQQQQQQQQQQ1 ",
	"                                ",
	"                                ",
	"                                ",
	"                                "};

static char **sticky_note_xpm[3] = { sticky_note_x16, sticky_note_x24, sticky_note_x32 };
