static char* straight_line_x16[] = {
	"16 16 5 1",
	" 	c	None",
	"0	c	#000000",
	"1	c	#330000",
	"2	c	#CC0000",
	"3	c	#FF0000",
	"                ",
	"           3333 ",
	"           3333 ",
	"           3333 ",
	"          33333 ",
	"         333    ",
	"         33     ",
	"        33      ",
	"       12       ",
	"      00        ",
	"     00         ",
	"    00          ",
	"   00           ",
	"  00            ",
	" 00             ",
	"                "};

static char* straight_line_x24[] = {
	"24 24 5 1",
	" 	c	None",
	"0	c	#000000",
	"1	c	#330000",
	"2	c	#990000",
	"3	c	#FF0000",
	"                        ",
	"                        ",
	"                 33333  ",
	"                 33333  ",
	"                  3333  ",
	"                 33333  ",
	"                333 33  ",
	"                33      ",
	"               33       ",
	"              33        ",
	"             33         ",
	"            33          ",
	"           12           ",
	"          00            ",
	"         00             ",
	"        00              ",
	"       00               ",
	"      00                ",
	"     00                 ",
	"    00                  ",
	"   000                  ",
	"  000                   ",
	"   0                    ",
	"                        "};

static char* straight_line_x32[] = {
	"32 32 4 1",
	" 	c	None",
	"0	c	#000000",
	"1	c	#990000",
	"2	c	#FF0000",
	"                                ",
	"                                ",
	"                                ",
	"                       222222   ",
	"                       222222   ",
	"                         2222   ",
	"                        22222   ",
	"                       222 22   ",
	"                       22   2   ",
	"                      22        ",
	"                     22         ",
	"                    22          ",
	"                   22           ",
	"                  22            ",
	"                 22             ",
	"                22              ",
	"               01               ",
	"              00                ",
	"             00                 ",
	"            00                  ",
	"           00                   ",
	"          00                    ",
	"         000                    ",
	"        000                     ",
	"       000                      ",
	"      000                       ",
	"     000                        ",
	"    000                         ",
	"   000                          ",
	"   00                           ",
	"                                ",
	"                                "};

static char *straight_line_xpm[3] = { straight_line_x16, straight_line_x24, straight_line_x32 };

