static char *straight_x16[] = {
	"16 16 13 1",
	" 	c	None",
	"0	c	#000000",
	"1	c	#330000",
	"2	c	#333300",
	"3	c	#663300",
	"4	c	#996600",
	"5	c	#CC0000",
	"6	c	#CC3300",
	"7	c	#CC6600",
	"8	c	#CC9900",
	"9	c	#FF0000",
	"A	c	#FF3300",
	"B	c	#FF6600",
	"                ",
	"           9999 ",
	"          86599 ",
	"         833A99 ",
	"        843A739 ",
	"       843A7187 ",
	"       72A718   ",
	"      71AB27    ",
	"    77176378    ",
	"   87274348     ",
	"  87377338      ",
	" 87348348       ",
	" 7338248        ",
	" 038278         ",
	"  0178          ",
	"   08           "};

static char *straight_x24[] = {
	"24 24 17 1",
	" 	c	None",
	"0	c	#000000",
	"1	c	#330000",
	"2	c	#333300",
	"3	c	#660000",
	"4	c	#663300",
	"5	c	#666600",
	"6	c	#990000",
	"7	c	#993300",
	"8	c	#996600",
	"9	c	#CC0000",
	"A	c	#CC6600",
	"B	c	#CC9900",
	"C	c	#FF0000",
	"D	c	#FF3300",
	"E	c	#FF6600",
	"F	c	#800000",
	"                        ",
	"                        ",
	"                 CCCCC  ",
	"               AB99CCC  ",
	"               AA2FCCC  ",
	"              B50ADC6C  ",
	"              A47CE83C  ",
	"            BB08DD04B   ",
	"           A04ACD81 B   ",
	"          AB10DE02B     ",
	"         B01ADC840B     ",
	"         B40DE80BB      ",
	"       BB08BD44A        ",
	"       B84 BA08B        ",
	"     AB11BB02BA         ",
	"    A 48BAA20BA         ",
	"    B80BB50AB           ",
	"  BB04B A48AA           ",
	"  B82 BB08B             ",
	"  01BB04A               ",
	"  00BB10BB              ",
	"    01AB                ",
	"    00BB                ",
	"                        "};

static char *straight_x32[] = {
	"32 32 15 1",
	" 	c	None",
	"0	c	#000000",
	"1	c	#330000",
	"2	c	#333300",
	"3	c	#663300",
	"4	c	#666600",
	"5	c	#993300",
	"6	c	#996600",
	"7	c	#CC0000",
	"8	c	#CC6600",
	"9	c	#CC9900",
	"A	c	#FF0000",
	"B	c	#FF3300",
	"C	c	#FF6600",
	"D	c	#800000",
	"                                ",
	"                                ",
	"                                ",
	"                       AAAAAA   ",
	"                     9 A7AAAA   ",
	"                     9900AAAA   ",
	"                     036AAAAA   ",
	"                  899009BA DA   ",
	"                   952 AC900A   ",
	"                99 039AA 36     ",
	"                8930 BC90099    ",
	"                 069AA962       ",
	"              9900 BC 0299      ",
	"               638AA960 98      ",
	"            99009CA 039         ",
	"            9820AB930098        ",
	"          9 0199A 638           ",
	"          98008990099           ",
	"          029  8820             ",
	"       896009980099             ",
	"        436  9800 9             ",
	"     9900499 0288               ",
	"      930 9980099               ",
	"   990069  338                  ",
	"   9920 9930299                 ",
	"   0189  932                    ",
	"   0099900698                   ",
	"      9920 9                    ",
	"      0189                      ",
	"      0089                      ",
	"                                ",
	"                                "};

static char *straight_xpm[3] = { straight_x16, straight_x24, straight_x32 };

