static char *switch_ai_x16[] = {
	"16 16 4 1",
	" 	c	None",
	"0	c	#000000",
	"1	c	#990000",
	"2	c	#CC0000",
	"                ",
	" 2              ",
	"  2             ",
	"  2222          ",
	"   2222         ",
	"   2222         ",
	"   2221         ",
	"    2 00        ",
	"       00       ",
	"        0       ",
	"         0  000 ",
	"          00000 ",
	"          00 00 ",
	"         00 000 ",
	"         00 000 ",
	"        00000000"};

static char *switch_ai_x24[] = {
	"24 24 4 1",
	" 	c	None",
	"0	c	#000000",
	"1	c	#330000",
	"2	c	#CC0000",
	"                        ",
	"222                     ",
	" 222                    ",
	"  222                   ",
	"   222                  ",
	"    22222               ",
	"    222222              ",
	"    222222              ",
	"    222222              ",
	"    222222              ",
	"     222210             ",
	"         000            ",
	"          000           ",
	"           000          ",
	"            000         ",
	"             000   000  ",
	"              00000000  ",
	"               000  00  ",
	"               000  00  ",
	"              00000 00  ",
	"              0  00000  ",
	"              0   0000  ",
	"            00000000000 ",
	"             00     00  "};

static char *switch_ai_x32[] = {
	"32 32 5 1",
	" 	c	None",
	"0	c	#000000",
	"1	c	#990000",
	"2	c	#CC0000",
	"3	c	#800000",
	"                                ",
	" 22                             ",
	" 222                            ",
	"  222                           ",
	"  2222                          ",
	"   2222                         ",
	"    2222                        ",
	"     2222222                    ",
	"      2222222                   ",
	"      22222222                  ",
	"      22222222                  ",
	"      22222222                  ",
	"      22222221                  ",
	"       2222230                  ",
	"        2221000                 ",
	"            0000                ",
	"             0000               ",
	"              0000              ",
	"               0000             ",
	"                0000            ",
	"                 0000    0000   ",
	"                  000  000000   ",
	"                   0000000000   ",
	"                    0000   00   ",
	"                    0000   00   ",
	"                   000000  00   ",
	"                  000 0000 00   ",
	"                  000  000000   ",
	"                  00    00000   ",
	"                000000000000000 ",
	"               00000000000000000",
	"                000000000000000 "};

static char **switch_ai_xpm[3] = { switch_ai_x16, switch_ai_x24, switch_ai_x32 };

