static char *switch_motor_x16[] = {
	"16 16 19 1",
	" 	c	None",
	"0	c	#000000",
	"1	c	#000200",
	"2	c	#000400",
	"3	c	#380202",
	"4	c	#3C0202",
	"5	c	#420202",
	"6	c	#490202",
	"7	c	#550303",
	"8	c	#5B0404",
	"9	c	#670303",
	"A	c	#680404",
	"B	c	#6D0404",
	"C	c	#7A0505",
	"D	c	#AB0707",
	"E	c	#BC0707",
	"F	c	#C40707",
	"G	c	#C40808",
	"H	c	#000000",
	"                ",
	"              C6",
	"             B7 ",
	"           8A9  ",
	"         4GFE   ",
	"         BGGG   ",
	"         3GGD   ",
	"         0 5    ",
	"        1       ",
	"       0        ",
	" 122  0         ",
	"  2121          ",
	"  2 021         ",
	"  200 2         ",
	" 010  10        ",
	"00000000        "};

static char *switch_motor_x24[] = {
	"24 24 25 1",
	" 	c	None",
	"0	c	#000000",
	"1	c	#000200",
	"2	c	#000400",
	"3	c	#000600",
	"4	c	#220200",
	"5	c	#360202",
	"6	c	#3C0202",
	"7	c	#420202",
	"8	c	#670303",
	"9	c	#6D0404",
	"A	c	#730404",
	"B	c	#8A0404",
	"C	c	#8C0404",
	"D	c	#960404",
	"E	c	#AB0707",
	"F	c	#B10505",
	"G	c	#B70707",
	"H	c	#B80707",
	"I	c	#BD0808",
	"J	c	#C30707",
	"K	c	#C40505",
	"L	c	#C30808",
	"M	c	#C40808",
	"N	c	#000000",
	"                        ",
	"                     6M9",
	"                    5IF ",
	"                    GG  ",
	"                   FI5  ",
	"               8FFHM7   ",
	"              9MMLMB    ",
	"              GMLMJE    ",
	"              IMMKMF    ",
	"              CMMMM9    ",
	"             04DMIA     ",
	"            011         ",
	"           011          ",
	"          011           ",
	"          11            ",
	"  121    11             ",
	"   3122 110             ",
	"   2  1310              ",
	"   2  013               ",
	"   2 01012              ",
	"   2010  2              ",
	"   210   11             ",
	" 00000000000            ",
	"  000    01             "};

static char *switch_motor_x32[] = {
	"32 32 27 1",
	" 	c	None",
	"0	c	#000000",
	"1	c	#000200",
	"2	c	#000400",
	"3	c	#000600",
	"4	c	#2E0101",
	"5	c	#360202",
	"6	c	#3C0202",
	"7	c	#420202",
	"8	c	#490202",
	"9	c	#4F0202",
	"A	c	#550303",
	"B	c	#5B0404",
	"C	c	#670302",
	"D	c	#670303",
	"E	c	#6D0404",
	"F	c	#730404",
	"G	c	#7A0505",
	"H	c	#800404",
	"I	c	#8C0606",
	"J	c	#9E0606",
	"K	c	#B80606",
	"L	c	#BE0707",
	"M	c	#BD0808",
	"N	c	#C10808",
	"O	c	#C40808",
	"P	c	#000000",
	"                                ",
	"                             IO6",
	"                            GOO ",
	"                           DOOB ",
	"                          AOOE  ",
	"                         7OOH   ",
	"                        5MOI    ",
	"                    IOOONOJ     ",
	"                   IOOOOON      ",
	"                   OOOOOOO8     ",
	"                  9OOOOOOOF     ",
	"                  6OOOOOOOB     ",
	"                   KOOOOOM      ",
	"                  0CLOOOM8      ",
	"                 0114BHD        ",
	"                0110            ",
	"               0110             ",
	"              0110              ",
	"              111               ",
	"             111                ",
	"   13211    111                 ",
	"   233332  111                  ",
	"   2311233111                   ",
	"   231  13320                   ",
	"   231  01231                   ",
	"   231 011133                   ",
	"   2310110 132                  ",
	"   231110   23                  ",
	"   23110    131                 ",
	" 001110000000110                ",
	" 0000000000000000               ",
	" 000000000000000                "};

static char **switch_motor_xpm[3] = { switch_motor_x16, switch_motor_x24, switch_motor_x32 };

