static char *text_x16[] = {
	"16 16 14 1",
	" 	c	None",
	"0	c	#000000",
	"1	c	#383838",
	"2	c	#202020",
	"3	c	#606060",
	"4	c	#080808",
	"5	c	#505050",
	"6	c	#787878",
	"7	c	#303030",
	"8	c	#101010",
	"9	c	#686868",
	"A	c	#585858",
	"B	c	#282828",
	"C	c	#404040",
	"      699       ",
	"      0004      ",
	"     A00006     ",
	"     800002     ",
	"     001800     ",
	"    700 A00C    ",
	"    008  000    ",
	"   A00A  B009   ",
	"   400   6008   ",
	"  60049993000   ",
	"  B00000000007  ",
	"  000000000000  ",
	" 500C      B00A ",
	" 400       6004 ",
	"6008        4006",
	" 99          99 "};
static char *text_x24[] = {
	"24 24 18 1",
	" 	c	None",
	"0	c	#000000",
	"1	c	#282828",
	"2	c	#585858",
	"3	c	#101010",
	"4	c	#404040",
	"5	c	#707070",
	"6	c	#484848",
	"7	c	#080808",
	"8	c	#181818",
	"9	c	#303030",
	"A	c	#606060",
	"B	c	#787878",
	"C	c	#383838",
	"D	c	#202020",
	"E	c	#505050",
	"F	c	#686868",
	"G	c	#808080",
	"                        ",
	"         300004         ",
	"         000000         ",
	"        C000000A        ",
	"        00000003        ",
	"       A00000000        ",
	"       3000470009       ",
	"       0000 E0000       ",
	"      90008  0000E      ",
	"      0000F  D0007      ",
	"     20000   50000B     ",
	"     70009    0000D     ",
	"    G0000     40000     ",
	"    10007      00004    ",
	"    0000344444400000    ",
	"   E0000000000000000A   ",
	"   700000000000000003   ",
	"  B000000000000000000   ",
	"  10000          00009  ",
	"  00004          80000  ",
	" 60000           A0000E ",
	" 70007            00007 ",
	"500002            C0000B",
	"                        "};
static char *text_x32[] = {
	"32 32 16 1",
	" 	c	None",
	"0	c	#000000",
	"1	c	#303030",
	"2	c	#585858",
	"3	c	#101010",
	"4	c	#404040",
	"5	c	#707070",
	"6	c	#202020",
	"7	c	#505050",
	"8	c	#080808",
	"9	c	#181818",
	"A	c	#787878",
	"B	c	#606060",
	"C	c	#282828",
	"D	c	#484848",
	"E	c	#383838",
	"                                ",
	"            4000000             ",
	"            00000001            ",
	"           B00000000            ",
	"           9000000007           ",
	"           0000000008           ",
	"          E00000000005          ",
	"          000000000009          ",
	"         B00000D000000          ",
	"         300000 4000004         ",
	"         000006  000000         ",
	"        1000005  900000B        ",
	"        000000   B000003        ",
	"       2000004    000000        ",
	"       300000     1000001       ",
	"       000003      000000       ",
	"      100000B      8000007      ",
	"      000000       7000008      ",
	"     200000C        0000005     ",
	"     8000008999999990000009     ",
	"    A0000000000000000000000     ",
	"    C00000000000000000000004    ",
	"    000000000000000000000000    ",
	"   7000000000000000000000000B   ",
	"   8000002            6000003   ",
	"  A000000             A000000   ",
	"  6000001              8000001  ",
	"  000000               7000000  ",
	" D000008                0000007 ",
	" 8000007                C000008 ",
	"5000000                 A0000005",
	"                                "};

static char **text_xpm[3] = { text_x16, text_x24, text_x32 };
