static char *ties_x16[] = {
	"16 16 38 1",
	" 	c	None",
	"0	c	#000000",
	"1	c	#341F00",
	"2	c	#362100",
	"3	c	#382302",
	"4	c	#3E2702",
	"5	c	#450000",
	"6	c	#4C0000",
	"7	c	#520000",
	"8	c	#580000",
	"9	c	#402802",
	"A	c	#4E2401",
	"B	c	#4C2F02",
	"C	c	#5E3C05",
	"D	c	#6B0000",
	"E	c	#720000",
	"F	c	#7F0000",
	"G	c	#613C02",
	"H	c	#792100",
	"I	c	#734803",
	"J	c	#794D06",
	"K	c	#850000",
	"L	c	#980000",
	"M	c	#802801",
	"N	c	#942A01",
	"O	c	#B50000",
	"P	c	#B80000",
	"Q	c	#BD0000",
	"R	c	#BF0D00",
	"S	c	#B62601",
	"T	c	#804003",
	"U	c	#8A5706",
	"V	c	#945E07",
	"W	c	#A1670A",
	"X	c	#AE6F08",
	"Y	c	#BE7A0A",
	"Z	c	#D88B0D",
	"a	c	#000000",
	"          7     ",
	"         5K     ",
	"         K5     ",
	"         P      ",
	"         L      ",
	" C J C  N7      ",
	"2G0I0G1BR5000000",
	"4V Y V9TS       ",
	" W Z W HM       ",
	"2G0I0G1P60000000",
	"3U X UAO        ",
	"      8E        ",
	"      L         ",
	"      Q         ",
	"     6F         ",
	"     D          "};

static char *ties_x24[] = {
	"24 24 38 1",
	" 	c	None",
	"0	c	#000000",
	"1	c	#2B1900",
	"2	c	#3A0000",
	"3	c	#3F0000",
	"4	c	#450000",
	"5	c	#4C0000",
	"6	c	#520000",
	"7	c	#570000",
	"8	c	#5F0000",
	"9	c	#402801",
	"A	c	#503304",
	"B	c	#6B0000",
	"C	c	#700000",
	"D	c	#780000",
	"E	c	#7F0000",
	"F	c	#613D03",
	"G	c	#7E2100",
	"H	c	#7C2801",
	"I	c	#793D04",
	"J	c	#850000",
	"K	c	#8B0000",
	"L	c	#980000",
	"M	c	#9E0000",
	"N	c	#AA0000",
	"O	c	#B80000",
	"P	c	#BC0000",
	"Q	c	#BF1500",
	"R	c	#A42A01",
	"S	c	#B62C01",
	"T	c	#804504",
	"U	c	#805004",
	"V	c	#865607",
	"W	c	#8F5B05",
	"X	c	#996309",
	"Y	c	#A1670A",
	"Z	c	#BC790A",
	"a	c	#000000",
	"                        ",
	"               P        ",
	"              5E        ",
	"              K3        ",
	"              P         ",
	"             3K         ",
	"             E5         ",
	"             O          ",
	" V   V  X  AIL          ",
	"0U909U00W10FRC0000000000",
	"0U909U00W10FQ20000000000",
	" Y   Y  Z  TS           ",
	" Y   Y  Z  GH           ",
	" Y   Y  Z  N            ",
	"00000000007P000000000000",
	" Y   Y  Z 8B            ",
	"          M             ",
	"          O             ",
	"         6D             ",
	"         L              ",
	"         O              ",
	"        5E              ",
	"        J4              ",
	"        4               "};

static char *ties_x32[] = {
	"32 32 48 1",
	" 	c	None",
	"0	c	#000000",
	"1	c	#230000",
	"2	c	#380000",
	"3	c	#341F00",
	"4	c	#3C2604",
	"5	c	#430000",
	"6	c	#4D0000",
	"7	c	#520000",
	"8	c	#5F0000",
	"9	c	#412701",
	"A	c	#402801",
	"B	c	#4C2F02",
	"C	c	#523302",
	"D	c	#503304",
	"E	c	#650000",
	"F	c	#6B0000",
	"G	c	#720000",
	"H	c	#780000",
	"I	c	#7F0000",
	"J	c	#613D03",
	"K	c	#6A4203",
	"L	c	#6B4506",
	"M	c	#734803",
	"N	c	#850000",
	"O	c	#920000",
	"P	c	#980000",
	"Q	c	#9E0000",
	"R	c	#A50000",
	"S	c	#AA0000",
	"T	c	#B20000",
	"U	c	#B80000",
	"V	c	#BD0000",
	"W	c	#BC2001",
	"X	c	#8F5B05",
	"Y	c	#8D5A08",
	"Z	c	#9E6406",
	"a	c	#B65004",
	"b	c	#A1670A",
	"c	c	#BC790A",
	"d	c	#C50000",
	"e	c	#C60600",
	"f	c	#C90000",
	"g	c	#CC0000",
	"h	c	#C84203",
	"i	c	#C26206",
	"j	c	#D88B0D",
	"k	c	#000000",
	"                                ",
	"                   2G           ",
	"                   Ng7          ",
	"                   Vg           ",
	"                  2gQ           ",
	"                  Ig8           ",
	"                  Ug            ",
	"                  gS            ",
	"                 FgF            ",
	"                 Tg             ",
	"                 gU             ",
	" Db   bY  4b4  YagH             ",
	"0BM300MK009M900KWgE0000000000000",
	"0000000000000006gd10000000000000",
	" Lj   jc  DjD  igI              ",
	" Lj   jc  DjD  hg5              ",
	" Lj   jc  DjD  ee               ",
	" Lj   jc  DjD 6gO               ",
	" JZA00ZX00CZC0PgF000000000000000",
	"00000000000001fg5000000000000000",
	" Lj   jc  DjD2gP                ",
	"             Ig8                ",
	"             Vg                 ",
	"             gS                 ",
	"            GgE                 ",
	"            Tg                  ",
	"            gT                  ",
	"           EgH                  ",
	"           Rg                   ",
	"           gV                   ",
	"           SI                   ",
	"                                "};

static char **ties_xpm[3] = { ties_x16, ties_x24, ties_x32 };

