static char *train_x16[] = {
	"16 16 10 1",
	" 	c	None",
	"0	c	#000000",
	"1	c	#006633",
	"2	c	#333333",
	"3	c	#336633",
	"4	c	#33CC66",
	"5	c	#666666",
	"6	c	#669933",
	"7	c	#999933",
	"8	c	#808080",
	"                ",
	"                ",
	"                ",
	" 888888888      ",
	"  8888888888    ",
	"   5588888 55   ",
	"   0002    00   ",
	"     00  0 00   ",
	"   1674444444   ",
	"   13311111110  ",
	"     0000000 00 ",
	"     0000 00 00 ",
	"                ",
	"                ",
	"                ",
	"                "};

static char *train_x24[] = {
	"24 24 10 1",
	" 	c	None",
	"0	c	#000000",
	"1	c	#006633",
	"2	c	#009966",
	"3	c	#333333",
	"4	c	#336633",
	"5	c	#666666",
	"6	c	#999933",
	"7	c	#CC9933",
	"8	c	#808080",
	"                        ",
	"                        ",
	"                        ",
	"                        ",
	"   8888888              ",
	"  88  88888888          ",
	"  888 8888888888        ",
	"    8888   888  88      ",
	"     038888888   35     ",
	"     00000       000    ",
	"        00   00  00     ",
	"     111111111111111    ",
	"     147422222222222    ",
	"     116122222222222    ",
	"        0  00  0   00   ",
	"       000 000000   00  ",
	"     00000 00000000000  ",
	"        0  00  0        ",
	"                        ",
	"                        ",
	"                        ",
	"                        ",
	"                        ",
	"                        "};

static char *train_x32[] = {
	"32 32 11 1",
	" 	c	None",
	"0	c	#000000",
	"1	c	#006633",
	"2	c	#009933",
	"3	c	#009966",
	"4	c	#333333",
	"5	c	#336633",
	"6	c	#666666",
	"7	c	#999933",
	"8	c	#CCCC33",
	"9	c	#808080",
	"                                ",
	"                                ",
	"                                ",
	"                                ",
	"                                ",
	"                                ",
	"   999999999999                 ",
	"   9     9999999999             ",
	"    99  99999999 9999           ",
	"     9999      999  999         ",
	"       999999    99   99        ",
	"       00  9999999    0460      ",
	"       00000          0000      ",
	"           00     0    000      ",
	"           00    000   000      ",
	"       11111111111111111111     ",
	"       15881333333333333333     ",
	"       11571333333333333333     ",
	"       11751222222222222222     ",
	"          000  00   00    0     ",
	"          00000000 0000    0    ",
	"      00000000000000000000000   ",
	"       00 000  000 000000 00    ",
	"                                ",
	"                                ",
	"                                ",
	"                                ",
	"                                ",
	"                                ",
	"                                ",
	"                                ",
	"                                "};

static char *train_xpm[3] = { train_x16, train_x24, train_x32 };

