static char *tunnel_x16[] = {
	"16 16 22 1",
	" 	c	None",
	"0	c	#202020",
	"1	c	#c07820",
	"2	c	#707070",
	"3	c	#a8a8a8",
	"4	c	#383838",
	"5	c	#c8a878",
	"6	c	#888888",
	"7	c	#482808",
	"8	c	#585858",
	"9	c	#b0b0b0",
	"A	c	#808080",
	"B	c	#484848",
	"C	c	#303030",
	"D	c	#909090",
	"E	c	#b8b8b8",
	"F	c	#c08028",
	"G	c	#787878",
	"H	c	#282828",
	"I	c	#404040",
	"J	c	#483008",
	"K	c	#c8a880",
	"                ",
	"                ",
	"                ",
	"                ",
	"    C           ",
	" K 5 4      E E ",
	" JB7BH26666DADA ",
	" F 1 8 E  9 3 3 ",
	" F 1 8 E  9 3 3 ",
	" JB7B02A666DADA ",
	"     I          ",
	"    CG          ",
	"                ",
	"                ",
	"                ",
	"                "};
static char *tunnel_x24[] = {
	"24 24 41 1",
	" 	c	None",
	"0	c	#080808",
	"1	c	#7c7878",
	"2	c	#483830",
	"3	c	#a0a0a0",
	"4	c	#c08840",
	"5	c	#784000",
	"6	c	#c07000",
	"7	c	#282828",
	"8	c	#909090",
	"9	c	#505050",
	"A	c	#785830",
	"B	c	#b0b0b0",
	"C	c	#c8a068",
	"D	c	#402800",
	"E	c	#484040",
	"F	c	#888888",
	"G	c	#787058",
	"H	c	#686868",
	"I	c	#101010",
	"J	c	#c89052",
	"K	c	#785020",
	"L	c	#908068",
	"M	c	#b8b8b8",
	"N	c	#989898",
	"O	c	#a8a8a8",
	"P	c	#402c14",
	"Q	c	#504020",
	"R	c	#886028",
	"S	c	#181818",
	"T	c	#584840",
	"U	c	#808080",
	"V	c	#885000",
	"W	c	#c8a478",
	"X	c	#585855",
	"Y	c	#503000",
	"Z	c	#886838",
	"a	c	#303030",
	"b	c	#484848",
	"c	c	#583818",
	"d	c	#c88838",
	"                        ",
	"                        ",
	"                        ",
	"                        ",
	"                        ",
	"                        ",
	"      Ib                ",
	"       77               ",
	" WC  4  I  M   B  B  MM ",
	" PPb2DEb0HFUUFFUFFUFFUU ",
	" ZR LV  IU N3 3N  8O N3 ",
	" Jd  6  S  OM MO  3  BB ",
	" Jd  6  S  OM MO  3  BB ",
	" AKUG51UI1O8NON8O383O8N ",
	" QcXTYXX0HNFFNFUN8U8NFF ",
	"  W  J  I  M   B  B  M  ",
	"       aS               ",
	"      09                ",
	"                        ",
	"                        ",
	"                        ",
	"                        ",
	"                        ",
	"                        "};
static char *tunnel_x32[] = {
	"32 32 41 1",
	" 	c	None",
	"0	c	#000000",
	"1	c	#5c5854",
	"2	c	#c07000",
	"3	c	#919090",
	"4	c	#282828",
	"5	c	#c08028",
	"6	c	#787878",
	"7	c	#583000",
	"8	c	#a8a8a8",
	"9	c	#101010",
	"A	c	#58401c",
	"B	c	#888080",
	"C	c	#505050",
	"D	c	#c89048",
	"E	c	#1a1818",
	"F	c	#686868",
	"G	c	#a0a0a0",
	"H	c	#585050",
	"I	c	#302000",
	"J	c	#343030",
	"K	c	#b0b0b0",
	"L	c	#c89858",
	"M	c	#705024",
	"N	c	#704000",
	"O	c	#808080",
	"P	c	#71706f",
	"Q	c	#989898",
	"R	c	#382810",
	"S	c	#c07810",
	"T	c	#c88838",
	"U	c	#b8b8b8",
	"V	c	#606060",
	"W	c	#181004",
	"X	c	#202020",
	"Y	c	#383836",
	"Z	c	#c8a068",
	"a	c	#807878",
	"b	c	#888888",
	"c	c	#080808",
	"d	c	#302010",
	"                                ",
	"                                ",
	"                                ",
	"                                ",
	"                                ",
	"                                ",
	"                                ",
	"        F                       ",
	"        0X                      ",
	"         9c                     ",
	"          40                    ",
	"  SL  DS   06  8K  U8   8K  K8  ",
	" 17AVVA71VC0VQQbbQQ3b3QQbbQQbbQ ",
	" JIRYYdIYYJ0HbbaObbOaBbbaObbOab ",
	"  2D  T2   0   GK  KG   GK  KG  ",
	"  2D  T2   0   GK  KG   GK  KG  ",
	"  2D  T2   0   GK  KG   GK  KG  ",
	"  2D  T2   0   GK  KG   GK  KG  ",
	" EWWXXWWEXE0C66PP666P666PP66PP6 ",
	" PNM66MNP6F0FGGb3GGQbGGGb3GG3bG ",
	"  5Z  L5   0   8K  U8   8K  U8  ",
	"          Y06                   ",
	"         90P                    ",
	"       P04                      ",
	"        6                       ",
	"                                ",
	"                                ",
	"                                ",
	"                                ",
	"                                ",
	"                                ",
	"                                "};

static char **tunnel_xpm[3] = { tunnel_x16, tunnel_x24, tunnel_x32 };
