static char *turnout_x16[] = {
	"16 16 8 1",
	" 	c	None",
	"0	c	#000000",
	"1	c	#330000",
	"2	c	#333300",
	"3	c	#663300",
	"4	c	#996600",
	"5	c	#CC6600",
	"6	c	#CC9900",
	"                ",
	"                ",
	"                ",
	"                ",
	"            64  ",
	"          6414  ",
	"        53236650",
	"     541346 5234",
	"2323002232301231",
	" 54545543133535 ",
	" 54533124453535 ",
	"2323123232313130",
	"                ",
	"                ",
	"                ",
	"                "};

static char *turnout_x24[] = {
	"24 24 8 1",
	" 	c	None",
	"0	c	#000000",
	"1	c	#330000",
	"2	c	#333300",
	"3	c	#663300",
	"4	c	#996600",
	"5	c	#CC6600",
	"6	c	#CC9900",
	"                        ",
	"                        ",
	"                        ",
	"                        ",
	"                        ",
	"                        ",
	"                   6    ",
	"                 6 32   ",
	"               643036   ",
	"            6602346 66  ",
	"          6 32056 6  40 ",
	"       6 33046 66 64035 ",
	" 3404302014034043003243 ",
	" 3404304224034030043043 ",
	" 66 66 6  6 32046 66 6  ",
	" 66 66 6322035 66 66 6  ",
	"02303200003023032032032 ",
	" 45 5405335 45 54 54 54 ",
	"                        ",
	"                        ",
	"                        ",
	"                        ",
	"                        ",
	"                        "};

static char *turnout_x32[] = {
	"32 32 8 1",
	" 	c	None",
	"0	c	#000000",
	"1	c	#330000",
	"2	c	#333300",
	"3	c	#663300",
	"4	c	#996600",
	"5	c	#CC6600",
	"6	c	#CC9900",
	"                                ",
	"                                ",
	"                                ",
	"                                ",
	"                                ",
	"                                ",
	"                                ",
	"                                ",
	"                          6     ",
	"                          50    ",
	"                     6660035    ",
	"                    66121  6    ",
	"                 6  32056  66   ",
	"             6   50046  6   6 0 ",
	"             64004  66  66  32  ",
	"  6   6  66 0310 6  66   62046  ",
	"  54  500320044  5  45 0113054  ",
	" 032003001300320030022002320320 ",
	"  6   6  66  6   63014  66  66  ",
	"  6   6  66  6  021066  66  66  ",
	"  6   6  66  41006  66  66  66  ",
	"  54  500330044  53 45  45  54  ",
	" 032003001300320031023002300320 ",
	"  6   6  66  6   6  66  66  66  ",
	"                                ",
	"                                ",
	"                                ",
	"                                ",
	"                                ",
	"                                ",
	"                                ",
	"                                "};

static char **turnout_xpm[3] = { turnout_x16, turnout_x24, turnout_x32 };

