static char *turnout_designer_x16[] = {
	"16 16 15 1",
	" 	c	None",
	"0	c	#000000",
	"1	c	#330000",
	"2	c	#333300",
	"3	c	#333333",
	"4	c	#663300",
	"5	c	#666666",
	"6	c	#996600",
	"7	c	#999999",
	"8	c	#CC6600",
	"9	c	#CC9900",
	"A	c	#CC9966",
	"B	c	#CCCCCC",
	"C	c	#C0C0C0",
	"D	c	#808080",
	"                ",
	"                ",
	"     BBBBBBB    ",
	"    B777777CB   ",
	"   BC5500557B   ",
	"   BBBBD3BBBB   ",
	"      BD3B99640 ",
	"      BD3B64169 ",
	"      CD3B669 60",
	" 9 9667D3B9 6168",
	"10000077DB000000",
	" 9 999ACC76 9 9 ",
	"4424101244414240",
	" 86646866684868 ",
	"                ",
	"                "};

static char *turnout_designer_x24[] = {
	"24 24 17 1",
	" 	c	None",
	"0	c	#000000",
	"1	c	#330000",
	"2	c	#333300",
	"3	c	#333333",
	"4	c	#663300",
	"5	c	#666666",
	"6	c	#996600",
	"7	c	#999966",
	"8	c	#999999",
	"9	c	#CC6600",
	"A	c	#CC9900",
	"B	c	#CC9999",
	"C	c	#CCCC99",
	"D	c	#CCCCCC",
	"E	c	#C0C0C0",
	"F	c	#808080",
	"                        ",
	"                        ",
	"                        ",
	"                        ",
	"      DDEEEEEEEEEDD     ",
	"      D50000000008D     ",
	"     DE00000000008D     ",
	"     DDEEE8005EEEDD     ",
	"         DD008D         ",
	"          D008D    A40  ",
	"          D008DAAA016   ",
	"          D008D9424 AA  ",
	"          D008846AA  A0 ",
	"       A  D008EAA AA024 ",
	" AA A  925D008DAA 4409A ",
	"0000000003D0088000000000",
	" AA A  A  DEED826 AA A  ",
	" AA A  A  7FF7 AA AA A  ",
	" 66 96040040 9 66 66 96 ",
	"044041041140040440440420",
	" AA A  A  A  A AA AA A  ",
	"                        ",
	"                        ",
	"                        "};

static char *turnout_designer_x32[] = {
	"32 32 14 1",
	" 	c	None",
	"0	c	#000000",
	"1	c	#330000",
	"2	c	#333300",
	"3	c	#333333",
	"4	c	#663300",
	"5	c	#666666",
	"6	c	#993300",
	"7	c	#996600",
	"8	c	#999999",
	"9	c	#CC6600",
	"A	c	#CC9900",
	"B	c	#CCCCCC",
	"C	c	#C0C0C0",
	"                                ",
	"                                ",
	"                                ",
	"                                ",
	"                                ",
	"        BBBBBBBBBBBBBBBBB       ",
	"        BB5555555555555BB       ",
	"        B80000000000000BB       ",
	"       BB30000000000000BB       ",
	"       BC55555500355555BB       ",
	"      BBBBBBBB8003BBBBBBB       ",
	"             B8003BB            ",
	"             B8003BB      A00   ",
	"             B8003BB AA  044    ",
	"             B8003BB A97007A    ",
	"             B8003BB76077  AA   ",
	"             B8003B827 AA   A   ",
	"             B8003BC A  A   920 ",
	"         AA  B8003BB A  AA 019  ",
	"  A   A  9700B8003BB A  0410AA  ",
	" 041014000200B8003B824000440440 ",
	"  94 490079  BC888B8210079  77  ",
	"  A   A  AA  BBBBCC87A   A  AA  ",
	"  A   A  AA  74007A  A   A  AA  ",
	"  A   A  770047  AA  A   A  AA  ",
	" 000000000000000000000000000000 ",
	"  A   A  AA  AA  AA  A   A  AA  ",
	"  A   A   A  A   A   A   A   A  ",
	"                                ",
	"                                ",
	"                                ",
	"                                "};

static char **turnout_designer_xpm[3] = { turnout_designer_x16, turnout_designer_x24, turnout_designer_x32 };

