static char *turnout_design_x16[] = {
	"16 16 14 1",
	" 	c	None",
	"0	c	#000000",
	"1	c	#330000",
	"2	c	#333300",
	"3	c	#663300",
	"4	c	#666666",
	"5	c	#996600",
	"6	c	#996666",
	"7	c	#999966",
	"8	c	#CC6600",
	"9	c	#CC6633",
	"A	c	#CC9900",
	"B	c	#CC9966",
	"C	c	#FFCC66",
	"                ",
	"         44     ",
	"        4774    ",
	"       47CC4    ",
	"      47CC6     ",
	"     47CC6      ",
	"    44CC6       ",
	"    4B66  AA330 ",
	"    4B64A 5238A ",
	"    44953158A 50",
	" 855532235833155",
	"2322123232202330",
	" A AAA53138 A A ",
	"2323101233313230",
	" 85538855583858 ",
	"                "};

static char *turnout_design_x24[] = {
	"24 24 12 1",
	" 	c	None",
	"0	c	#000000",
	"1	c	#330000",
	"2	c	#333300",
	"3	c	#663300",
	"4	c	#666666",
	"5	c	#996600",
	"6	c	#999966",
	"7	c	#CC6600",
	"8	c	#CC9900",
	"9	c	#CC9966",
	"A	c	#FFCC66",
	"                        ",
	"                        ",
	"              44        ",
	"             4994       ",
	"            49AA94      ",
	"           49AAA94      ",
	"          49AAA94       ",
	"         49AAA94        ",
	"        49AAA94         ",
	"       46AAA94          ",
	"      4969A94      830  ",
	"      4AA664    88 32   ",
	"      4AA94    853118   ",
	"      4444   801358 88  ",
	"          8012078 8  51 ",
	" 8  8  8321038 88 75058 ",
	" 5505201115025053013153 ",
	" 5505305225025011035053 ",
	" 88 8  8  8002078 88 8  ",
	" 88 8  7311008 88 88 8  ",
	"000000000000000000000000",
	" 88 8  8  8  8 88 88 8  ",
	"                        ",
	"                        "};

static char *turnout_design_x32[] = {
	"32 32 14 1",
	" 	c	None",
	"0	c	#000000",
	"1	c	#330000",
	"2	c	#333300",
	"3	c	#663300",
	"4	c	#666666",
	"5	c	#996600",
	"6	c	#996666",
	"7	c	#999966",
	"8	c	#CC6600",
	"9	c	#CC9900",
	"A	c	#CC9966",
	"B	c	#FF9966",
	"C	c	#FFCC66",
	"                                ",
	"                                ",
	"                                ",
	"                   44           ",
	"                  4AA4          ",
	"                 4ACCA4         ",
	"                4ACCCCA4        ",
	"               4ACCCCA4         ",
	"              4ACCCCA4          ",
	"             4ACCCCA4           ",
	"            4ACCCCB6            ",
	"           4ACCCCB6             ",
	"          4ACCCCB6              ",
	"         4A7CCCB6               ",
	"        4ACA7CB6          900   ",
	"        4CCCA76      999 025    ",
	"        4CCCB4       95300 9    ",
	"        4AAA6    99 33059  99   ",
	"        4444 9   83038  9   9 0 ",
	"             990025  9  99  520 ",
	"  9   9  99 0310 99  9   90029  ",
	"  9   9  530059  99  9  123 99  ",
	" 000000000000000000000000000000 ",
	"  9   9  99  99  980130  9  99  ",
	"  9   9  99  99 031089   9  99  ",
	"  9   9  99  520089  9   9  99  ",
	"  9   9  530055  99  9   9  99  ",
	" 000000000000000000000000000000 ",
	"  9   9  99  99  99  9   9  99  ",
	"  9   9              9   9      ",
	"                                ",
	"                                "};

static char **turnout_design_xpm[3] = { turnout_design_x16, turnout_design_x24, turnout_design_x32 };

