static char *zoom_out_x16[] = {
	"16 16 41 1",
	" 	c	None",
	"0	c	#000000",
	"1	c	#7898a8",
	"2	c	#485c60",
	"3	c	#303030",
	"4	c	#a8d8e8",
	"5	c	#587880",
	"6	c	#182020",
	"7	c	#384850",
	"8	c	#688894",
	"9	c	#506870",
	"A	c	#787878",
	"B	c	#80b0b8",
	"C	c	#303d40",
	"D	c	#a8e8f8",
	"E	c	#485050",
	"F	c	#606868",
	"G	c	#585858",
	"H	c	#282828",
	"I	c	#384040",
	"J	c	#484848",
	"K	c	#88b8c5",
	"L	c	#6c7070",
	"M	c	#80a8b8",
	"N	c	#a8e0f0",
	"O	c	#70909c",
	"P	c	#383838",
	"Q	c	#808080",
	"R	c	#608088",
	"S	c	#384048",
	"T	c	#b0e8f8",
	"U	c	#404848",
	"V	c	#587078",
	"W	c	#606060",
	"X	c	#78a0b0",
	"Y	c	#88b0c0",
	"Z	c	#a8e0f8",
	"a	c	#505050",
	"b	c	#484850",
	"c	c	#404040",
	"d	c	#202020",
	"     AL         ",
	"   E2MK8C       ",
	"  IKTTTTT2      ",
	" QOTTTTTTTC     ",
	" UDDZZZZZTR     ",
	" UT6000009XQ    ",
	" ST855555BO     ",
	" FKTTTTTTT7     ",
	"  CNTTTTT1a     ",
	"   IYTT4V6H     ",
	"    FSUbAHGH    ",
	"          3a3   ",
	"          LPJJ  ",
	"           aJcW ",
	"            Pd  ",
	"                "};
static char *zoom_out_x24[] = {
	"24 24 41 1",
	" 	c	None",
	"0	c	#000000",
	"1	c	#78a4b0",
	"2	c	#303840",
	"3	c	#a0d0e0",
	"4	c	#40585c",
	"5	c	#161818",
	"6	c	#587880",
	"7	c	#90c0d0",
	"8	c	#585858",
	"9	c	#a8e0f0",
	"A	c	#404040",
	"B	c	#081010",
	"C	c	#202828",
	"D	c	#687070",
	"E	c	#506870",
	"F	c	#86b0c0",
	"G	c	#484848",
	"H	c	#000808",
	"I	c	#606060",
	"J	c	#182022",
	"K	c	#2d3030",
	"L	c	#486068",
	"M	c	#afe8f8",
	"N	c	#a4d8ec",
	"O	c	#98c8d8",
	"P	c	#608088",
	"Q	c	#88b8c6",
	"R	c	#686868",
	"S	c	#787878",
	"T	c	#383838",
	"U	c	#505050",
	"V	c	#101010",
	"W	c	#505858",
	"X	c	#202020",
	"Y	c	#404848",
	"Z	c	#080808",
	"a	c	#98d0e0",
	"b	c	#608890",
	"c	c	#282828",
	"d	c	#707070",
	"                        ",
	"      GZ5CBVI           ",
	"    dB6NMMMOLV          ",
	"   dJaMMMMMMMFV         ",
	"   V3MMMMMMMMMFV        ",
	"  AbMMMMMMMMMMM4R       ",
	"  H9MMMMMMMMMMMFX       ",
	"  KMOEEEEEEEEE7M0       ",
	"  2M10000000001MB       ",
	"  CMQ222222222QM0       ",
	"  ZNMMMMMMMMMMMQX       ",
	"  YPMMMMMMMMMMM4I       ",
	"   B3MMMMMMMMMFB        ",
	"   DJ3MMMMMMMQZZ        ",
	"    DVP9MMMOLHKKX       ",
	"      YZJC5VW5TIcA      ",
	"              ZGI58     ",
	"               ZU8VS    ",
	"                V8UZ    ",
	"                I5IGZ   ",
	"                 AXIT5  ",
	"                  Xc5A  ",
	"                   VR   ",
	"                        "};
static char *zoom_out_x32[] = {
	"32 32 41 1",
	" 	c	None",
	"0	c	#000000",
	"1	c	#688898",
	"2	c	#2e3030",
	"3	c	#98c8d8",
	"4	c	#405860",
	"5	c	#081010",
	"6	c	#35484a",
	"7	c	#587880",
	"8	c	#a8e0f8",
	"9	c	#1e2020",
	"A	c	#80acb8",
	"B	c	#585858",
	"C	c	#484848",
	"D	c	#304042",
	"E	c	#a8d8ea",
	"F	c	#707070",
	"G	c	#070808",
	"H	c	#606060",
	"I	c	#383838",
	"J	c	#10181a",
	"K	c	#385056",
	"L	c	#262828",
	"M	c	#283838",
	"N	c	#404040",
	"O	c	#88b2c0",
	"P	c	#787878",
	"Q	c	#a0d8e8",
	"R	c	#505050",
	"S	c	#4c646c",
	"T	c	#686868",
	"U	c	#7094a4",
	"V	c	#a8e0f0",
	"W	c	#8cb8c8",
	"X	c	#181818",
	"Y	c	#405058",
	"Z	c	#101010",
	"a	c	#9dd0e0",
	"b	c	#b0e8f8",
	"c	c	#2c3840",
	"d	c	#808080",
	"                                ",
	"         TIXZXIT                ",
	"       R05Y717KZ0C              ",
	"      ZZU8bbbbbbUJ5             ",
	"     GcEbbbbbbbbbV6G            ",
	"    9cVbbbbbbbbbbbb6Z           ",
	"   H5abbbbbbbbbbbbbEZR          ",
	"   G7bbbbbbbbbbbbbbb10          ",
	"   0QbbbbbbbbbbbbbbbE0d         ",
	"  BLbbVVVVVVVVVVVVVbbMR         ",
	"  NYbbD000000000000Qb42         ",
	"  I4bbD000000000000QbS2         ",
	"  CDbb6000000000000QbYI         ",
	"  TJbbbbbbbbbbbbbbbbbLB         ",
	"   0Obbbbbbbbbbbbbbba0          ",
	"   9KbbbbbbbbbbbbbbbSZ          ",
	"    0AbbbbbbbbbbbbbW0P          ",
	"    NZ3bbbbbbbbbbbaJG           ",
	"     LZAbbbbbbbbbOZ0GI          ",
	"      N0KWbbbbbOK0GBR0R         ",
	"        L0GMDMG0LLGRHN0F        ",
	"          FRRRP   LGBH20        ",
	"                   ZXHHL0       ",
	"                    G9HHXZ      ",
	"                     02HBZL     ",
	"                     F0NHBGN    ",
	"                      R0RHC0H   ",
	"                       2GBHI0   ",
	"                        9ZRZZ   ",
	"                         G09    ",
	"                          C     ",
	"                                "};

static char **zoom_out_xpm[3] = { zoom_out_x16, zoom_out_x24, zoom_out_x32 };
