static char *zoom_choose_x16[] = {
	"16 16 13 1",
	" 	c	None",
	"0	c	#000000",
	"1	c	#333333",
	"2	c	#333366",
	"3	c	#336666",
	"4	c	#666666",
	"5	c	#669999",
	"6	c	#6699CC",
	"7	c	#9999CC",
	"8	c	#99CCCC",
	"9	c	#99CCFF",
	"A	c	#99FFFF",
	"B	c	#CCFFFF",
	"                ",
	"    13421       ",
	"  249BBB93      ",
	"  3BBBBBB92     ",
	" 18500000650    ",
	" 19934443981    ",
	" 19B73438B81    ",
	" 18BB415BB50    ",
	"  3BBA5BBA3     ",
	"  15ABBB931     ",
	"   014431141    ",
	"         0140   ",
	"          0140  ",
	"           0110 ",
	"            010 ",
	"                "};

static char *zoom_choose_x24[] = {
	"24 24 15 1",
	" 	c	None",
	"0	c	#000000",
	"1	c	#003333",
	"2	c	#333333",
	"3	c	#333366",
	"4	c	#336666",
	"5	c	#666666",
	"6	c	#666699",
	"7	c	#669999",
	"8	c	#6699CC",
	"9	c	#9999CC",
	"A	c	#99CCCC",
	"B	c	#99CCFF",
	"C	c	#99FFFF",
	"D	c	#CCFFFF",
	"                        ",
	"       02220            ",
	"     227ABA832          ",
	"    37DDDDDDC93         ",
	"   29DDDDDDDDDA3        ",
	"   4DDDDDDDDDDD72       ",
	"  2AD755555556CB2       ",
	"  2CD725555525DD2       ",
	"  0DDD4555554BDD4       ",
	"  2DDDB45554ADDD4       ",
	"  2BDDDA4557DDDD1       ",
	"  2ADDDD754CDDDB2       ",
	"   4DDDDC4BDDDD72       ",
	"   27DDDDDDDDDA2        ",
	"    37CDDDDDD7350       ",
	"     0279AA6222520      ",
	"       00220  05520     ",
	"               05520    ",
	"                2552    ",
	"                 2552   ",
	"                 02550  ",
	"                  0220  ",
	"                   0    ",
	"                        "};

static char *zoom_choose_x32[] = {
	"32 32 16 1",
	" 	c	None",
	"0	c	#000000",
	"1	c	#000033",
	"2	c	#003333",
	"3	c	#333333",
	"4	c	#333366",
	"5	c	#336666",
	"6	c	#666666",
	"7	c	#666699",
	"8	c	#669999",
	"9	c	#6699CC",
	"A	c	#9999CC",
	"B	c	#99CCCC",
	"C	c	#99CCFF",
	"D	c	#99FFFF",
	"E	c	#CCFFFF",
	"                                ",
	"                                ",
	"         31560130               ",
	"       36BEEEEEC83              ",
	"      3AEEEEEEEEEC64            ",
	"     4CEEEEEEEEEEEE83           ",
	"    4BEEEEEEEEEEEEED5           ",
	"    5EEEEEEEEEEEEEEEC3          ",
	"   3CEDAAAAAAAAAAABEE5          ",
	"   2EED333333333339EEB3         ",
	"   4EEEC4666666666EEEB3         ",
	"   6EEEE956666665CEEEC3         ",
	"  08EEEEE6666665BEEEEC3         ",
	"   5EEEEEC566668EEEEEB3         ",
	"   3EEEEEEB5665EEEEEE80         ",
	"   3BEEEEEE865CEEEEEE5          ",
	"    5EEEEEEE5AEEEEEEB3          ",
	"    38EEEEEEDEEEEEED3           ",
	"     4BEEEEEEEEEEED530          ",
	"      38DEEEEEEEEB36630         ",
	"       33BCCEECB7336663         ",
	"         33300330 036660        ",
	"                   036660       ",
	"                    036663      ",
	"                     066630     ",
	"                      066630    ",
	"                       366630   ",
	"                        36660   ",
	"                        03630   ",
	"                         000    ",
	"                                ",
	"                                "};

static char **zoom_choose_xpm[3] = { zoom_choose_x16, zoom_choose_x24, zoom_choose_x32 };

