static char *zoom_extent_x16[] = {
	"16 16 8 1",
	" 	c	None",
	"0	c	#000000",
	"1	c	#333333",
	"2	c	#666666",
	"3	c	#999999",
	"4	c	#CC0000",
	"5	c	#CCCCCC",
	"6	c	#C0C0C0",
	"                ",
	" 4444      4444 ",
	" 44          44 ",
	" 4 4        4 4 ",
	" 4  4      4  4 ",
	"     412014     ",
	"     13551      ",
	"     155520     ",
	"     13561      ",
	"      1110      ",
	"     4  00      ",
	" 4  44  00 4  4 ",
	" 4 44   00  4 4 ",
	" 444         44 ",
	" 4444      4444 ",
	"              4 "};

static char *zoom_extent_x24[] = {
	"24 24 9 1",
	" 	c	None",
	"0	c	#000000",
	"1	c	#333333",
	"2	c	#660000",
	"3	c	#666666",
	"4	c	#CC0000",
	"5	c	#CCCCCC",
	"6	c	#C0C0C0",
	"7	c	#808080",
	"                        ",
	"  4                  4  ",
	" 4444444         444444 ",
	"  44                444 ",
	"  4 4              4 44 ",
	"  4  4            4  44 ",
	"  4   4          4   44 ",
	"  4    4  111   4    4  ",
	"         17671          ",
	"        1655561         ",
	"        3555553         ",
	"        3555551         ",
	"        1555551         ",
	"        1365631         ",
	"          1010          ",
	"            00          ",
	"       4    010 4       ",
	"  4   44     10 44   44 ",
	"  4  44      00  44  44 ",
	"  4 44            44 44 ",
	"  444              4444 ",
	"  44444          444444 ",
	"  444444         44444  ",
	"                        "};

static char *zoom_extent_x32[] = {
	"32 32 9 1",
	" 	c	None",
	"0	c	#000000",
	"1	c	#333333",
	"2	c	#666666",
	"3	c	#999999",
	"4	c	#CC0000",
	"5	c	#CCCCCC",
	"6	c	#C0C0C0",
	"7	c	#808080",
	"                                ",
	"                                ",
	"  44444444            44444444  ",
	"  44444444            44444444  ",
	"  4444                    4444  ",
	"  44444                  44444  ",
	"  44 444                444 44  ",
	"  44  444              444  44  ",
	"  44   444            444   44  ",
	"  44    444          444    44  ",
	"         44  10011   44         ",
	"            1355531             ",
	"           155555531            ",
	"          1755555551            ",
	"          1355555551            ",
	"          1355555551            ",
	"           255555561            ",
	"           13555552             ",
	"            1236311             ",
	"             01110              ",
	"                010             ",
	"         44     010   4         ",
	"        444      110 444        ",
	"  44   444       010  444   44  ",
	"  44  444        010   444  44  ",
	"  44 444          0     444 44  ",
	"  44444                  44444  ",
	"  4444                    4444  ",
	"  44444444             4444444  ",
	"  44444444            44444444  ",
	"                                ",
	"                                "};

static char **zoom_extent_xpm[3] = { zoom_extent_x16, zoom_extent_x24, zoom_extent_x32 };

